(G-code generated by FlatCAM Evo vUnstable - Version Date: 2023/6/31)

(Name: PCB1_VSSS_Copper_Signal_Bot.gbr_iso_cnc)
(Type: G-code from Geometry)
(Units: MM)

(Created on Friday, 30 August 2024 at 19:51)

(This preprocessor is the default preprocessor.)
(It is made to work with MACH3 compatible motion controllers.)

(TOOL DIAMETER: 0.5 mm)
(Feedrate_XY: 120.0 mm/min)
(Feedrate_Z: 60.0 mm/min)
(Feedrate rapids 1500.0 mm/min)

(Z_Cut: -0.15 mm)
(DepthPerCut: 0.05 mm <=>3 passes)
(Z_Move: 2.0 mm)
(Z Start: None mm)
(Z End: 15.0 mm)
(X,Y End: 0.0000, 0.0000 mm)
(Steps per circle: 16)
(Preprocessor Geometry: default)

(X range:   19.7518 ...   75.3636  mm)
(Y range:    1.2092 ...   46.7091  mm)

(Spindle Speed: 3000.0 RPM)
G21
G90
G94

G01 F120.00

M5
G00 Z15.0000
G00 X0.0000 Y0.0000
T1
M6    
(MSG, Change to Tool Dia = 0.5000)
M0
G00 Z15.0000

M03 S3000.0
G01 F120.00
G00 X22.6929 Y3.8284
G01 F60.00
G01 Z-0.0500
G01 F120.00
G01 X22.4979 Y3.8092
G01 X22.3027 Y3.8284
G01 X22.1150 Y3.8853
G01 X21.9419 Y3.9777
G01 X21.7900 Y4.1021
G01 X21.6653 Y4.2536
G01 X21.5725 Y4.4265
G01 X21.5151 Y4.6141
G01 X21.4954 Y4.8092
G01 X21.5141 Y5.0043
G01 X21.5706 Y5.1919
G01 X21.6625 Y5.3648
G01 X21.7865 Y5.5163
G01 X21.9377 Y5.6407
G01 X22.1104 Y5.7331
G01 X22.2979 Y5.7900
G01 X22.4929 Y5.8092
G01 X22.6880 Y5.7900
G01 X22.8758 Y5.7331
G01 X23.0489 Y5.6407
G01 X23.2007 Y5.5163
G01 X23.3255 Y5.3648
G01 X23.4183 Y5.1919
G01 X23.4757 Y5.0043
G01 X23.4954 Y4.8092
G01 X23.4767 Y4.6141
G01 X23.4202 Y4.4265
G01 X23.3282 Y4.2536
G01 X23.2043 Y4.1021
G01 X23.0530 Y3.9777
G01 X22.8804 Y3.8853
G01 X22.6929 Y3.8284
G00 Z2.0000
G00 X23.1367 Y4.0465
G01 F60.00
G01 Z-0.0500
G01 F120.00
G01 X23.0530 Y3.9777
G01 X22.8804 Y3.8853
G01 X22.6929 Y3.8284
G01 X22.3027 Y3.8284
G01 X22.4979 Y3.8092
G01 X22.6929 Y3.8284
G00 X22.6929 Y3.8284
G01 F60.00
G01 Z-0.1000
G01 F120.00
G01 X22.8804 Y3.8853
G01 X23.0530 Y3.9777
G01 X23.2043 Y4.1021
G01 X23.3282 Y4.2536
G01 X23.4202 Y4.4265
G01 X23.4767 Y4.6141
G01 X23.4954 Y4.8092
G01 X23.4757 Y5.0043
G01 X23.4183 Y5.1919
G01 X23.3255 Y5.3648
G01 X23.2007 Y5.5163
G01 X23.0489 Y5.6407
G01 X22.8758 Y5.7331
G01 X22.6880 Y5.7900
G01 X22.4929 Y5.8092
G01 X22.2979 Y5.7900
G01 X22.1104 Y5.7331
G01 X21.9377 Y5.6407
G01 X21.7865 Y5.5163
G01 X21.6625 Y5.3648
G01 X21.5706 Y5.1919
G01 X21.5141 Y5.0043
G01 X21.4954 Y4.8092
G01 X21.5151 Y4.6141
G01 X21.5725 Y4.4265
G01 X21.6653 Y4.2536
G01 X21.7900 Y4.1021
G01 X21.9419 Y3.9777
G01 X22.1150 Y3.8853
G01 X22.3027 Y3.8284
G01 X22.4979 Y3.8092
G01 X22.6929 Y3.8284
G00 Z2.0000
G00 X22.1994 Y3.8597
G01 F60.00
G01 Z-0.1000
G01 F120.00
G01 X22.3027 Y3.8284
G01 X22.4979 Y3.8092
G01 X22.6929 Y3.8284
G01 X23.0530 Y3.9777
G01 X22.8804 Y3.8853
G01 X22.6929 Y3.8284
G00 X22.6929 Y3.8284
G01 F60.00
G01 Z-0.1500
G01 F120.00
G01 X22.4979 Y3.8092
G01 X22.3027 Y3.8284
G01 X22.1150 Y3.8853
G01 X21.9419 Y3.9777
G01 X21.7900 Y4.1021
G01 X21.6653 Y4.2536
G01 X21.5725 Y4.4265
G01 X21.5151 Y4.6141
G01 X21.4954 Y4.8092
G01 X21.5141 Y5.0043
G01 X21.5706 Y5.1919
G01 X21.6625 Y5.3648
G01 X21.7865 Y5.5163
G01 X21.9377 Y5.6407
G01 X22.1104 Y5.7331
G01 X22.2979 Y5.7900
G01 X22.4929 Y5.8092
G01 X22.6880 Y5.7900
G01 X22.8758 Y5.7331
G01 X23.0489 Y5.6407
G01 X23.2007 Y5.5163
G01 X23.3255 Y5.3648
G01 X23.4183 Y5.1919
G01 X23.4757 Y5.0043
G01 X23.4954 Y4.8092
G01 X23.4767 Y4.6141
G01 X23.4202 Y4.4265
G01 X23.3282 Y4.2536
G01 X23.2043 Y4.1021
G01 X23.0530 Y3.9777
G01 X22.8804 Y3.8853
G01 X22.6929 Y3.8284
G00 Z2.0000
G00 X23.1367 Y4.0465
G01 F60.00
G01 Z-0.1500
G01 F120.00
G01 X23.0530 Y3.9777
G01 X22.8804 Y3.8853
G01 X22.6929 Y3.8284
G01 X22.3027 Y3.8284
G01 X22.4979 Y3.8092
G01 X22.6929 Y3.8284
G00 Z2.0000
G00 X25.2329 Y3.8284
G01 F60.00
G01 Z-0.0500
G01 F120.00
G01 X25.0379 Y3.8092
G01 X24.8427 Y3.8284
G01 X24.6550 Y3.8853
G01 X24.4819 Y3.9777
G01 X24.3300 Y4.1021
G01 X24.2053 Y4.2536
G01 X24.1125 Y4.4265
G01 X24.0551 Y4.6141
G01 X24.0354 Y4.8092
G01 X24.0541 Y5.0043
G01 X24.1106 Y5.1919
G01 X24.2025 Y5.3648
G01 X24.3265 Y5.5163
G01 X24.4777 Y5.6407
G01 X24.6504 Y5.7331
G01 X24.8379 Y5.7900
G01 X25.0329 Y5.8092
G01 X25.2280 Y5.7900
G01 X25.4158 Y5.7331
G01 X25.5889 Y5.6407
G01 X25.7407 Y5.5163
G01 X25.8655 Y5.3648
G01 X25.9583 Y5.1919
G01 X26.0157 Y5.0043
G01 X26.0354 Y4.8092
G01 X26.0167 Y4.6141
G01 X25.9602 Y4.4265
G01 X25.8682 Y4.2536
G01 X25.7442 Y4.1021
G01 X25.5930 Y3.9777
G01 X25.4204 Y3.8853
G01 X25.2329 Y3.8284
G00 Z2.0000
G00 X25.6766 Y4.0465
G01 F60.00
G01 Z-0.0500
G01 F120.00
G01 X25.5930 Y3.9777
G01 X25.4204 Y3.8853
G01 X25.2329 Y3.8284
G01 X24.8427 Y3.8284
G01 X25.0379 Y3.8092
G01 X25.2329 Y3.8284
G00 X25.2329 Y3.8284
G01 F60.00
G01 Z-0.1000
G01 F120.00
G01 X25.4204 Y3.8853
G01 X25.5930 Y3.9777
G01 X25.7442 Y4.1021
G01 X25.8682 Y4.2536
G01 X25.9602 Y4.4265
G01 X26.0167 Y4.6141
G01 X26.0354 Y4.8092
G01 X26.0157 Y5.0043
G01 X25.9583 Y5.1919
G01 X25.8655 Y5.3648
G01 X25.7407 Y5.5163
G01 X25.5889 Y5.6407
G01 X25.4158 Y5.7331
G01 X25.2280 Y5.7900
G01 X25.0329 Y5.8092
G01 X24.8379 Y5.7900
G01 X24.6504 Y5.7331
G01 X24.4777 Y5.6407
G01 X24.3265 Y5.5163
G01 X24.2025 Y5.3648
G01 X24.1106 Y5.1919
G01 X24.0541 Y5.0043
G01 X24.0354 Y4.8092
G01 X24.0551 Y4.6141
G01 X24.1125 Y4.4265
G01 X24.2053 Y4.2536
G01 X24.3300 Y4.1021
G01 X24.4819 Y3.9777
G01 X24.6550 Y3.8853
G01 X24.8427 Y3.8284
G01 X25.0379 Y3.8092
G01 X25.2329 Y3.8284
G00 Z2.0000
G00 X24.7394 Y3.8597
G01 F60.00
G01 Z-0.1000
G01 F120.00
G01 X24.8427 Y3.8284
G01 X25.0379 Y3.8092
G01 X25.2329 Y3.8284
G01 X25.5930 Y3.9777
G01 X25.4204 Y3.8853
G01 X25.2329 Y3.8284
G00 X25.2329 Y3.8284
G01 F60.00
G01 Z-0.1500
G01 F120.00
G01 X25.0379 Y3.8092
G01 X24.8427 Y3.8284
G01 X24.6550 Y3.8853
G01 X24.4819 Y3.9777
G01 X24.3300 Y4.1021
G01 X24.2053 Y4.2536
G01 X24.1125 Y4.4265
G01 X24.0551 Y4.6141
G01 X24.0354 Y4.8092
G01 X24.0541 Y5.0043
G01 X24.1106 Y5.1919
G01 X24.2025 Y5.3648
G01 X24.3265 Y5.5163
G01 X24.4777 Y5.6407
G01 X24.6504 Y5.7331
G01 X24.8379 Y5.7900
G01 X25.0329 Y5.8092
G01 X25.2280 Y5.7900
G01 X25.4158 Y5.7331
G01 X25.5889 Y5.6407
G01 X25.7407 Y5.5163
G01 X25.8655 Y5.3648
G01 X25.9583 Y5.1919
G01 X26.0157 Y5.0043
G01 X26.0354 Y4.8092
G01 X26.0167 Y4.6141
G01 X25.9602 Y4.4265
G01 X25.8682 Y4.2536
G01 X25.7442 Y4.1021
G01 X25.5930 Y3.9777
G01 X25.4204 Y3.8853
G01 X25.2329 Y3.8284
G00 Z2.0000
G00 X25.6766 Y4.0465
G01 F60.00
G01 Z-0.1500
G01 F120.00
G01 X25.5930 Y3.9777
G01 X25.4204 Y3.8853
G01 X25.2329 Y3.8284
G01 X24.8427 Y3.8284
G01 X25.0379 Y3.8092
G01 X25.2329 Y3.8284
G00 Z2.0000
G00 X27.7849 Y3.8311
G01 F60.00
G01 Z-0.0500
G01 F120.00
G01 X27.6759 Y3.8140
G01 X27.5779 Y3.8092
G01 X27.3827 Y3.8284
G01 X27.1950 Y3.8853
G01 X27.0219 Y3.9777
G01 X26.8700 Y4.1021
G01 X26.7453 Y4.2536
G01 X26.6525 Y4.4265
G01 X26.5951 Y4.6141
G01 X26.5754 Y4.8092
G01 X26.5941 Y5.0043
G01 X26.6505 Y5.1919
G01 X26.7425 Y5.3648
G01 X26.8665 Y5.5163
G01 X27.0177 Y5.6407
G01 X27.1904 Y5.7331
G01 X27.3778 Y5.7900
G01 X27.5729 Y5.8092
G01 X27.7680 Y5.7900
G01 X27.9558 Y5.7331
G01 X28.1289 Y5.6407
G01 X28.2807 Y5.5163
G01 X28.4055 Y5.3648
G01 X28.4983 Y5.1919
G01 X28.5557 Y5.0043
G01 X28.5754 Y4.8092
G01 X28.5566 Y4.6141
G01 X28.5002 Y4.4265
G01 X28.4082 Y4.2536
G01 X28.2842 Y4.1021
G01 X28.1330 Y3.9777
G01 X27.9604 Y3.8853
G01 X27.7849 Y3.8311
G00 Z2.0000
G00 X28.2261 Y4.0543
G01 F60.00
G01 Z-0.0500
G01 F120.00
G01 X28.1330 Y3.9777
G01 X27.9604 Y3.8853
G01 X27.7849 Y3.8311
G01 X27.3827 Y3.8284
G01 X27.5779 Y3.8092
G01 X27.6759 Y3.8140
G01 X27.7849 Y3.8311
G00 X27.7849 Y3.8311
G01 F60.00
G01 Z-0.1000
G01 F120.00
G01 X27.9604 Y3.8853
G01 X28.1330 Y3.9777
G01 X28.2842 Y4.1021
G01 X28.4082 Y4.2536
G01 X28.5002 Y4.4265
G01 X28.5566 Y4.6141
G01 X28.5754 Y4.8092
G01 X28.5557 Y5.0043
G01 X28.4983 Y5.1919
G01 X28.4055 Y5.3648
G01 X28.2807 Y5.5163
G01 X28.1289 Y5.6407
G01 X27.9558 Y5.7331
G01 X27.7680 Y5.7900
G01 X27.5729 Y5.8092
G01 X27.3778 Y5.7900
G01 X27.1904 Y5.7331
G01 X27.0177 Y5.6407
G01 X26.8665 Y5.5163
G01 X26.7425 Y5.3648
G01 X26.6505 Y5.1919
G01 X26.5941 Y5.0043
G01 X26.5754 Y4.8092
G01 X26.5951 Y4.6141
G01 X26.6525 Y4.4265
G01 X26.7453 Y4.2536
G01 X26.8700 Y4.1021
G01 X27.0219 Y3.9777
G01 X27.1950 Y3.8853
G01 X27.3827 Y3.8284
G01 X27.5779 Y3.8092
G01 X27.6759 Y3.8140
G01 X27.7849 Y3.8311
G00 Z2.0000
G00 X27.2914 Y3.8561
G01 F60.00
G01 Z-0.1000
G01 F120.00
G01 X27.3827 Y3.8284
G01 X27.5779 Y3.8092
G01 X27.6759 Y3.8140
G01 X27.7849 Y3.8311
G01 X28.1330 Y3.9777
G01 X27.9604 Y3.8853
G01 X27.7849 Y3.8311
G00 X27.7849 Y3.8311
G01 F60.00
G01 Z-0.1500
G01 F120.00
G01 X27.6759 Y3.8140
G01 X27.5779 Y3.8092
G01 X27.3827 Y3.8284
G01 X27.1950 Y3.8853
G01 X27.0219 Y3.9777
G01 X26.8700 Y4.1021
G01 X26.7453 Y4.2536
G01 X26.6525 Y4.4265
G01 X26.5951 Y4.6141
G01 X26.5754 Y4.8092
G01 X26.5941 Y5.0043
G01 X26.6505 Y5.1919
G01 X26.7425 Y5.3648
G01 X26.8665 Y5.5163
G01 X27.0177 Y5.6407
G01 X27.1904 Y5.7331
G01 X27.3778 Y5.7900
G01 X27.5729 Y5.8092
G01 X27.7680 Y5.7900
G01 X27.9558 Y5.7331
G01 X28.1289 Y5.6407
G01 X28.2807 Y5.5163
G01 X28.4055 Y5.3648
G01 X28.4983 Y5.1919
G01 X28.5557 Y5.0043
G01 X28.5754 Y4.8092
G01 X28.5566 Y4.6141
G01 X28.5002 Y4.4265
G01 X28.4082 Y4.2536
G01 X28.2842 Y4.1021
G01 X28.1330 Y3.9777
G01 X27.9604 Y3.8853
G01 X27.7849 Y3.8311
G00 Z2.0000
G00 X28.2261 Y4.0543
G01 F60.00
G01 Z-0.1500
G01 F120.00
G01 X28.1330 Y3.9777
G01 X27.9604 Y3.8853
G01 X27.7849 Y3.8311
G01 X27.3827 Y3.8284
G01 X27.5779 Y3.8092
G01 X27.6759 Y3.8140
G01 X27.7849 Y3.8311
G00 Z2.0000
G00 X30.3129 Y3.8284
G01 F60.00
G01 Z-0.0500
G01 F120.00
G01 X30.1179 Y3.8092
G01 X29.9227 Y3.8284
G01 X29.7350 Y3.8853
G01 X29.5619 Y3.9777
G01 X29.4100 Y4.1021
G01 X29.2853 Y4.2536
G01 X29.1924 Y4.4265
G01 X29.1351 Y4.6141
G01 X29.1154 Y4.8092
G01 X29.1341 Y5.0043
G01 X29.1905 Y5.1919
G01 X29.2825 Y5.3648
G01 X29.4065 Y5.5163
G01 X29.5577 Y5.6407
G01 X29.7304 Y5.7331
G01 X29.9178 Y5.7900
G01 X30.1129 Y5.8092
G01 X30.3080 Y5.7900
G01 X30.4958 Y5.7331
G01 X30.6689 Y5.6407
G01 X30.8207 Y5.5163
G01 X30.9454 Y5.3648
G01 X31.0383 Y5.1919
G01 X31.0957 Y5.0043
G01 X31.1154 Y4.8092
G01 X31.0966 Y4.6141
G01 X31.0402 Y4.4265
G01 X30.9482 Y4.2536
G01 X30.8242 Y4.1021
G01 X30.6730 Y3.9777
G01 X30.5004 Y3.8853
G01 X30.3129 Y3.8284
G00 Z2.0000
G00 X30.7566 Y4.0465
G01 F60.00
G01 Z-0.0500
G01 F120.00
G01 X30.6730 Y3.9777
G01 X30.5004 Y3.8853
G01 X30.3129 Y3.8284
G01 X29.9227 Y3.8284
G01 X30.1179 Y3.8092
G01 X30.3129 Y3.8284
G00 X30.3129 Y3.8284
G01 F60.00
G01 Z-0.1000
G01 F120.00
G01 X30.5004 Y3.8853
G01 X30.6730 Y3.9777
G01 X30.8242 Y4.1021
G01 X30.9482 Y4.2536
G01 X31.0402 Y4.4265
G01 X31.0966 Y4.6141
G01 X31.1154 Y4.8092
G01 X31.0957 Y5.0043
G01 X31.0383 Y5.1919
G01 X30.9454 Y5.3648
G01 X30.8207 Y5.5163
G01 X30.6689 Y5.6407
G01 X30.4958 Y5.7331
G01 X30.3080 Y5.7900
G01 X30.1129 Y5.8092
G01 X29.9178 Y5.7900
G01 X29.7304 Y5.7331
G01 X29.5577 Y5.6407
G01 X29.4065 Y5.5163
G01 X29.2825 Y5.3648
G01 X29.1905 Y5.1919
G01 X29.1341 Y5.0043
G01 X29.1154 Y4.8092
G01 X29.1351 Y4.6141
G01 X29.1924 Y4.4265
G01 X29.2853 Y4.2536
G01 X29.4100 Y4.1021
G01 X29.5619 Y3.9777
G01 X29.7350 Y3.8853
G01 X29.9227 Y3.8284
G01 X30.1179 Y3.8092
G01 X30.3129 Y3.8284
G00 Z2.0000
G00 X29.8194 Y3.8597
G01 F60.00
G01 Z-0.1000
G01 F120.00
G01 X29.9227 Y3.8284
G01 X30.1179 Y3.8092
G01 X30.3129 Y3.8284
G01 X30.6730 Y3.9777
G01 X30.5004 Y3.8853
G01 X30.3129 Y3.8284
G00 X30.3129 Y3.8284
G01 F60.00
G01 Z-0.1500
G01 F120.00
G01 X30.1179 Y3.8092
G01 X29.9227 Y3.8284
G01 X29.7350 Y3.8853
G01 X29.5619 Y3.9777
G01 X29.4100 Y4.1021
G01 X29.2853 Y4.2536
G01 X29.1924 Y4.4265
G01 X29.1351 Y4.6141
G01 X29.1154 Y4.8092
G01 X29.1341 Y5.0043
G01 X29.1905 Y5.1919
G01 X29.2825 Y5.3648
G01 X29.4065 Y5.5163
G01 X29.5577 Y5.6407
G01 X29.7304 Y5.7331
G01 X29.9178 Y5.7900
G01 X30.1129 Y5.8092
G01 X30.3080 Y5.7900
G01 X30.4958 Y5.7331
G01 X30.6689 Y5.6407
G01 X30.8207 Y5.5163
G01 X30.9454 Y5.3648
G01 X31.0383 Y5.1919
G01 X31.0957 Y5.0043
G01 X31.1154 Y4.8092
G01 X31.0966 Y4.6141
G01 X31.0402 Y4.4265
G01 X30.9482 Y4.2536
G01 X30.8242 Y4.1021
G01 X30.6730 Y3.9777
G01 X30.5004 Y3.8853
G01 X30.3129 Y3.8284
G00 Z2.0000
G00 X30.7566 Y4.0465
G01 F60.00
G01 Z-0.1500
G01 F120.00
G01 X30.6730 Y3.9777
G01 X30.5004 Y3.8853
G01 X30.3129 Y3.8284
G01 X29.9227 Y3.8284
G01 X30.1179 Y3.8092
G01 X30.3129 Y3.8284
G00 Z2.0000
G00 X35.4048 Y3.8311
G01 F60.00
G01 Z-0.0500
G01 F120.00
G01 X35.2958 Y3.8140
G01 X35.1978 Y3.8092
G01 X35.0027 Y3.8284
G01 X34.8150 Y3.8853
G01 X34.6419 Y3.9777
G01 X34.4900 Y4.1021
G01 X34.3653 Y4.2536
G01 X34.2724 Y4.4265
G01 X34.2151 Y4.6141
G01 X34.1954 Y4.8092
G01 X34.2141 Y5.0043
G01 X34.2705 Y5.1919
G01 X34.3625 Y5.3648
G01 X34.4865 Y5.5163
G01 X34.6377 Y5.6407
G01 X34.8104 Y5.7331
G01 X34.9978 Y5.7900
G01 X35.1929 Y5.8092
G01 X35.3880 Y5.7900
G01 X35.5757 Y5.7331
G01 X35.7489 Y5.6407
G01 X35.9007 Y5.5163
G01 X36.0254 Y5.3648
G01 X36.1183 Y5.1919
G01 X36.1756 Y5.0043
G01 X36.1953 Y4.8092
G01 X36.1766 Y4.6141
G01 X36.1202 Y4.4265
G01 X36.0282 Y4.2536
G01 X35.9042 Y4.1021
G01 X35.7530 Y3.9777
G01 X35.5803 Y3.8853
G01 X35.4048 Y3.8311
G00 Z2.0000
G00 X35.8461 Y4.0543
G01 F60.00
G01 Z-0.0500
G01 F120.00
G01 X35.7530 Y3.9777
G01 X35.5803 Y3.8853
G01 X35.4048 Y3.8311
G01 X35.0027 Y3.8284
G01 X35.1978 Y3.8092
G01 X35.2958 Y3.8140
G01 X35.4048 Y3.8311
G00 X35.4048 Y3.8311
G01 F60.00
G01 Z-0.1000
G01 F120.00
G01 X35.5803 Y3.8853
G01 X35.7530 Y3.9777
G01 X35.9042 Y4.1021
G01 X36.0282 Y4.2536
G01 X36.1202 Y4.4265
G01 X36.1766 Y4.6141
G01 X36.1953 Y4.8092
G01 X36.1756 Y5.0043
G01 X36.1183 Y5.1919
G01 X36.0254 Y5.3648
G01 X35.9007 Y5.5163
G01 X35.7489 Y5.6407
G01 X35.5757 Y5.7331
G01 X35.3880 Y5.7900
G01 X35.1929 Y5.8092
G01 X34.9978 Y5.7900
G01 X34.8104 Y5.7331
G01 X34.6377 Y5.6407
G01 X34.4865 Y5.5163
G01 X34.3625 Y5.3648
G01 X34.2705 Y5.1919
G01 X34.2141 Y5.0043
G01 X34.1954 Y4.8092
G01 X34.2151 Y4.6141
G01 X34.2724 Y4.4265
G01 X34.3653 Y4.2536
G01 X34.4900 Y4.1021
G01 X34.6419 Y3.9777
G01 X34.8150 Y3.8853
G01 X35.0027 Y3.8284
G01 X35.1978 Y3.8092
G01 X35.2958 Y3.8140
G01 X35.4048 Y3.8311
G00 Z2.0000
G00 X34.9113 Y3.8561
G01 F60.00
G01 Z-0.1000
G01 F120.00
G01 X35.0027 Y3.8284
G01 X35.1978 Y3.8092
G01 X35.2958 Y3.8140
G01 X35.4048 Y3.8311
G01 X35.7530 Y3.9777
G01 X35.5803 Y3.8853
G01 X35.4048 Y3.8311
G00 X35.4048 Y3.8311
G01 F60.00
G01 Z-0.1500
G01 F120.00
G01 X35.2958 Y3.8140
G01 X35.1978 Y3.8092
G01 X35.0027 Y3.8284
G01 X34.8150 Y3.8853
G01 X34.6419 Y3.9777
G01 X34.4900 Y4.1021
G01 X34.3653 Y4.2536
G01 X34.2724 Y4.4265
G01 X34.2151 Y4.6141
G01 X34.1954 Y4.8092
G01 X34.2141 Y5.0043
G01 X34.2705 Y5.1919
G01 X34.3625 Y5.3648
G01 X34.4865 Y5.5163
G01 X34.6377 Y5.6407
G01 X34.8104 Y5.7331
G01 X34.9978 Y5.7900
G01 X35.1929 Y5.8092
G01 X35.3880 Y5.7900
G01 X35.5757 Y5.7331
G01 X35.7489 Y5.6407
G01 X35.9007 Y5.5163
G01 X36.0254 Y5.3648
G01 X36.1183 Y5.1919
G01 X36.1756 Y5.0043
G01 X36.1953 Y4.8092
G01 X36.1766 Y4.6141
G01 X36.1202 Y4.4265
G01 X36.0282 Y4.2536
G01 X35.9042 Y4.1021
G01 X35.7530 Y3.9777
G01 X35.5803 Y3.8853
G01 X35.4048 Y3.8311
G00 Z2.0000
G00 X35.8461 Y4.0543
G01 F60.00
G01 Z-0.1500
G01 F120.00
G01 X35.7530 Y3.9777
G01 X35.5803 Y3.8853
G01 X35.4048 Y3.8311
G01 X35.0027 Y3.8284
G01 X35.1978 Y3.8092
G01 X35.2958 Y3.8140
G01 X35.4048 Y3.8311
G00 Z2.0000
G00 X34.5766 Y10.7280
G01 F60.00
G01 Z-0.0500
G01 F120.00
G01 X34.5949 Y10.6067
G01 X34.6011 Y10.4903
G01 X34.6024 Y9.9780
G01 X34.5953 Y9.8495
G01 X34.5791 Y9.7403
G01 X34.5528 Y9.6331
G01 X34.5036 Y9.4946
G01 X34.4563 Y9.3949
G01 X34.3935 Y9.2897
G01 X34.3207 Y9.1912
G01 X34.2470 Y9.1092
G01 X34.1052 Y8.9858
G01 X34.1138 Y5.5192
G01 X34.1089 Y5.4335
G01 X34.0821 Y5.3014
G01 X34.0261 Y5.1655
G01 X33.9522 Y5.0529
G01 X33.6527 Y4.7453
G01 X33.6366 Y4.6141
G01 X33.6130 Y4.5189
G01 X33.5385 Y4.3378
G01 X33.4299 Y4.1748
G01 X33.2917 Y4.0362
G01 X33.2130 Y3.9777
G01 X33.1180 Y3.9218
G01 X32.9597 Y3.8561
G01 X32.8529 Y3.8284
G01 X32.7436 Y3.8131
G01 X32.5721 Y3.8131
G01 X32.4627 Y3.8284
G01 X32.3675 Y3.8523
G01 X32.1971 Y3.9218
G01 X32.1019 Y3.9777
G01 X31.9589 Y4.0936
G01 X31.8764 Y4.1845
G01 X31.7746 Y4.3378
G01 X31.7030 Y4.5073
G01 X31.6729 Y4.6262
G01 X31.6557 Y4.7969
G01 X31.6599 Y4.9072
G01 X31.6741 Y5.0043
G01 X31.7305 Y5.1919
G01 X31.8225 Y5.3648
G01 X31.9381 Y5.5074
G01 X32.0287 Y5.5897
G01 X32.1927 Y5.6966
G01 X32.3745 Y5.7694
G01 X32.4699 Y5.7921
G01 X32.5890 Y5.8063
G01 X32.6126 Y5.8299
G01 X32.6047 Y8.9858
G01 X32.4623 Y9.1092
G01 X32.3882 Y9.1912
G01 X32.3149 Y9.2897
G01 X32.2515 Y9.3949
G01 X32.1988 Y9.5058
G01 X32.1572 Y9.6213
G01 X32.1298 Y9.7283
G01 X32.1088 Y9.8617
G01 X32.1026 Y9.9780
G01 X32.1013 Y10.4903
G01 X32.1070 Y10.6067
G01 X32.1226 Y10.7159
G01 X32.1542 Y10.8470
G01 X32.1952 Y10.9625
G01 X32.2419 Y11.0625
G01 X32.3172 Y11.1887
G01 X32.3830 Y11.2772
G01 X32.4652 Y11.3681
G01 X32.5558 Y11.4504
G01 X32.6442 Y11.5164
G01 X32.7702 Y11.5921
G01 X32.8700 Y11.6390
G01 X32.9854 Y11.6803
G01 X33.1043 Y11.7101
G01 X33.2134 Y11.7266
G01 X33.3604 Y11.7339
G01 X33.4707 Y11.7281
G01 X33.5920 Y11.7101
G01 X33.7111 Y11.6803
G01 X33.8153 Y11.6434
G01 X33.9484 Y11.5805
G01 X34.0431 Y11.5235
G01 X34.1418 Y11.4504
G01 X34.2329 Y11.3680
G01 X34.3155 Y11.2772
G01 X34.3888 Y11.1786
G01 X34.4461 Y11.0841
G01 X34.5093 Y10.9511
G01 X34.5465 Y10.8470
G01 X34.5766 Y10.7280
G00 Z2.0000
G00 X34.3835 Y11.1858
G01 F60.00
G01 Z-0.0500
G01 F120.00
G01 X34.3888 Y11.1786
G01 X34.4461 Y11.0841
G01 X34.5093 Y10.9511
G01 X34.5465 Y10.8470
G01 X34.5766 Y10.7280
G01 X34.6011 Y10.4903
G01 X34.5949 Y10.6067
G01 X34.5766 Y10.7280
G00 X34.5766 Y10.7280
G01 F60.00
G01 Z-0.1000
G01 F120.00
G01 X34.5465 Y10.8470
G01 X34.5093 Y10.9511
G01 X34.4461 Y11.0841
G01 X34.3888 Y11.1786
G01 X34.3155 Y11.2772
G01 X34.2329 Y11.3680
G01 X34.1418 Y11.4504
G01 X34.0431 Y11.5235
G01 X33.9484 Y11.5805
G01 X33.8153 Y11.6434
G01 X33.7111 Y11.6803
G01 X33.5920 Y11.7101
G01 X33.4707 Y11.7281
G01 X33.3604 Y11.7339
G01 X33.2134 Y11.7266
G01 X33.1043 Y11.7101
G01 X32.9854 Y11.6803
G01 X32.8700 Y11.6390
G01 X32.7702 Y11.5921
G01 X32.6442 Y11.5164
G01 X32.5558 Y11.4504
G01 X32.4652 Y11.3681
G01 X32.3830 Y11.2772
G01 X32.3172 Y11.1887
G01 X32.2419 Y11.0625
G01 X32.1952 Y10.9625
G01 X32.1542 Y10.8470
G01 X32.1226 Y10.7159
G01 X32.1070 Y10.6067
G01 X32.1013 Y10.4903
G01 X32.1026 Y9.9780
G01 X32.1088 Y9.8617
G01 X32.1298 Y9.7283
G01 X32.1572 Y9.6213
G01 X32.1988 Y9.5058
G01 X32.2515 Y9.3949
G01 X32.3149 Y9.2897
G01 X32.3882 Y9.1912
G01 X32.4623 Y9.1092
G01 X32.6047 Y8.9858
G01 X32.6126 Y5.8299
G01 X32.5890 Y5.8063
G01 X32.4699 Y5.7921
G01 X32.3745 Y5.7694
G01 X32.1927 Y5.6966
G01 X32.0287 Y5.5897
G01 X31.9381 Y5.5074
G01 X31.8225 Y5.3648
G01 X31.7305 Y5.1919
G01 X31.6741 Y5.0043
G01 X31.6599 Y4.9072
G01 X31.6557 Y4.7969
G01 X31.6729 Y4.6262
G01 X31.7030 Y4.5073
G01 X31.7746 Y4.3378
G01 X31.8764 Y4.1845
G01 X31.9589 Y4.0936
G01 X32.1019 Y3.9777
G01 X32.1971 Y3.9218
G01 X32.3675 Y3.8523
G01 X32.4627 Y3.8284
G01 X32.5721 Y3.8131
G01 X32.7436 Y3.8131
G01 X32.8529 Y3.8284
G01 X32.9597 Y3.8561
G01 X33.1180 Y3.9218
G01 X33.2130 Y3.9777
G01 X33.2917 Y4.0362
G01 X33.4299 Y4.1748
G01 X33.5385 Y4.3378
G01 X33.6130 Y4.5189
G01 X33.6366 Y4.6141
G01 X33.6527 Y4.7453
G01 X33.9522 Y5.0529
G01 X34.0261 Y5.1655
G01 X34.0821 Y5.3014
G01 X34.1089 Y5.4335
G01 X34.1138 Y5.5192
G01 X34.1052 Y8.9858
G01 X34.2470 Y9.1092
G01 X34.3207 Y9.1912
G01 X34.3935 Y9.2897
G01 X34.4563 Y9.3949
G01 X34.5036 Y9.4946
G01 X34.5528 Y9.6331
G01 X34.5791 Y9.7403
G01 X34.5953 Y9.8495
G01 X34.6024 Y9.9780
G01 X34.6011 Y10.4903
G01 X34.5949 Y10.6067
G01 X34.5766 Y10.7280
G00 Z2.0000
G00 X34.6018 Y10.2296
G01 F60.00
G01 Z-0.1000
G01 F120.00
G01 X34.6011 Y10.4903
G01 X34.5949 Y10.6067
G01 X34.5766 Y10.7280
G01 X34.3888 Y11.1786
G01 X34.4461 Y11.0841
G01 X34.5093 Y10.9511
G01 X34.5465 Y10.8470
G01 X34.5766 Y10.7280
G00 X34.5766 Y10.7280
G01 F60.00
G01 Z-0.1500
G01 F120.00
G01 X34.5949 Y10.6067
G01 X34.6011 Y10.4903
G01 X34.6024 Y9.9780
G01 X34.5953 Y9.8495
G01 X34.5791 Y9.7403
G01 X34.5528 Y9.6331
G01 X34.5036 Y9.4946
G01 X34.4563 Y9.3949
G01 X34.3935 Y9.2897
G01 X34.3207 Y9.1912
G01 X34.2470 Y9.1092
G01 X34.1052 Y8.9858
G01 X34.1138 Y5.5192
G01 X34.1089 Y5.4335
G01 X34.0821 Y5.3014
G01 X34.0261 Y5.1655
G01 X33.9522 Y5.0529
G01 X33.6527 Y4.7453
G01 X33.6366 Y4.6141
G01 X33.6130 Y4.5189
G01 X33.5385 Y4.3378
G01 X33.4299 Y4.1748
G01 X33.2917 Y4.0362
G01 X33.2130 Y3.9777
G01 X33.1180 Y3.9218
G01 X32.9597 Y3.8561
G01 X32.8529 Y3.8284
G01 X32.7436 Y3.8131
G01 X32.5721 Y3.8131
G01 X32.4627 Y3.8284
G01 X32.3675 Y3.8523
G01 X32.1971 Y3.9218
G01 X32.1019 Y3.9777
G01 X31.9589 Y4.0936
G01 X31.8764 Y4.1845
G01 X31.7746 Y4.3378
G01 X31.7030 Y4.5073
G01 X31.6729 Y4.6262
G01 X31.6557 Y4.7969
G01 X31.6599 Y4.9072
G01 X31.6741 Y5.0043
G01 X31.7305 Y5.1919
G01 X31.8225 Y5.3648
G01 X31.9381 Y5.5074
G01 X32.0287 Y5.5897
G01 X32.1927 Y5.6966
G01 X32.3745 Y5.7694
G01 X32.4699 Y5.7921
G01 X32.5890 Y5.8063
G01 X32.6126 Y5.8299
G01 X32.6047 Y8.9858
G01 X32.4623 Y9.1092
G01 X32.3882 Y9.1912
G01 X32.3149 Y9.2897
G01 X32.2515 Y9.3949
G01 X32.1988 Y9.5058
G01 X32.1572 Y9.6213
G01 X32.1298 Y9.7283
G01 X32.1088 Y9.8617
G01 X32.1026 Y9.9780
G01 X32.1013 Y10.4903
G01 X32.1070 Y10.6067
G01 X32.1226 Y10.7159
G01 X32.1542 Y10.8470
G01 X32.1952 Y10.9625
G01 X32.2419 Y11.0625
G01 X32.3172 Y11.1887
G01 X32.3830 Y11.2772
G01 X32.4652 Y11.3681
G01 X32.5558 Y11.4504
G01 X32.6442 Y11.5164
G01 X32.7702 Y11.5921
G01 X32.8700 Y11.6390
G01 X32.9854 Y11.6803
G01 X33.1043 Y11.7101
G01 X33.2134 Y11.7266
G01 X33.3604 Y11.7339
G01 X33.4707 Y11.7281
G01 X33.5920 Y11.7101
G01 X33.7111 Y11.6803
G01 X33.8153 Y11.6434
G01 X33.9484 Y11.5805
G01 X34.0431 Y11.5235
G01 X34.1418 Y11.4504
G01 X34.2329 Y11.3680
G01 X34.3155 Y11.2772
G01 X34.3888 Y11.1786
G01 X34.4461 Y11.0841
G01 X34.5093 Y10.9511
G01 X34.5465 Y10.8470
G01 X34.5766 Y10.7280
G00 Z2.0000
G00 X34.3835 Y11.1858
G01 F60.00
G01 Z-0.1500
G01 F120.00
G01 X34.3888 Y11.1786
G01 X34.4461 Y11.0841
G01 X34.5093 Y10.9511
G01 X34.5465 Y10.8470
G01 X34.5766 Y10.7280
G01 X34.6011 Y10.4903
G01 X34.5949 Y10.6067
G01 X34.5766 Y10.7280
G00 Z2.0000
G00 X31.9866 Y10.7280
G01 F60.00
G01 Z-0.0500
G01 F120.00
G01 X32.0049 Y10.6067
G01 X32.0111 Y10.4903
G01 X32.0124 Y9.9780
G01 X32.0068 Y9.8616
G01 X31.9911 Y9.7524
G01 X31.9596 Y9.6213
G01 X31.9185 Y9.5058
G01 X31.8664 Y9.3949
G01 X31.8035 Y9.2897
G01 X31.7382 Y9.2009
G01 X31.6486 Y9.1003
G01 X31.5672 Y9.0259
G01 X31.4492 Y8.9383
G01 X31.3545 Y8.8818
G01 X31.2437 Y8.8293
G01 X31.1283 Y8.7880
G01 X31.0094 Y8.7582
G01 X30.8881 Y8.7402
G01 X30.7656 Y8.7342
G01 X30.6431 Y8.7402
G01 X30.5217 Y8.7582
G01 X30.4026 Y8.7880
G01 X30.2870 Y8.8293
G01 X30.1760 Y8.8818
G01 X30.0706 Y8.9448
G01 X29.9719 Y9.0179
G01 X29.8808 Y9.1003
G01 X29.7982 Y9.1912
G01 X29.7183 Y9.3001
G01 X29.6616 Y9.3949
G01 X29.6138 Y9.4946
G01 X29.5711 Y9.6097
G01 X29.5371 Y9.7403
G01 X29.5203 Y9.8495
G01 X29.5125 Y9.9842
G01 X29.5113 Y10.4903
G01 X29.5170 Y10.6067
G01 X29.5326 Y10.7159
G01 X29.5642 Y10.8470
G01 X29.6052 Y10.9625
G01 X29.6574 Y11.0734
G01 X29.7202 Y11.1786
G01 X29.7930 Y11.2772
G01 X29.8752 Y11.3681
G01 X29.9658 Y11.4504
G01 X30.0745 Y11.5301
G01 X30.1693 Y11.5866
G01 X30.2688 Y11.6340
G01 X30.3838 Y11.6765
G01 X30.5143 Y11.7101
G01 X30.6356 Y11.7281
G01 X30.7704 Y11.7339
G01 X30.8807 Y11.7281
G01 X30.9900 Y11.7122
G01 X31.1211 Y11.6803
G01 X31.2367 Y11.6390
G01 X31.3584 Y11.5805
G01 X31.4531 Y11.5235
G01 X31.5421 Y11.4580
G01 X31.6429 Y11.3681
G01 X31.7255 Y11.2772
G01 X31.8054 Y11.1683
G01 X31.8622 Y11.0734
G01 X31.9099 Y10.9737
G01 X31.9565 Y10.8470
G01 X31.9866 Y10.7280
G00 Z2.0000
G00 X31.7929 Y11.1854
G01 F60.00
G01 Z-0.0500
G01 F120.00
G01 X31.8054 Y11.1683
G01 X31.8622 Y11.0734
G01 X31.9099 Y10.9737
G01 X31.9565 Y10.8470
G01 X31.9866 Y10.7280
G01 X32.0111 Y10.4903
G01 X32.0049 Y10.6067
G01 X31.9866 Y10.7280
G00 X31.9866 Y10.7280
G01 F60.00
G01 Z-0.1000
G01 F120.00
G01 X31.9565 Y10.8470
G01 X31.9099 Y10.9737
G01 X31.8622 Y11.0734
G01 X31.8054 Y11.1683
G01 X31.7255 Y11.2772
G01 X31.6429 Y11.3681
G01 X31.5421 Y11.4580
G01 X31.4531 Y11.5235
G01 X31.3584 Y11.5805
G01 X31.2367 Y11.6390
G01 X31.1211 Y11.6803
G01 X30.9900 Y11.7122
G01 X30.8807 Y11.7281
G01 X30.7704 Y11.7339
G01 X30.6356 Y11.7281
G01 X30.5143 Y11.7101
G01 X30.3838 Y11.6765
G01 X30.2688 Y11.6340
G01 X30.1693 Y11.5866
G01 X30.0745 Y11.5301
G01 X29.9658 Y11.4504
G01 X29.8752 Y11.3681
G01 X29.7930 Y11.2772
G01 X29.7202 Y11.1786
G01 X29.6574 Y11.0734
G01 X29.6052 Y10.9625
G01 X29.5642 Y10.8470
G01 X29.5326 Y10.7159
G01 X29.5170 Y10.6067
G01 X29.5113 Y10.4903
G01 X29.5125 Y9.9842
G01 X29.5203 Y9.8495
G01 X29.5371 Y9.7403
G01 X29.5711 Y9.6097
G01 X29.6138 Y9.4946
G01 X29.6616 Y9.3949
G01 X29.7183 Y9.3001
G01 X29.7982 Y9.1912
G01 X29.8808 Y9.1003
G01 X29.9719 Y9.0179
G01 X30.0706 Y8.9448
G01 X30.1760 Y8.8818
G01 X30.2870 Y8.8293
G01 X30.4026 Y8.7880
G01 X30.5217 Y8.7582
G01 X30.6431 Y8.7402
G01 X30.7656 Y8.7342
G01 X30.8881 Y8.7402
G01 X31.0094 Y8.7582
G01 X31.1283 Y8.7880
G01 X31.2437 Y8.8293
G01 X31.3545 Y8.8818
G01 X31.4492 Y8.9383
G01 X31.5672 Y9.0259
G01 X31.6486 Y9.1003
G01 X31.7382 Y9.2009
G01 X31.8035 Y9.2897
G01 X31.8664 Y9.3949
G01 X31.9185 Y9.5058
G01 X31.9596 Y9.6213
G01 X31.9911 Y9.7524
G01 X32.0068 Y9.8616
G01 X32.0124 Y9.9780
G01 X32.0111 Y10.4903
G01 X32.0049 Y10.6067
G01 X31.9866 Y10.7280
G00 Z2.0000
G00 X32.0118 Y10.2296
G01 F60.00
G01 Z-0.1000
G01 F120.00
G01 X32.0111 Y10.4903
G01 X32.0049 Y10.6067
G01 X31.9866 Y10.7280
G01 X31.8054 Y11.1683
G01 X31.8622 Y11.0734
G01 X31.9099 Y10.9737
G01 X31.9565 Y10.8470
G01 X31.9866 Y10.7280
G00 X31.9866 Y10.7280
G01 F60.00
G01 Z-0.1500
G01 F120.00
G01 X32.0049 Y10.6067
G01 X32.0111 Y10.4903
G01 X32.0124 Y9.9780
G01 X32.0068 Y9.8616
G01 X31.9911 Y9.7524
G01 X31.9596 Y9.6213
G01 X31.9185 Y9.5058
G01 X31.8664 Y9.3949
G01 X31.8035 Y9.2897
G01 X31.7382 Y9.2009
G01 X31.6486 Y9.1003
G01 X31.5672 Y9.0259
G01 X31.4492 Y8.9383
G01 X31.3545 Y8.8818
G01 X31.2437 Y8.8293
G01 X31.1283 Y8.7880
G01 X31.0094 Y8.7582
G01 X30.8881 Y8.7402
G01 X30.7656 Y8.7342
G01 X30.6431 Y8.7402
G01 X30.5217 Y8.7582
G01 X30.4026 Y8.7880
G01 X30.2870 Y8.8293
G01 X30.1760 Y8.8818
G01 X30.0706 Y8.9448
G01 X29.9719 Y9.0179
G01 X29.8808 Y9.1003
G01 X29.7982 Y9.1912
G01 X29.7183 Y9.3001
G01 X29.6616 Y9.3949
G01 X29.6138 Y9.4946
G01 X29.5711 Y9.6097
G01 X29.5371 Y9.7403
G01 X29.5203 Y9.8495
G01 X29.5125 Y9.9842
G01 X29.5113 Y10.4903
G01 X29.5170 Y10.6067
G01 X29.5326 Y10.7159
G01 X29.5642 Y10.8470
G01 X29.6052 Y10.9625
G01 X29.6574 Y11.0734
G01 X29.7202 Y11.1786
G01 X29.7930 Y11.2772
G01 X29.8752 Y11.3681
G01 X29.9658 Y11.4504
G01 X30.0745 Y11.5301
G01 X30.1693 Y11.5866
G01 X30.2688 Y11.6340
G01 X30.3838 Y11.6765
G01 X30.5143 Y11.7101
G01 X30.6356 Y11.7281
G01 X30.7704 Y11.7339
G01 X30.8807 Y11.7281
G01 X30.9900 Y11.7122
G01 X31.1211 Y11.6803
G01 X31.2367 Y11.6390
G01 X31.3584 Y11.5805
G01 X31.4531 Y11.5235
G01 X31.5421 Y11.4580
G01 X31.6429 Y11.3681
G01 X31.7255 Y11.2772
G01 X31.8054 Y11.1683
G01 X31.8622 Y11.0734
G01 X31.9099 Y10.9737
G01 X31.9565 Y10.8470
G01 X31.9866 Y10.7280
G00 Z2.0000
G00 X31.7929 Y11.1854
G01 F60.00
G01 Z-0.1500
G01 F120.00
G01 X31.8054 Y11.1683
G01 X31.8622 Y11.0734
G01 X31.9099 Y10.9737
G01 X31.9565 Y10.8470
G01 X31.9866 Y10.7280
G01 X32.0111 Y10.4903
G01 X32.0049 Y10.6067
G01 X31.9866 Y10.7280
G00 Z2.0000
G00 X29.3966 Y10.7280
G01 F60.00
G01 Z-0.0500
G01 F120.00
G01 X29.4149 Y10.6067
G01 X29.4212 Y10.4903
G01 X29.4224 Y9.9780
G01 X29.4168 Y9.8616
G01 X29.4011 Y9.7524
G01 X29.3696 Y9.6213
G01 X29.3285 Y9.5058
G01 X29.2764 Y9.3949
G01 X29.2136 Y9.2897
G01 X29.1483 Y9.2009
G01 X29.0497 Y9.0918
G01 X28.9679 Y9.0179
G01 X28.8592 Y8.9383
G01 X28.7645 Y8.8818
G01 X28.6537 Y8.8293
G01 X28.5383 Y8.7880
G01 X28.4194 Y8.7582
G01 X28.2981 Y8.7402
G01 X28.1756 Y8.7342
G01 X28.0531 Y8.7402
G01 X27.9317 Y8.7582
G01 X27.8126 Y8.7880
G01 X27.6970 Y8.8293
G01 X27.5860 Y8.8818
G01 X27.4806 Y8.9448
G01 X27.3819 Y9.0179
G01 X27.2908 Y9.1003
G01 X27.2082 Y9.1912
G01 X27.1283 Y9.3001
G01 X27.0716 Y9.3949
G01 X27.0144 Y9.5173
G01 X26.9739 Y9.6331
G01 X26.9471 Y9.7403
G01 X26.9304 Y9.8495
G01 X26.9225 Y9.9842
G01 X26.9213 Y10.4903
G01 X26.9270 Y10.6067
G01 X26.9426 Y10.7159
G01 X26.9742 Y10.8470
G01 X27.0152 Y10.9625
G01 X27.0674 Y11.0734
G01 X27.1302 Y11.1786
G01 X27.2030 Y11.2772
G01 X27.2852 Y11.3680
G01 X27.3759 Y11.4504
G01 X27.4846 Y11.5301
G01 X27.5793 Y11.5866
G01 X27.6788 Y11.6340
G01 X27.7938 Y11.6765
G01 X27.9243 Y11.7101
G01 X28.0456 Y11.7281
G01 X28.1681 Y11.7342
G01 X28.3029 Y11.7266
G01 X28.4121 Y11.7101
G01 X28.5193 Y11.6836
G01 X28.6467 Y11.6390
G01 X28.7684 Y11.5805
G01 X28.8631 Y11.5235
G01 X28.9521 Y11.4580
G01 X29.0529 Y11.3680
G01 X29.1355 Y11.2772
G01 X29.2154 Y11.1683
G01 X29.2722 Y11.0734
G01 X29.3199 Y10.9737
G01 X29.3665 Y10.8470
G01 X29.3966 Y10.7280
G00 Z2.0000
G00 X29.2029 Y11.1854
G01 F60.00
G01 Z-0.0500
G01 F120.00
G01 X29.2154 Y11.1683
G01 X29.2722 Y11.0734
G01 X29.3199 Y10.9737
G01 X29.3665 Y10.8470
G01 X29.3966 Y10.7280
G01 X29.4212 Y10.4903
G01 X29.4149 Y10.6067
G01 X29.3966 Y10.7280
G00 X29.3966 Y10.7280
G01 F60.00
G01 Z-0.1000
G01 F120.00
G01 X29.3665 Y10.8470
G01 X29.3199 Y10.9737
G01 X29.2722 Y11.0734
G01 X29.2154 Y11.1683
G01 X29.1355 Y11.2772
G01 X29.0529 Y11.3680
G01 X28.9521 Y11.4580
G01 X28.8631 Y11.5235
G01 X28.7684 Y11.5805
G01 X28.6467 Y11.6390
G01 X28.5193 Y11.6836
G01 X28.4121 Y11.7101
G01 X28.3029 Y11.7266
G01 X28.1681 Y11.7342
G01 X28.0456 Y11.7281
G01 X27.9243 Y11.7101
G01 X27.7938 Y11.6765
G01 X27.6788 Y11.6340
G01 X27.5793 Y11.5866
G01 X27.4846 Y11.5301
G01 X27.3759 Y11.4504
G01 X27.2852 Y11.3680
G01 X27.2030 Y11.2772
G01 X27.1302 Y11.1786
G01 X27.0674 Y11.0734
G01 X27.0152 Y10.9625
G01 X26.9742 Y10.8470
G01 X26.9426 Y10.7159
G01 X26.9270 Y10.6067
G01 X26.9213 Y10.4903
G01 X26.9225 Y9.9842
G01 X26.9304 Y9.8495
G01 X26.9471 Y9.7403
G01 X26.9739 Y9.6331
G01 X27.0144 Y9.5173
G01 X27.0716 Y9.3949
G01 X27.1283 Y9.3001
G01 X27.2082 Y9.1912
G01 X27.2908 Y9.1003
G01 X27.3819 Y9.0179
G01 X27.4806 Y8.9448
G01 X27.5860 Y8.8818
G01 X27.6970 Y8.8293
G01 X27.8126 Y8.7880
G01 X27.9317 Y8.7582
G01 X28.0531 Y8.7402
G01 X28.1756 Y8.7342
G01 X28.2981 Y8.7402
G01 X28.4194 Y8.7582
G01 X28.5383 Y8.7880
G01 X28.6537 Y8.8293
G01 X28.7645 Y8.8818
G01 X28.8592 Y8.9383
G01 X28.9679 Y9.0179
G01 X29.0497 Y9.0918
G01 X29.1483 Y9.2009
G01 X29.2136 Y9.2897
G01 X29.2764 Y9.3949
G01 X29.3285 Y9.5058
G01 X29.3696 Y9.6213
G01 X29.4011 Y9.7524
G01 X29.4168 Y9.8616
G01 X29.4224 Y9.9780
G01 X29.4212 Y10.4903
G01 X29.4149 Y10.6067
G01 X29.3966 Y10.7280
G00 Z2.0000
G00 X29.4218 Y10.2296
G01 F60.00
G01 Z-0.1000
G01 F120.00
G01 X29.4212 Y10.4903
G01 X29.4149 Y10.6067
G01 X29.3966 Y10.7280
G01 X29.2154 Y11.1683
G01 X29.2722 Y11.0734
G01 X29.3199 Y10.9737
G01 X29.3665 Y10.8470
G01 X29.3966 Y10.7280
G00 X29.3966 Y10.7280
G01 F60.00
G01 Z-0.1500
G01 F120.00
G01 X29.4149 Y10.6067
G01 X29.4212 Y10.4903
G01 X29.4224 Y9.9780
G01 X29.4168 Y9.8616
G01 X29.4011 Y9.7524
G01 X29.3696 Y9.6213
G01 X29.3285 Y9.5058
G01 X29.2764 Y9.3949
G01 X29.2136 Y9.2897
G01 X29.1483 Y9.2009
G01 X29.0497 Y9.0918
G01 X28.9679 Y9.0179
G01 X28.8592 Y8.9383
G01 X28.7645 Y8.8818
G01 X28.6537 Y8.8293
G01 X28.5383 Y8.7880
G01 X28.4194 Y8.7582
G01 X28.2981 Y8.7402
G01 X28.1756 Y8.7342
G01 X28.0531 Y8.7402
G01 X27.9317 Y8.7582
G01 X27.8126 Y8.7880
G01 X27.6970 Y8.8293
G01 X27.5860 Y8.8818
G01 X27.4806 Y8.9448
G01 X27.3819 Y9.0179
G01 X27.2908 Y9.1003
G01 X27.2082 Y9.1912
G01 X27.1283 Y9.3001
G01 X27.0716 Y9.3949
G01 X27.0144 Y9.5173
G01 X26.9739 Y9.6331
G01 X26.9471 Y9.7403
G01 X26.9304 Y9.8495
G01 X26.9225 Y9.9842
G01 X26.9213 Y10.4903
G01 X26.9270 Y10.6067
G01 X26.9426 Y10.7159
G01 X26.9742 Y10.8470
G01 X27.0152 Y10.9625
G01 X27.0674 Y11.0734
G01 X27.1302 Y11.1786
G01 X27.2030 Y11.2772
G01 X27.2852 Y11.3680
G01 X27.3759 Y11.4504
G01 X27.4846 Y11.5301
G01 X27.5793 Y11.5866
G01 X27.6788 Y11.6340
G01 X27.7938 Y11.6765
G01 X27.9243 Y11.7101
G01 X28.0456 Y11.7281
G01 X28.1681 Y11.7342
G01 X28.3029 Y11.7266
G01 X28.4121 Y11.7101
G01 X28.5193 Y11.6836
G01 X28.6467 Y11.6390
G01 X28.7684 Y11.5805
G01 X28.8631 Y11.5235
G01 X28.9521 Y11.4580
G01 X29.0529 Y11.3680
G01 X29.1355 Y11.2772
G01 X29.2154 Y11.1683
G01 X29.2722 Y11.0734
G01 X29.3199 Y10.9737
G01 X29.3665 Y10.8470
G01 X29.3966 Y10.7280
G00 Z2.0000
G00 X29.2029 Y11.1854
G01 F60.00
G01 Z-0.1500
G01 F120.00
G01 X29.2154 Y11.1683
G01 X29.2722 Y11.0734
G01 X29.3199 Y10.9737
G01 X29.3665 Y10.8470
G01 X29.3966 Y10.7280
G01 X29.4212 Y10.4903
G01 X29.4149 Y10.6067
G01 X29.3966 Y10.7280
G00 Z2.0000
G00 X26.8066 Y10.7280
G01 F60.00
G01 Z-0.0500
G01 F120.00
G01 X26.8249 Y10.6067
G01 X26.8312 Y10.4903
G01 X26.8324 Y9.9780
G01 X26.8268 Y9.8616
G01 X26.8112 Y9.7524
G01 X26.7796 Y9.6213
G01 X26.7385 Y9.5058
G01 X26.6864 Y9.3949
G01 X26.6236 Y9.2897
G01 X26.5583 Y9.2009
G01 X26.4597 Y9.0918
G01 X26.3779 Y9.0179
G01 X26.2692 Y8.9383
G01 X26.1745 Y8.8818
G01 X26.0637 Y8.8293
G01 X25.9483 Y8.7880
G01 X25.8294 Y8.7582
G01 X25.7081 Y8.7402
G01 X25.5856 Y8.7342
G01 X25.4631 Y8.7402
G01 X25.3417 Y8.7582
G01 X25.2226 Y8.7880
G01 X25.1070 Y8.8293
G01 X24.9960 Y8.8818
G01 X24.8906 Y8.9448
G01 X24.7919 Y9.0179
G01 X24.7008 Y9.1003
G01 X24.6182 Y9.1912
G01 X24.5383 Y9.3001
G01 X24.4816 Y9.3949
G01 X24.4244 Y9.5173
G01 X24.3839 Y9.6331
G01 X24.3571 Y9.7403
G01 X24.3404 Y9.8495
G01 X24.3325 Y9.9842
G01 X24.3313 Y10.4903
G01 X24.3370 Y10.6067
G01 X24.3526 Y10.7159
G01 X24.3842 Y10.8470
G01 X24.4252 Y10.9625
G01 X24.4774 Y11.0734
G01 X24.5402 Y11.1786
G01 X24.6130 Y11.2772
G01 X24.6952 Y11.3680
G01 X24.7859 Y11.4504
G01 X24.8946 Y11.5301
G01 X24.9893 Y11.5866
G01 X25.0888 Y11.6340
G01 X25.2038 Y11.6765
G01 X25.3343 Y11.7101
G01 X25.4556 Y11.7281
G01 X25.5781 Y11.7342
G01 X25.7129 Y11.7266
G01 X25.8221 Y11.7101
G01 X25.9293 Y11.6836
G01 X26.0567 Y11.6390
G01 X26.1785 Y11.5805
G01 X26.2731 Y11.5235
G01 X26.3622 Y11.4580
G01 X26.4629 Y11.3680
G01 X26.5455 Y11.2772
G01 X26.6255 Y11.1683
G01 X26.6822 Y11.0734
G01 X26.7299 Y10.9737
G01 X26.7765 Y10.8470
G01 X26.8066 Y10.7280
G00 Z2.0000
G00 X26.6129 Y11.1854
G01 F60.00
G01 Z-0.0500
G01 F120.00
G01 X26.6255 Y11.1683
G01 X26.6822 Y11.0734
G01 X26.7299 Y10.9737
G01 X26.7765 Y10.8470
G01 X26.8066 Y10.7280
G01 X26.8312 Y10.4903
G01 X26.8249 Y10.6067
G01 X26.8066 Y10.7280
G00 X26.8066 Y10.7280
G01 F60.00
G01 Z-0.1000
G01 F120.00
G01 X26.7765 Y10.8470
G01 X26.7299 Y10.9737
G01 X26.6822 Y11.0734
G01 X26.6255 Y11.1683
G01 X26.5455 Y11.2772
G01 X26.4629 Y11.3680
G01 X26.3622 Y11.4580
G01 X26.2731 Y11.5235
G01 X26.1785 Y11.5805
G01 X26.0567 Y11.6390
G01 X25.9293 Y11.6836
G01 X25.8221 Y11.7101
G01 X25.7129 Y11.7266
G01 X25.5781 Y11.7342
G01 X25.4556 Y11.7281
G01 X25.3343 Y11.7101
G01 X25.2038 Y11.6765
G01 X25.0888 Y11.6340
G01 X24.9893 Y11.5866
G01 X24.8946 Y11.5301
G01 X24.7859 Y11.4504
G01 X24.6952 Y11.3680
G01 X24.6130 Y11.2772
G01 X24.5402 Y11.1786
G01 X24.4774 Y11.0734
G01 X24.4252 Y10.9625
G01 X24.3842 Y10.8470
G01 X24.3526 Y10.7159
G01 X24.3370 Y10.6067
G01 X24.3313 Y10.4903
G01 X24.3325 Y9.9842
G01 X24.3404 Y9.8495
G01 X24.3571 Y9.7403
G01 X24.3839 Y9.6331
G01 X24.4244 Y9.5173
G01 X24.4816 Y9.3949
G01 X24.5383 Y9.3001
G01 X24.6182 Y9.1912
G01 X24.7008 Y9.1003
G01 X24.7919 Y9.0179
G01 X24.8906 Y8.9448
G01 X24.9960 Y8.8818
G01 X25.1070 Y8.8293
G01 X25.2226 Y8.7880
G01 X25.3417 Y8.7582
G01 X25.4631 Y8.7402
G01 X25.5856 Y8.7342
G01 X25.7081 Y8.7402
G01 X25.8294 Y8.7582
G01 X25.9483 Y8.7880
G01 X26.0637 Y8.8293
G01 X26.1745 Y8.8818
G01 X26.2692 Y8.9383
G01 X26.3779 Y9.0179
G01 X26.4597 Y9.0918
G01 X26.5583 Y9.2009
G01 X26.6236 Y9.2897
G01 X26.6864 Y9.3949
G01 X26.7385 Y9.5058
G01 X26.7796 Y9.6213
G01 X26.8112 Y9.7524
G01 X26.8268 Y9.8616
G01 X26.8324 Y9.9780
G01 X26.8312 Y10.4903
G01 X26.8249 Y10.6067
G01 X26.8066 Y10.7280
G00 Z2.0000
G00 X26.8318 Y10.2296
G01 F60.00
G01 Z-0.1000
G01 F120.00
G01 X26.8312 Y10.4903
G01 X26.8249 Y10.6067
G01 X26.8066 Y10.7280
G01 X26.6255 Y11.1683
G01 X26.6822 Y11.0734
G01 X26.7299 Y10.9737
G01 X26.7765 Y10.8470
G01 X26.8066 Y10.7280
G00 X26.8066 Y10.7280
G01 F60.00
G01 Z-0.1500
G01 F120.00
G01 X26.8249 Y10.6067
G01 X26.8312 Y10.4903
G01 X26.8324 Y9.9780
G01 X26.8268 Y9.8616
G01 X26.8112 Y9.7524
G01 X26.7796 Y9.6213
G01 X26.7385 Y9.5058
G01 X26.6864 Y9.3949
G01 X26.6236 Y9.2897
G01 X26.5583 Y9.2009
G01 X26.4597 Y9.0918
G01 X26.3779 Y9.0179
G01 X26.2692 Y8.9383
G01 X26.1745 Y8.8818
G01 X26.0637 Y8.8293
G01 X25.9483 Y8.7880
G01 X25.8294 Y8.7582
G01 X25.7081 Y8.7402
G01 X25.5856 Y8.7342
G01 X25.4631 Y8.7402
G01 X25.3417 Y8.7582
G01 X25.2226 Y8.7880
G01 X25.1070 Y8.8293
G01 X24.9960 Y8.8818
G01 X24.8906 Y8.9448
G01 X24.7919 Y9.0179
G01 X24.7008 Y9.1003
G01 X24.6182 Y9.1912
G01 X24.5383 Y9.3001
G01 X24.4816 Y9.3949
G01 X24.4244 Y9.5173
G01 X24.3839 Y9.6331
G01 X24.3571 Y9.7403
G01 X24.3404 Y9.8495
G01 X24.3325 Y9.9842
G01 X24.3313 Y10.4903
G01 X24.3370 Y10.6067
G01 X24.3526 Y10.7159
G01 X24.3842 Y10.8470
G01 X24.4252 Y10.9625
G01 X24.4774 Y11.0734
G01 X24.5402 Y11.1786
G01 X24.6130 Y11.2772
G01 X24.6952 Y11.3680
G01 X24.7859 Y11.4504
G01 X24.8946 Y11.5301
G01 X24.9893 Y11.5866
G01 X25.0888 Y11.6340
G01 X25.2038 Y11.6765
G01 X25.3343 Y11.7101
G01 X25.4556 Y11.7281
G01 X25.5781 Y11.7342
G01 X25.7129 Y11.7266
G01 X25.8221 Y11.7101
G01 X25.9293 Y11.6836
G01 X26.0567 Y11.6390
G01 X26.1785 Y11.5805
G01 X26.2731 Y11.5235
G01 X26.3622 Y11.4580
G01 X26.4629 Y11.3680
G01 X26.5455 Y11.2772
G01 X26.6255 Y11.1683
G01 X26.6822 Y11.0734
G01 X26.7299 Y10.9737
G01 X26.7765 Y10.8470
G01 X26.8066 Y10.7280
G00 Z2.0000
G00 X26.6129 Y11.1854
G01 F60.00
G01 Z-0.1500
G01 F120.00
G01 X26.6255 Y11.1683
G01 X26.6822 Y11.0734
G01 X26.7299 Y10.9737
G01 X26.7765 Y10.8470
G01 X26.8066 Y10.7280
G01 X26.8312 Y10.4903
G01 X26.8249 Y10.6067
G01 X26.8066 Y10.7280
G00 Z2.0000
G00 X24.2166 Y10.7280
G01 F60.00
G01 Z-0.0500
G01 F120.00
G01 X24.2349 Y10.6067
G01 X24.2412 Y10.4903
G01 X24.2424 Y9.9780
G01 X24.2368 Y9.8616
G01 X24.2212 Y9.7524
G01 X24.1896 Y9.6213
G01 X24.1485 Y9.5058
G01 X24.0964 Y9.3949
G01 X24.0336 Y9.2897
G01 X23.9683 Y9.2009
G01 X23.8697 Y9.0918
G01 X23.7879 Y9.0179
G01 X23.6792 Y8.9383
G01 X23.5845 Y8.8818
G01 X23.4737 Y8.8293
G01 X23.3583 Y8.7880
G01 X23.2394 Y8.7582
G01 X23.1181 Y8.7402
G01 X22.9956 Y8.7342
G01 X22.8731 Y8.7402
G01 X22.7517 Y8.7582
G01 X22.6326 Y8.7880
G01 X22.5170 Y8.8293
G01 X22.4060 Y8.8818
G01 X22.3006 Y8.9448
G01 X22.2019 Y9.0179
G01 X22.1108 Y9.1003
G01 X22.0282 Y9.1912
G01 X21.9483 Y9.3001
G01 X21.8916 Y9.3949
G01 X21.8344 Y9.5173
G01 X21.7939 Y9.6331
G01 X21.7671 Y9.7403
G01 X21.7504 Y9.8495
G01 X21.7425 Y9.9842
G01 X21.7413 Y10.4903
G01 X21.7470 Y10.6067
G01 X21.7626 Y10.7159
G01 X21.7942 Y10.8470
G01 X21.8352 Y10.9625
G01 X21.8874 Y11.0734
G01 X21.9502 Y11.1786
G01 X22.0230 Y11.2772
G01 X22.1052 Y11.3680
G01 X22.1959 Y11.4504
G01 X22.3046 Y11.5301
G01 X22.3993 Y11.5866
G01 X22.4988 Y11.6340
G01 X22.6138 Y11.6765
G01 X22.7444 Y11.7101
G01 X22.8656 Y11.7281
G01 X22.9882 Y11.7342
G01 X23.1229 Y11.7266
G01 X23.2321 Y11.7101
G01 X23.3393 Y11.6836
G01 X23.4667 Y11.6390
G01 X23.5885 Y11.5805
G01 X23.6831 Y11.5235
G01 X23.7722 Y11.4580
G01 X23.8729 Y11.3680
G01 X23.9556 Y11.2772
G01 X24.0355 Y11.1683
G01 X24.0922 Y11.0734
G01 X24.1399 Y10.9737
G01 X24.1865 Y10.8470
G01 X24.2166 Y10.7280
G00 Z2.0000
G00 X24.0229 Y11.1854
G01 F60.00
G01 Z-0.0500
G01 F120.00
G01 X24.0355 Y11.1683
G01 X24.0922 Y11.0734
G01 X24.1399 Y10.9737
G01 X24.1865 Y10.8470
G01 X24.2166 Y10.7280
G01 X24.2412 Y10.4903
G01 X24.2349 Y10.6067
G01 X24.2166 Y10.7280
G00 X24.2166 Y10.7280
G01 F60.00
G01 Z-0.1000
G01 F120.00
G01 X24.1865 Y10.8470
G01 X24.1399 Y10.9737
G01 X24.0922 Y11.0734
G01 X24.0355 Y11.1683
G01 X23.9556 Y11.2772
G01 X23.8729 Y11.3680
G01 X23.7722 Y11.4580
G01 X23.6831 Y11.5235
G01 X23.5885 Y11.5805
G01 X23.4667 Y11.6390
G01 X23.3393 Y11.6836
G01 X23.2321 Y11.7101
G01 X23.1229 Y11.7266
G01 X22.9882 Y11.7342
G01 X22.8656 Y11.7281
G01 X22.7444 Y11.7101
G01 X22.6138 Y11.6765
G01 X22.4988 Y11.6340
G01 X22.3993 Y11.5866
G01 X22.3046 Y11.5301
G01 X22.1959 Y11.4504
G01 X22.1052 Y11.3680
G01 X22.0230 Y11.2772
G01 X21.9502 Y11.1786
G01 X21.8874 Y11.0734
G01 X21.8352 Y10.9625
G01 X21.7942 Y10.8470
G01 X21.7626 Y10.7159
G01 X21.7470 Y10.6067
G01 X21.7413 Y10.4903
G01 X21.7425 Y9.9842
G01 X21.7504 Y9.8495
G01 X21.7671 Y9.7403
G01 X21.7939 Y9.6331
G01 X21.8344 Y9.5173
G01 X21.8916 Y9.3949
G01 X21.9483 Y9.3001
G01 X22.0282 Y9.1912
G01 X22.1108 Y9.1003
G01 X22.2019 Y9.0179
G01 X22.3006 Y8.9448
G01 X22.4060 Y8.8818
G01 X22.5170 Y8.8293
G01 X22.6326 Y8.7880
G01 X22.7517 Y8.7582
G01 X22.8731 Y8.7402
G01 X22.9956 Y8.7342
G01 X23.1181 Y8.7402
G01 X23.2394 Y8.7582
G01 X23.3583 Y8.7880
G01 X23.4737 Y8.8293
G01 X23.5845 Y8.8818
G01 X23.6792 Y8.9383
G01 X23.7879 Y9.0179
G01 X23.8697 Y9.0918
G01 X23.9683 Y9.2009
G01 X24.0336 Y9.2897
G01 X24.0964 Y9.3949
G01 X24.1485 Y9.5058
G01 X24.1896 Y9.6213
G01 X24.2212 Y9.7524
G01 X24.2368 Y9.8616
G01 X24.2424 Y9.9780
G01 X24.2412 Y10.4903
G01 X24.2349 Y10.6067
G01 X24.2166 Y10.7280
G00 Z2.0000
G00 X24.2418 Y10.2296
G01 F60.00
G01 Z-0.1000
G01 F120.00
G01 X24.2412 Y10.4903
G01 X24.2349 Y10.6067
G01 X24.2166 Y10.7280
G01 X24.0355 Y11.1683
G01 X24.0922 Y11.0734
G01 X24.1399 Y10.9737
G01 X24.1865 Y10.8470
G01 X24.2166 Y10.7280
G00 X24.2166 Y10.7280
G01 F60.00
G01 Z-0.1500
G01 F120.00
G01 X24.2349 Y10.6067
G01 X24.2412 Y10.4903
G01 X24.2424 Y9.9780
G01 X24.2368 Y9.8616
G01 X24.2212 Y9.7524
G01 X24.1896 Y9.6213
G01 X24.1485 Y9.5058
G01 X24.0964 Y9.3949
G01 X24.0336 Y9.2897
G01 X23.9683 Y9.2009
G01 X23.8697 Y9.0918
G01 X23.7879 Y9.0179
G01 X23.6792 Y8.9383
G01 X23.5845 Y8.8818
G01 X23.4737 Y8.8293
G01 X23.3583 Y8.7880
G01 X23.2394 Y8.7582
G01 X23.1181 Y8.7402
G01 X22.9956 Y8.7342
G01 X22.8731 Y8.7402
G01 X22.7517 Y8.7582
G01 X22.6326 Y8.7880
G01 X22.5170 Y8.8293
G01 X22.4060 Y8.8818
G01 X22.3006 Y8.9448
G01 X22.2019 Y9.0179
G01 X22.1108 Y9.1003
G01 X22.0282 Y9.1912
G01 X21.9483 Y9.3001
G01 X21.8916 Y9.3949
G01 X21.8344 Y9.5173
G01 X21.7939 Y9.6331
G01 X21.7671 Y9.7403
G01 X21.7504 Y9.8495
G01 X21.7425 Y9.9842
G01 X21.7413 Y10.4903
G01 X21.7470 Y10.6067
G01 X21.7626 Y10.7159
G01 X21.7942 Y10.8470
G01 X21.8352 Y10.9625
G01 X21.8874 Y11.0734
G01 X21.9502 Y11.1786
G01 X22.0230 Y11.2772
G01 X22.1052 Y11.3680
G01 X22.1959 Y11.4504
G01 X22.3046 Y11.5301
G01 X22.3993 Y11.5866
G01 X22.4988 Y11.6340
G01 X22.6138 Y11.6765
G01 X22.7444 Y11.7101
G01 X22.8656 Y11.7281
G01 X22.9882 Y11.7342
G01 X23.1229 Y11.7266
G01 X23.2321 Y11.7101
G01 X23.3393 Y11.6836
G01 X23.4667 Y11.6390
G01 X23.5885 Y11.5805
G01 X23.6831 Y11.5235
G01 X23.7722 Y11.4580
G01 X23.8729 Y11.3680
G01 X23.9556 Y11.2772
G01 X24.0355 Y11.1683
G01 X24.0922 Y11.0734
G01 X24.1399 Y10.9737
G01 X24.1865 Y10.8470
G01 X24.2166 Y10.7280
G00 Z2.0000
G00 X24.0229 Y11.1854
G01 F60.00
G01 Z-0.1500
G01 F120.00
G01 X24.0355 Y11.1683
G01 X24.0922 Y11.0734
G01 X24.1399 Y10.9737
G01 X24.1865 Y10.8470
G01 X24.2166 Y10.7280
G01 X24.2412 Y10.4903
G01 X24.2349 Y10.6067
G01 X24.2166 Y10.7280
G00 Z2.0000
G00 X29.4802 Y19.3712
G01 F60.00
G01 Z-0.0500
G01 F120.00
G01 X29.5411 Y19.4119
G01 X29.7044 Y19.4770
G01 X29.7774 Y19.4842
G01 X29.8494 Y19.4699
G01 X29.9332 Y19.4197
G01 X30.1631 Y19.1908
G01 X30.3562 Y19.0429
G01 X30.5656 Y18.9563
G01 X30.8066 Y18.9245
G01 X31.1286 Y18.9242
G01 X31.2005 Y18.9100
G01 X31.2652 Y18.8755
G01 X31.3809 Y18.7728
G01 X31.4391 Y18.6945
G01 X31.4630 Y18.5999
G01 X31.4634 Y18.4484
G01 X31.4493 Y18.3765
G01 X31.3994 Y18.2928
G01 X31.3157 Y18.2205
G01 X31.1463 Y18.0134
G01 X31.0206 Y17.7771
G01 X30.9434 Y17.5207
G01 X30.9178 Y17.2541
G01 X30.9447 Y16.9876
G01 X31.0232 Y16.7312
G01 X31.1501 Y16.4949
G01 X31.3205 Y16.2878
G01 X31.4201 Y16.1966
G01 X31.4549 Y16.1319
G01 X31.4669 Y16.0843
G01 X31.4697 Y15.9084
G01 X31.4463 Y15.8137
G01 X31.3883 Y15.7354
G01 X31.2735 Y15.6330
G01 X31.2316 Y15.6078
G01 X31.1854 Y15.5913
G01 X31.1247 Y15.5838
G01 X29.9923 Y15.5838
G01 X29.9315 Y15.5912
G01 X29.8636 Y15.6193
G01 X29.8242 Y15.6485
G01 X29.4713 Y16.0006
G01 X29.4304 Y16.0616
G01 X29.4137 Y16.1077
G01 X29.4061 Y16.1685
G01 X29.3986 Y19.1859
G01 X29.4059 Y19.2467
G01 X29.4223 Y19.2928
G01 X29.4802 Y19.3712
G00 Z2.0000
G00 X29.3993 Y18.8935
G01 F60.00
G01 Z-0.0500
G01 F120.00
G01 X29.3986 Y19.1859
G01 X29.4059 Y19.2467
G01 X29.4223 Y19.2928
G01 X29.4802 Y19.3712
G01 X29.9332 Y19.4197
G01 X29.8494 Y19.4699
G01 X29.7774 Y19.4842
G01 X29.7044 Y19.4770
G01 X29.5411 Y19.4119
G01 X29.4802 Y19.3712
G00 X29.4802 Y19.3712
G01 F60.00
G01 Z-0.1000
G01 F120.00
G01 X29.4223 Y19.2928
G01 X29.4059 Y19.2467
G01 X29.3986 Y19.1859
G01 X29.4061 Y16.1685
G01 X29.4137 Y16.1077
G01 X29.4304 Y16.0616
G01 X29.4713 Y16.0006
G01 X29.8242 Y15.6485
G01 X29.8636 Y15.6193
G01 X29.9315 Y15.5912
G01 X29.9923 Y15.5838
G01 X31.1247 Y15.5838
G01 X31.1854 Y15.5913
G01 X31.2316 Y15.6078
G01 X31.2735 Y15.6330
G01 X31.3883 Y15.7354
G01 X31.4463 Y15.8137
G01 X31.4697 Y15.9084
G01 X31.4669 Y16.0843
G01 X31.4549 Y16.1319
G01 X31.4201 Y16.1966
G01 X31.3205 Y16.2878
G01 X31.1501 Y16.4949
G01 X31.0232 Y16.7312
G01 X30.9447 Y16.9876
G01 X30.9178 Y17.2541
G01 X30.9434 Y17.5207
G01 X31.0206 Y17.7771
G01 X31.1463 Y18.0134
G01 X31.3157 Y18.2205
G01 X31.3994 Y18.2928
G01 X31.4493 Y18.3765
G01 X31.4634 Y18.4484
G01 X31.4630 Y18.5999
G01 X31.4391 Y18.6945
G01 X31.3809 Y18.7728
G01 X31.2652 Y18.8755
G01 X31.2005 Y18.9100
G01 X31.1286 Y18.9242
G01 X30.8066 Y18.9245
G01 X30.5656 Y18.9563
G01 X30.3562 Y19.0429
G01 X30.1631 Y19.1908
G01 X29.9332 Y19.4197
G01 X29.8494 Y19.4699
G01 X29.7774 Y19.4842
G01 X29.7044 Y19.4770
G01 X29.5411 Y19.4119
G01 X29.4802 Y19.3712
G00 Z2.0000
G00 X29.9378 Y19.4152
G01 F60.00
G01 Z-0.1000
G01 F120.00
G01 X29.9332 Y19.4197
G01 X29.8494 Y19.4699
G01 X29.7774 Y19.4842
G01 X29.7044 Y19.4770
G01 X29.5411 Y19.4119
G01 X29.4802 Y19.3712
G01 X29.3986 Y19.1859
G01 X29.4059 Y19.2467
G01 X29.4223 Y19.2928
G01 X29.4802 Y19.3712
G00 X29.4802 Y19.3712
G01 F60.00
G01 Z-0.1500
G01 F120.00
G01 X29.5411 Y19.4119
G01 X29.7044 Y19.4770
G01 X29.7774 Y19.4842
G01 X29.8494 Y19.4699
G01 X29.9332 Y19.4197
G01 X30.1631 Y19.1908
G01 X30.3562 Y19.0429
G01 X30.5656 Y18.9563
G01 X30.8066 Y18.9245
G01 X31.1286 Y18.9242
G01 X31.2005 Y18.9100
G01 X31.2652 Y18.8755
G01 X31.3809 Y18.7728
G01 X31.4391 Y18.6945
G01 X31.4630 Y18.5999
G01 X31.4634 Y18.4484
G01 X31.4493 Y18.3765
G01 X31.3994 Y18.2928
G01 X31.3157 Y18.2205
G01 X31.1463 Y18.0134
G01 X31.0206 Y17.7771
G01 X30.9434 Y17.5207
G01 X30.9178 Y17.2541
G01 X30.9447 Y16.9876
G01 X31.0232 Y16.7312
G01 X31.1501 Y16.4949
G01 X31.3205 Y16.2878
G01 X31.4201 Y16.1966
G01 X31.4549 Y16.1319
G01 X31.4669 Y16.0843
G01 X31.4697 Y15.9084
G01 X31.4463 Y15.8137
G01 X31.3883 Y15.7354
G01 X31.2735 Y15.6330
G01 X31.2316 Y15.6078
G01 X31.1854 Y15.5913
G01 X31.1247 Y15.5838
G01 X29.9923 Y15.5838
G01 X29.9315 Y15.5912
G01 X29.8636 Y15.6193
G01 X29.8242 Y15.6485
G01 X29.4713 Y16.0006
G01 X29.4304 Y16.0616
G01 X29.4137 Y16.1077
G01 X29.4061 Y16.1685
G01 X29.3986 Y19.1859
G01 X29.4059 Y19.2467
G01 X29.4223 Y19.2928
G01 X29.4802 Y19.3712
G00 Z2.0000
G00 X29.3993 Y18.8935
G01 F60.00
G01 Z-0.1500
G01 F120.00
G01 X29.3986 Y19.1859
G01 X29.4059 Y19.2467
G01 X29.4223 Y19.2928
G01 X29.4802 Y19.3712
G01 X29.9332 Y19.4197
G01 X29.8494 Y19.4699
G01 X29.7774 Y19.4842
G01 X29.7044 Y19.4770
G01 X29.5411 Y19.4119
G01 X29.4802 Y19.3712
G00 Z2.0000
G00 X29.2393 Y26.8311
G01 F60.00
G01 Z-0.0500
G01 F120.00
G01 X29.3735 Y26.8434
G01 X40.1575 Y26.8434
G01 X40.2757 Y26.9058
G01 X40.3686 Y26.9400
G01 X40.5265 Y26.9724
G01 X40.6376 Y26.9778
G01 X40.7981 Y26.9611
G01 X40.9527 Y26.9152
G01 X41.0535 Y26.8676
G01 X41.1776 Y26.7848
G01 X41.2603 Y26.7100
G01 X41.3622 Y26.5848
G01 X41.4394 Y26.4430
G01 X41.4738 Y26.3500
G01 X41.5090 Y26.1676
G01 X41.5094 Y26.0186
G01 X41.4981 Y25.9326
G01 X41.4460 Y25.7544
G01 X41.3646 Y25.6014
G01 X41.2549 Y25.4673
G01 X41.1107 Y25.3507
G01 X41.0357 Y25.3071
G01 X40.8982 Y25.2501
G01 X40.7165 Y25.2124
G01 X40.5553 Y25.2115
G01 X40.4451 Y25.2278
G01 X40.2909 Y25.2755
G01 X40.1612 Y25.3429
G01 X29.6880 Y25.3429
G01 X29.2650 Y24.9188
G01 X29.2871 Y16.0155
G01 X29.8396 Y15.4644
G01 X31.2905 Y15.4644
G01 X31.3962 Y15.5891
G01 X31.4953 Y15.6804
G01 X31.5937 Y15.7535
G01 X31.6987 Y15.8166
G01 X31.8095 Y15.8690
G01 X31.9249 Y15.9103
G01 X32.0438 Y15.9401
G01 X32.1651 Y15.9581
G01 X32.7937 Y15.9641
G01 X32.9101 Y15.9581
G01 X33.0194 Y15.9422
G01 X33.1506 Y15.9103
G01 X33.2662 Y15.8690
G01 X33.3772 Y15.8166
G01 X33.4826 Y15.7535
G01 X33.5813 Y15.6804
G01 X33.6635 Y15.6065
G01 X33.7550 Y15.5071
G01 X33.8349 Y15.3982
G01 X33.8916 Y15.3034
G01 X33.9394 Y15.2037
G01 X33.9860 Y15.0770
G01 X34.0182 Y14.9459
G01 X34.0344 Y14.8367
G01 X34.0404 Y14.7264
G01 X34.0335 Y14.5795
G01 X34.0173 Y14.4703
G01 X33.9910 Y14.3631
G01 X33.9467 Y14.2358
G01 X33.8886 Y14.1142
G01 X33.8318 Y14.0197
G01 X33.7589 Y13.9212
G01 X33.6679 Y13.8218
G01 X33.5861 Y13.7479
G01 X33.4878 Y13.6748
G01 X33.3718 Y13.6062
G01 X33.2719 Y13.5593
G01 X33.1565 Y13.5180
G01 X33.0255 Y13.4861
G01 X32.9163 Y13.4702
G01 X32.8000 Y13.4642
G01 X32.2877 Y13.4642
G01 X32.1713 Y13.4702
G01 X32.0379 Y13.4909
G01 X31.9308 Y13.5180
G01 X31.8152 Y13.5593
G01 X31.7042 Y13.6118
G01 X31.5988 Y13.6748
G01 X31.5001 Y13.7479
G01 X31.4179 Y13.8218
G01 X31.2942 Y13.9639
G01 X29.5264 Y13.9640
G01 X29.3862 Y13.9783
G01 X29.2568 Y14.0166
G01 X29.1155 Y14.0903
G01 X29.0059 Y14.1794
G01 X28.0042 Y15.1786
G01 X27.9513 Y15.2385
G01 X27.8830 Y15.3404
G01 X27.8203 Y15.4870
G01 X27.8001 Y15.5705
G01 X27.7874 Y15.7048
G01 X27.7637 Y25.2295
G01 X27.7686 Y25.3152
G01 X27.7955 Y25.4473
G01 X27.8459 Y25.5722
G01 X27.8962 Y25.6564
G01 X27.9779 Y25.7556
G01 X28.8980 Y26.6731
G01 X28.9674 Y26.7235
G01 X29.0754 Y26.7813
G01 X29.1558 Y26.8111
G01 X29.2393 Y26.8311
G00 Z2.0000
G00 X28.8129 Y26.5882
G01 F60.00
G01 Z-0.0500
G01 F120.00
G01 X28.8980 Y26.6731
G01 X28.9674 Y26.7235
G01 X29.0754 Y26.7813
G01 X29.1558 Y26.8111
G01 X29.2393 Y26.8311
G01 X29.3735 Y26.8434
G01 X29.2393 Y26.8311
G00 X29.2393 Y26.8311
G01 F60.00
G01 Z-0.1000
G01 F120.00
G01 X29.1558 Y26.8111
G01 X29.0754 Y26.7813
G01 X28.9674 Y26.7235
G01 X28.8980 Y26.6731
G01 X27.9779 Y25.7556
G01 X27.8962 Y25.6564
G01 X27.8459 Y25.5722
G01 X27.7955 Y25.4473
G01 X27.7686 Y25.3152
G01 X27.7637 Y25.2295
G01 X27.7874 Y15.7048
G01 X27.8001 Y15.5705
G01 X27.8203 Y15.4870
G01 X27.8830 Y15.3404
G01 X27.9513 Y15.2385
G01 X28.0042 Y15.1786
G01 X29.0059 Y14.1794
G01 X29.1155 Y14.0903
G01 X29.2568 Y14.0166
G01 X29.3862 Y13.9783
G01 X29.5264 Y13.9640
G01 X31.2942 Y13.9639
G01 X31.4179 Y13.8218
G01 X31.5001 Y13.7479
G01 X31.5988 Y13.6748
G01 X31.7042 Y13.6118
G01 X31.8152 Y13.5593
G01 X31.9308 Y13.5180
G01 X32.0379 Y13.4909
G01 X32.1713 Y13.4702
G01 X32.2877 Y13.4642
G01 X32.8000 Y13.4642
G01 X32.9163 Y13.4702
G01 X33.0255 Y13.4861
G01 X33.1565 Y13.5180
G01 X33.2719 Y13.5593
G01 X33.3718 Y13.6062
G01 X33.4878 Y13.6748
G01 X33.5861 Y13.7479
G01 X33.6679 Y13.8218
G01 X33.7589 Y13.9212
G01 X33.8318 Y14.0197
G01 X33.8886 Y14.1142
G01 X33.9467 Y14.2358
G01 X33.9910 Y14.3631
G01 X34.0173 Y14.4703
G01 X34.0335 Y14.5795
G01 X34.0404 Y14.7264
G01 X34.0344 Y14.8367
G01 X34.0182 Y14.9459
G01 X33.9860 Y15.0770
G01 X33.9394 Y15.2037
G01 X33.8916 Y15.3034
G01 X33.8349 Y15.3982
G01 X33.7550 Y15.5071
G01 X33.6635 Y15.6065
G01 X33.5813 Y15.6804
G01 X33.4826 Y15.7535
G01 X33.3772 Y15.8166
G01 X33.2662 Y15.8690
G01 X33.1506 Y15.9103
G01 X33.0194 Y15.9422
G01 X32.9101 Y15.9581
G01 X32.7937 Y15.9641
G01 X32.1651 Y15.9581
G01 X32.0438 Y15.9401
G01 X31.9249 Y15.9103
G01 X31.8095 Y15.8690
G01 X31.6987 Y15.8166
G01 X31.5937 Y15.7535
G01 X31.4953 Y15.6804
G01 X31.3962 Y15.5891
G01 X31.2905 Y15.4644
G01 X29.8396 Y15.4644
G01 X29.2871 Y16.0155
G01 X29.2650 Y24.9188
G01 X29.6880 Y25.3429
G01 X40.1612 Y25.3429
G01 X40.2909 Y25.2755
G01 X40.4451 Y25.2278
G01 X40.5553 Y25.2115
G01 X40.7165 Y25.2124
G01 X40.8982 Y25.2501
G01 X41.0357 Y25.3071
G01 X41.1107 Y25.3507
G01 X41.2549 Y25.4673
G01 X41.3646 Y25.6014
G01 X41.4460 Y25.7544
G01 X41.4981 Y25.9326
G01 X41.5094 Y26.0186
G01 X41.5090 Y26.1676
G01 X41.4738 Y26.3500
G01 X41.4394 Y26.4430
G01 X41.3622 Y26.5848
G01 X41.2603 Y26.7100
G01 X41.1776 Y26.7848
G01 X41.0535 Y26.8676
G01 X40.9527 Y26.9152
G01 X40.7981 Y26.9611
G01 X40.6376 Y26.9778
G01 X40.5265 Y26.9724
G01 X40.3686 Y26.9400
G01 X40.2757 Y26.9058
G01 X40.1575 Y26.8434
G01 X29.3735 Y26.8434
G01 X29.2393 Y26.8311
G00 Z2.0000
G00 X29.7387 Y26.8434
G01 F60.00
G01 Z-0.1000
G01 F120.00
G01 X29.3735 Y26.8434
G01 X29.2393 Y26.8311
G01 X28.8980 Y26.6731
G01 X28.9674 Y26.7235
G01 X29.0754 Y26.7813
G01 X29.1558 Y26.8111
G01 X29.2393 Y26.8311
G00 X29.2393 Y26.8311
G01 F60.00
G01 Z-0.1500
G01 F120.00
G01 X29.3735 Y26.8434
G01 X40.1575 Y26.8434
G01 X40.2757 Y26.9058
G01 X40.3686 Y26.9400
G01 X40.5265 Y26.9724
G01 X40.6376 Y26.9778
G01 X40.7981 Y26.9611
G01 X40.9527 Y26.9152
G01 X41.0535 Y26.8676
G01 X41.1776 Y26.7848
G01 X41.2603 Y26.7100
G01 X41.3622 Y26.5848
G01 X41.4394 Y26.4430
G01 X41.4738 Y26.3500
G01 X41.5090 Y26.1676
G01 X41.5094 Y26.0186
G01 X41.4981 Y25.9326
G01 X41.4460 Y25.7544
G01 X41.3646 Y25.6014
G01 X41.2549 Y25.4673
G01 X41.1107 Y25.3507
G01 X41.0357 Y25.3071
G01 X40.8982 Y25.2501
G01 X40.7165 Y25.2124
G01 X40.5553 Y25.2115
G01 X40.4451 Y25.2278
G01 X40.2909 Y25.2755
G01 X40.1612 Y25.3429
G01 X29.6880 Y25.3429
G01 X29.2650 Y24.9188
G01 X29.2871 Y16.0155
G01 X29.8396 Y15.4644
G01 X31.2905 Y15.4644
G01 X31.3962 Y15.5891
G01 X31.4953 Y15.6804
G01 X31.5937 Y15.7535
G01 X31.6987 Y15.8166
G01 X31.8095 Y15.8690
G01 X31.9249 Y15.9103
G01 X32.0438 Y15.9401
G01 X32.1651 Y15.9581
G01 X32.7937 Y15.9641
G01 X32.9101 Y15.9581
G01 X33.0194 Y15.9422
G01 X33.1506 Y15.9103
G01 X33.2662 Y15.8690
G01 X33.3772 Y15.8166
G01 X33.4826 Y15.7535
G01 X33.5813 Y15.6804
G01 X33.6635 Y15.6065
G01 X33.7550 Y15.5071
G01 X33.8349 Y15.3982
G01 X33.8916 Y15.3034
G01 X33.9394 Y15.2037
G01 X33.9860 Y15.0770
G01 X34.0182 Y14.9459
G01 X34.0344 Y14.8367
G01 X34.0404 Y14.7264
G01 X34.0335 Y14.5795
G01 X34.0173 Y14.4703
G01 X33.9910 Y14.3631
G01 X33.9467 Y14.2358
G01 X33.8886 Y14.1142
G01 X33.8318 Y14.0197
G01 X33.7589 Y13.9212
G01 X33.6679 Y13.8218
G01 X33.5861 Y13.7479
G01 X33.4878 Y13.6748
G01 X33.3718 Y13.6062
G01 X33.2719 Y13.5593
G01 X33.1565 Y13.5180
G01 X33.0255 Y13.4861
G01 X32.9163 Y13.4702
G01 X32.8000 Y13.4642
G01 X32.2877 Y13.4642
G01 X32.1713 Y13.4702
G01 X32.0379 Y13.4909
G01 X31.9308 Y13.5180
G01 X31.8152 Y13.5593
G01 X31.7042 Y13.6118
G01 X31.5988 Y13.6748
G01 X31.5001 Y13.7479
G01 X31.4179 Y13.8218
G01 X31.2942 Y13.9639
G01 X29.5264 Y13.9640
G01 X29.3862 Y13.9783
G01 X29.2568 Y14.0166
G01 X29.1155 Y14.0903
G01 X29.0059 Y14.1794
G01 X28.0042 Y15.1786
G01 X27.9513 Y15.2385
G01 X27.8830 Y15.3404
G01 X27.8203 Y15.4870
G01 X27.8001 Y15.5705
G01 X27.7874 Y15.7048
G01 X27.7637 Y25.2295
G01 X27.7686 Y25.3152
G01 X27.7955 Y25.4473
G01 X27.8459 Y25.5722
G01 X27.8962 Y25.6564
G01 X27.9779 Y25.7556
G01 X28.8980 Y26.6731
G01 X28.9674 Y26.7235
G01 X29.0754 Y26.7813
G01 X29.1558 Y26.8111
G01 X29.2393 Y26.8311
G00 Z2.0000
G00 X28.8129 Y26.5882
G01 F60.00
G01 Z-0.1500
G01 F120.00
G01 X28.8980 Y26.6731
G01 X28.9674 Y26.7235
G01 X29.0754 Y26.7813
G01 X29.1558 Y26.8111
G01 X29.2393 Y26.8311
G01 X29.3735 Y26.8434
G01 X29.2393 Y26.8311
G00 Z2.0000
G00 X35.9947 Y31.9055
G01 F60.00
G01 Z-0.0500
G01 F120.00
G01 X35.7845 Y31.9068
G01 X35.6385 Y31.7604
G01 X35.6447 Y29.3011
G01 X35.7913 Y29.1548
G01 X41.1423 Y29.1548
G01 X41.2717 Y29.2221
G01 X41.4376 Y29.2725
G01 X41.6102 Y29.2895
G01 X41.7829 Y29.2725
G01 X41.9603 Y29.2172
G01 X42.0919 Y29.1469
G01 X42.1721 Y29.0886
G01 X42.3027 Y28.9563
G01 X42.3858 Y28.8324
G01 X42.4292 Y28.7432
G01 X42.4620 Y28.6496
G01 X42.4914 Y28.5034
G01 X42.4934 Y28.3178
G01 X42.4561 Y28.1360
G01 X42.3994 Y27.9983
G01 X42.3560 Y27.9232
G01 X42.2979 Y27.8431
G01 X42.2309 Y27.7703
G01 X42.1159 Y27.6757
G01 X42.0315 Y27.6240
G01 X41.8596 Y27.5544
G01 X41.7135 Y27.5253
G01 X41.6146 Y27.5195
G01 X41.5157 Y27.5253
G01 X41.3576 Y27.5576
G01 X41.2645 Y27.5919
G01 X41.1460 Y27.6543
G01 X35.4782 Y27.6543
G01 X35.3500 Y27.6666
G01 X35.2664 Y27.6866
G01 X35.1858 Y27.7163
G01 X35.0776 Y27.7741
G01 X34.9577 Y27.8697
G01 X34.3164 Y28.5144
G01 X34.2658 Y28.5839
G01 X34.2078 Y28.6920
G01 X34.1778 Y28.7725
G01 X34.1576 Y28.8560
G01 X34.1449 Y28.9903
G01 X34.1373 Y32.0773
G01 X34.1492 Y32.2055
G01 X34.1690 Y32.2890
G01 X34.1986 Y32.3695
G01 X34.2561 Y32.4777
G01 X34.3514 Y32.5973
G01 X34.9444 Y33.1918
G01 X35.0435 Y33.2737
G01 X35.1165 Y33.3187
G01 X35.2523 Y33.3749
G01 X35.3965 Y33.4036
G01 X35.9342 Y33.4072
G01 X35.9333 Y33.8102
G01 X35.9438 Y33.8767
G01 X35.9684 Y33.9326
G01 X36.0060 Y33.9809
G01 X36.0541 Y34.0185
G01 X36.1100 Y34.0433
G01 X36.1826 Y34.0541
G01 X38.6887 Y34.0540
G01 X38.7433 Y34.0466
G01 X38.8005 Y34.0246
G01 X38.8506 Y33.9893
G01 X38.8907 Y33.9430
G01 X38.9222 Y33.8767
G01 X38.9331 Y33.8102
G01 X38.9375 Y32.0580
G01 X38.9302 Y32.0034
G01 X38.9083 Y31.9463
G01 X38.8732 Y31.8962
G01 X38.8269 Y31.8562
G01 X38.7607 Y31.8249
G01 X38.6943 Y31.8142
G01 X36.1820 Y31.8142
G01 X36.1274 Y31.8216
G01 X36.0812 Y31.8381
G01 X36.0294 Y31.8708
G01 X35.9947 Y31.9055
G00 Z2.0000
G00 X36.4675 Y31.8142
G01 F60.00
G01 Z-0.0500
G01 F120.00
G01 X36.1820 Y31.8142
G01 X36.1274 Y31.8216
G01 X36.0812 Y31.8381
G01 X36.0294 Y31.8708
G01 X35.9947 Y31.9055
G01 X35.6385 Y31.7604
G01 X35.7845 Y31.9068
G01 X35.9947 Y31.9055
G00 X35.9947 Y31.9055
G01 F60.00
G01 Z-0.1000
G01 F120.00
G01 X36.0294 Y31.8708
G01 X36.0812 Y31.8381
G01 X36.1274 Y31.8216
G01 X36.1820 Y31.8142
G01 X38.6943 Y31.8142
G01 X38.7607 Y31.8249
G01 X38.8269 Y31.8562
G01 X38.8732 Y31.8962
G01 X38.9083 Y31.9463
G01 X38.9302 Y32.0034
G01 X38.9375 Y32.0580
G01 X38.9331 Y33.8102
G01 X38.9222 Y33.8767
G01 X38.8907 Y33.9430
G01 X38.8506 Y33.9893
G01 X38.8005 Y34.0246
G01 X38.7433 Y34.0466
G01 X38.6887 Y34.0540
G01 X36.1826 Y34.0541
G01 X36.1100 Y34.0433
G01 X36.0541 Y34.0185
G01 X36.0060 Y33.9809
G01 X35.9684 Y33.9326
G01 X35.9438 Y33.8767
G01 X35.9333 Y33.8102
G01 X35.9342 Y33.4072
G01 X35.3965 Y33.4036
G01 X35.2523 Y33.3749
G01 X35.1165 Y33.3187
G01 X35.0435 Y33.2737
G01 X34.9444 Y33.1918
G01 X34.3514 Y32.5973
G01 X34.2561 Y32.4777
G01 X34.1986 Y32.3695
G01 X34.1690 Y32.2890
G01 X34.1492 Y32.2055
G01 X34.1373 Y32.0773
G01 X34.1449 Y28.9903
G01 X34.1576 Y28.8560
G01 X34.1778 Y28.7725
G01 X34.2078 Y28.6920
G01 X34.2658 Y28.5839
G01 X34.3164 Y28.5144
G01 X34.9577 Y27.8697
G01 X35.0776 Y27.7741
G01 X35.1858 Y27.7163
G01 X35.2664 Y27.6866
G01 X35.3500 Y27.6666
G01 X35.4782 Y27.6543
G01 X41.1460 Y27.6543
G01 X41.2645 Y27.5919
G01 X41.3576 Y27.5576
G01 X41.5157 Y27.5253
G01 X41.6146 Y27.5195
G01 X41.7135 Y27.5253
G01 X41.8596 Y27.5544
G01 X42.0315 Y27.6240
G01 X42.1159 Y27.6757
G01 X42.2309 Y27.7703
G01 X42.2979 Y27.8431
G01 X42.3560 Y27.9232
G01 X42.3994 Y27.9983
G01 X42.4561 Y28.1360
G01 X42.4934 Y28.3178
G01 X42.4914 Y28.5034
G01 X42.4620 Y28.6496
G01 X42.4292 Y28.7432
G01 X42.3858 Y28.8324
G01 X42.3027 Y28.9563
G01 X42.1721 Y29.0886
G01 X42.0919 Y29.1469
G01 X41.9603 Y29.2172
G01 X41.7829 Y29.2725
G01 X41.6102 Y29.2895
G01 X41.4376 Y29.2725
G01 X41.2717 Y29.2221
G01 X41.1423 Y29.1548
G01 X35.7913 Y29.1548
G01 X35.6447 Y29.3011
G01 X35.6385 Y31.7604
G01 X35.7845 Y31.9068
G01 X35.9947 Y31.9055
G00 Z2.0000
G00 X35.6387 Y31.6773
G01 F60.00
G01 Z-0.1000
G01 F120.00
G01 X35.6385 Y31.7604
G01 X35.7845 Y31.9068
G01 X35.9947 Y31.9055
G01 X36.1820 Y31.8142
G01 X36.1274 Y31.8216
G01 X36.0812 Y31.8381
G01 X36.0294 Y31.8708
G01 X35.9947 Y31.9055
G00 X35.9947 Y31.9055
G01 F60.00
G01 Z-0.1500
G01 F120.00
G01 X35.7845 Y31.9068
G01 X35.6385 Y31.7604
G01 X35.6447 Y29.3011
G01 X35.7913 Y29.1548
G01 X41.1423 Y29.1548
G01 X41.2717 Y29.2221
G01 X41.4376 Y29.2725
G01 X41.6102 Y29.2895
G01 X41.7829 Y29.2725
G01 X41.9603 Y29.2172
G01 X42.0919 Y29.1469
G01 X42.1721 Y29.0886
G01 X42.3027 Y28.9563
G01 X42.3858 Y28.8324
G01 X42.4292 Y28.7432
G01 X42.4620 Y28.6496
G01 X42.4914 Y28.5034
G01 X42.4934 Y28.3178
G01 X42.4561 Y28.1360
G01 X42.3994 Y27.9983
G01 X42.3560 Y27.9232
G01 X42.2979 Y27.8431
G01 X42.2309 Y27.7703
G01 X42.1159 Y27.6757
G01 X42.0315 Y27.6240
G01 X41.8596 Y27.5544
G01 X41.7135 Y27.5253
G01 X41.6146 Y27.5195
G01 X41.5157 Y27.5253
G01 X41.3576 Y27.5576
G01 X41.2645 Y27.5919
G01 X41.1460 Y27.6543
G01 X35.4782 Y27.6543
G01 X35.3500 Y27.6666
G01 X35.2664 Y27.6866
G01 X35.1858 Y27.7163
G01 X35.0776 Y27.7741
G01 X34.9577 Y27.8697
G01 X34.3164 Y28.5144
G01 X34.2658 Y28.5839
G01 X34.2078 Y28.6920
G01 X34.1778 Y28.7725
G01 X34.1576 Y28.8560
G01 X34.1449 Y28.9903
G01 X34.1373 Y32.0773
G01 X34.1492 Y32.2055
G01 X34.1690 Y32.2890
G01 X34.1986 Y32.3695
G01 X34.2561 Y32.4777
G01 X34.3514 Y32.5973
G01 X34.9444 Y33.1918
G01 X35.0435 Y33.2737
G01 X35.1165 Y33.3187
G01 X35.2523 Y33.3749
G01 X35.3965 Y33.4036
G01 X35.9342 Y33.4072
G01 X35.9333 Y33.8102
G01 X35.9438 Y33.8767
G01 X35.9684 Y33.9326
G01 X36.0060 Y33.9809
G01 X36.0541 Y34.0185
G01 X36.1100 Y34.0433
G01 X36.1826 Y34.0541
G01 X38.6887 Y34.0540
G01 X38.7433 Y34.0466
G01 X38.8005 Y34.0246
G01 X38.8506 Y33.9893
G01 X38.8907 Y33.9430
G01 X38.9222 Y33.8767
G01 X38.9331 Y33.8102
G01 X38.9375 Y32.0580
G01 X38.9302 Y32.0034
G01 X38.9083 Y31.9463
G01 X38.8732 Y31.8962
G01 X38.8269 Y31.8562
G01 X38.7607 Y31.8249
G01 X38.6943 Y31.8142
G01 X36.1820 Y31.8142
G01 X36.1274 Y31.8216
G01 X36.0812 Y31.8381
G01 X36.0294 Y31.8708
G01 X35.9947 Y31.9055
G00 Z2.0000
G00 X36.4675 Y31.8142
G01 F60.00
G01 Z-0.1500
G01 F120.00
G01 X36.1820 Y31.8142
G01 X36.1274 Y31.8216
G01 X36.0812 Y31.8381
G01 X36.0294 Y31.8708
G01 X35.9947 Y31.9055
G01 X35.6385 Y31.7604
G01 X35.7845 Y31.9068
G01 X35.9947 Y31.9055
G00 Z2.0000
G00 X37.1007 Y37.2279
G01 F60.00
G01 Z-0.0500
G01 F120.00
G01 X37.1190 Y37.1066
G01 X37.1252 Y36.9902
G01 X37.1265 Y36.4779
G01 X37.1208 Y36.3616
G01 X37.1052 Y36.2523
G01 X37.0736 Y36.1212
G01 X37.0326 Y36.0057
G01 X36.9804 Y35.8948
G01 X36.9176 Y35.7896
G01 X36.8523 Y35.7008
G01 X36.7537 Y35.5917
G01 X36.6719 Y35.5178
G01 X36.5632 Y35.4382
G01 X36.4685 Y35.3817
G01 X36.3578 Y35.3292
G01 X36.2424 Y35.2879
G01 X36.1234 Y35.2581
G01 X36.0021 Y35.2401
G01 X35.8796 Y35.2341
G01 X35.7571 Y35.2401
G01 X35.6357 Y35.2581
G01 X35.5166 Y35.2879
G01 X35.4010 Y35.3292
G01 X35.2900 Y35.3817
G01 X35.1847 Y35.4448
G01 X35.0859 Y35.5178
G01 X34.9948 Y35.6002
G01 X34.9122 Y35.6911
G01 X34.8323 Y35.8000
G01 X34.7756 Y35.8948
G01 X34.7279 Y35.9945
G01 X34.6851 Y36.1096
G01 X34.6512 Y36.2402
G01 X34.6344 Y36.3494
G01 X34.6265 Y36.4841
G01 X34.6253 Y36.9902
G01 X34.6310 Y37.1066
G01 X34.6466 Y37.2159
G01 X34.6782 Y37.3469
G01 X34.7192 Y37.4624
G01 X34.7714 Y37.5733
G01 X34.8342 Y37.6785
G01 X34.9070 Y37.7771
G01 X34.9892 Y37.8680
G01 X35.0799 Y37.9503
G01 X35.1886 Y38.0300
G01 X35.2942 Y38.0920
G01 X35.3941 Y38.1389
G01 X35.4978 Y38.1764
G01 X35.6284 Y38.2101
G01 X35.7497 Y38.2281
G01 X35.8722 Y38.2341
G01 X36.0069 Y38.2266
G01 X36.1161 Y38.2101
G01 X36.2233 Y38.1835
G01 X36.3508 Y38.1389
G01 X36.4618 Y38.0865
G01 X36.5772 Y38.0164
G01 X36.6659 Y37.9503
G01 X36.7481 Y37.8764
G01 X36.8396 Y37.7771
G01 X36.9129 Y37.6785
G01 X36.9818 Y37.5624
G01 X37.0289 Y37.4624
G01 X37.0667 Y37.3586
G01 X37.1007 Y37.2279
G00 Z2.0000
G00 X36.9075 Y37.6857
G01 F60.00
G01 Z-0.0500
G01 F120.00
G01 X36.9129 Y37.6785
G01 X36.9818 Y37.5624
G01 X37.0289 Y37.4624
G01 X37.0667 Y37.3586
G01 X37.1007 Y37.2279
G01 X37.1252 Y36.9902
G01 X37.1190 Y37.1066
G01 X37.1007 Y37.2279
G00 X37.1007 Y37.2279
G01 F60.00
G01 Z-0.1000
G01 F120.00
G01 X37.0667 Y37.3586
G01 X37.0289 Y37.4624
G01 X36.9818 Y37.5624
G01 X36.9129 Y37.6785
G01 X36.8396 Y37.7771
G01 X36.7481 Y37.8764
G01 X36.6659 Y37.9503
G01 X36.5772 Y38.0164
G01 X36.4618 Y38.0865
G01 X36.3508 Y38.1389
G01 X36.2233 Y38.1835
G01 X36.1161 Y38.2101
G01 X36.0069 Y38.2266
G01 X35.8722 Y38.2341
G01 X35.7497 Y38.2281
G01 X35.6284 Y38.2101
G01 X35.4978 Y38.1764
G01 X35.3941 Y38.1389
G01 X35.2942 Y38.0920
G01 X35.1886 Y38.0300
G01 X35.0799 Y37.9503
G01 X34.9892 Y37.8680
G01 X34.9070 Y37.7771
G01 X34.8342 Y37.6785
G01 X34.7714 Y37.5733
G01 X34.7192 Y37.4624
G01 X34.6782 Y37.3469
G01 X34.6466 Y37.2159
G01 X34.6310 Y37.1066
G01 X34.6253 Y36.9902
G01 X34.6265 Y36.4841
G01 X34.6344 Y36.3494
G01 X34.6512 Y36.2402
G01 X34.6851 Y36.1096
G01 X34.7279 Y35.9945
G01 X34.7756 Y35.8948
G01 X34.8323 Y35.8000
G01 X34.9122 Y35.6911
G01 X34.9948 Y35.6002
G01 X35.0859 Y35.5178
G01 X35.1847 Y35.4448
G01 X35.2900 Y35.3817
G01 X35.4010 Y35.3292
G01 X35.5166 Y35.2879
G01 X35.6357 Y35.2581
G01 X35.7571 Y35.2401
G01 X35.8796 Y35.2341
G01 X36.0021 Y35.2401
G01 X36.1234 Y35.2581
G01 X36.2424 Y35.2879
G01 X36.3578 Y35.3292
G01 X36.4685 Y35.3817
G01 X36.5632 Y35.4382
G01 X36.6719 Y35.5178
G01 X36.7537 Y35.5917
G01 X36.8523 Y35.7008
G01 X36.9176 Y35.7896
G01 X36.9804 Y35.8948
G01 X37.0326 Y36.0057
G01 X37.0736 Y36.1212
G01 X37.1052 Y36.2523
G01 X37.1208 Y36.3616
G01 X37.1265 Y36.4779
G01 X37.1252 Y36.9902
G01 X37.1190 Y37.1066
G01 X37.1007 Y37.2279
G00 Z2.0000
G00 X37.1258 Y36.7295
G01 F60.00
G01 Z-0.1000
G01 F120.00
G01 X37.1252 Y36.9902
G01 X37.1190 Y37.1066
G01 X37.1007 Y37.2279
G01 X36.9129 Y37.6785
G01 X36.9818 Y37.5624
G01 X37.0289 Y37.4624
G01 X37.0667 Y37.3586
G01 X37.1007 Y37.2279
G00 X37.1007 Y37.2279
G01 F60.00
G01 Z-0.1500
G01 F120.00
G01 X37.1190 Y37.1066
G01 X37.1252 Y36.9902
G01 X37.1265 Y36.4779
G01 X37.1208 Y36.3616
G01 X37.1052 Y36.2523
G01 X37.0736 Y36.1212
G01 X37.0326 Y36.0057
G01 X36.9804 Y35.8948
G01 X36.9176 Y35.7896
G01 X36.8523 Y35.7008
G01 X36.7537 Y35.5917
G01 X36.6719 Y35.5178
G01 X36.5632 Y35.4382
G01 X36.4685 Y35.3817
G01 X36.3578 Y35.3292
G01 X36.2424 Y35.2879
G01 X36.1234 Y35.2581
G01 X36.0021 Y35.2401
G01 X35.8796 Y35.2341
G01 X35.7571 Y35.2401
G01 X35.6357 Y35.2581
G01 X35.5166 Y35.2879
G01 X35.4010 Y35.3292
G01 X35.2900 Y35.3817
G01 X35.1847 Y35.4448
G01 X35.0859 Y35.5178
G01 X34.9948 Y35.6002
G01 X34.9122 Y35.6911
G01 X34.8323 Y35.8000
G01 X34.7756 Y35.8948
G01 X34.7279 Y35.9945
G01 X34.6851 Y36.1096
G01 X34.6512 Y36.2402
G01 X34.6344 Y36.3494
G01 X34.6265 Y36.4841
G01 X34.6253 Y36.9902
G01 X34.6310 Y37.1066
G01 X34.6466 Y37.2159
G01 X34.6782 Y37.3469
G01 X34.7192 Y37.4624
G01 X34.7714 Y37.5733
G01 X34.8342 Y37.6785
G01 X34.9070 Y37.7771
G01 X34.9892 Y37.8680
G01 X35.0799 Y37.9503
G01 X35.1886 Y38.0300
G01 X35.2942 Y38.0920
G01 X35.3941 Y38.1389
G01 X35.4978 Y38.1764
G01 X35.6284 Y38.2101
G01 X35.7497 Y38.2281
G01 X35.8722 Y38.2341
G01 X36.0069 Y38.2266
G01 X36.1161 Y38.2101
G01 X36.2233 Y38.1835
G01 X36.3508 Y38.1389
G01 X36.4618 Y38.0865
G01 X36.5772 Y38.0164
G01 X36.6659 Y37.9503
G01 X36.7481 Y37.8764
G01 X36.8396 Y37.7771
G01 X36.9129 Y37.6785
G01 X36.9818 Y37.5624
G01 X37.0289 Y37.4624
G01 X37.0667 Y37.3586
G01 X37.1007 Y37.2279
G00 Z2.0000
G00 X36.9075 Y37.6857
G01 F60.00
G01 Z-0.1500
G01 F120.00
G01 X36.9129 Y37.6785
G01 X36.9818 Y37.5624
G01 X37.0289 Y37.4624
G01 X37.0667 Y37.3586
G01 X37.1007 Y37.2279
G01 X37.1252 Y36.9902
G01 X37.1190 Y37.1066
G01 X37.1007 Y37.2279
G00 Z2.0000
G00 X39.6906 Y37.2279
G01 F60.00
G01 Z-0.0500
G01 F120.00
G01 X39.7089 Y37.1066
G01 X39.7152 Y36.9902
G01 X39.7165 Y36.4780
G01 X39.7108 Y36.3616
G01 X39.6952 Y36.2523
G01 X39.6636 Y36.1212
G01 X39.6226 Y36.0057
G01 X39.5704 Y35.8948
G01 X39.5076 Y35.7896
G01 X39.4423 Y35.7008
G01 X39.3437 Y35.5917
G01 X39.2619 Y35.5178
G01 X39.1532 Y35.4382
G01 X39.0585 Y35.3817
G01 X38.9477 Y35.3292
G01 X38.8323 Y35.2879
G01 X38.7134 Y35.2581
G01 X38.5921 Y35.2401
G01 X38.4696 Y35.2341
G01 X38.3471 Y35.2401
G01 X38.2257 Y35.2581
G01 X38.1066 Y35.2879
G01 X37.9910 Y35.3292
G01 X37.8800 Y35.3817
G01 X37.7746 Y35.4448
G01 X37.6759 Y35.5178
G01 X37.5848 Y35.6002
G01 X37.5022 Y35.6911
G01 X37.4223 Y35.8000
G01 X37.3656 Y35.8948
G01 X37.3084 Y36.0172
G01 X37.2712 Y36.1212
G01 X37.2439 Y36.2283
G01 X37.2244 Y36.3494
G01 X37.2165 Y36.4841
G01 X37.2153 Y36.9902
G01 X37.2210 Y37.1066
G01 X37.2366 Y37.2159
G01 X37.2682 Y37.3469
G01 X37.3092 Y37.4624
G01 X37.3614 Y37.5733
G01 X37.4242 Y37.6785
G01 X37.4970 Y37.7771
G01 X37.5792 Y37.8680
G01 X37.6699 Y37.9503
G01 X37.7786 Y38.0300
G01 X37.8842 Y38.0920
G01 X37.9840 Y38.1389
G01 X38.0878 Y38.1764
G01 X38.2184 Y38.2101
G01 X38.3397 Y38.2281
G01 X38.4622 Y38.2341
G01 X38.5969 Y38.2266
G01 X38.7061 Y38.2101
G01 X38.8133 Y38.1835
G01 X38.9408 Y38.1389
G01 X39.0625 Y38.0804
G01 X39.1571 Y38.0234
G01 X39.2462 Y37.9579
G01 X39.3470 Y37.8680
G01 X39.4296 Y37.7771
G01 X39.5095 Y37.6682
G01 X39.5662 Y37.5733
G01 X39.6139 Y37.4737
G01 X39.6605 Y37.3469
G01 X39.6906 Y37.2279
G00 Z2.0000
G00 X39.4969 Y37.6853
G01 F60.00
G01 Z-0.0500
G01 F120.00
G01 X39.5095 Y37.6682
G01 X39.5662 Y37.5733
G01 X39.6139 Y37.4737
G01 X39.6605 Y37.3469
G01 X39.6906 Y37.2279
G01 X39.7152 Y36.9902
G01 X39.7089 Y37.1066
G01 X39.6906 Y37.2279
G00 X39.6906 Y37.2279
G01 F60.00
G01 Z-0.1000
G01 F120.00
G01 X39.6605 Y37.3469
G01 X39.6139 Y37.4737
G01 X39.5662 Y37.5733
G01 X39.5095 Y37.6682
G01 X39.4296 Y37.7771
G01 X39.3470 Y37.8680
G01 X39.2462 Y37.9579
G01 X39.1571 Y38.0234
G01 X39.0625 Y38.0804
G01 X38.9408 Y38.1389
G01 X38.8133 Y38.1835
G01 X38.7061 Y38.2101
G01 X38.5969 Y38.2266
G01 X38.4622 Y38.2341
G01 X38.3397 Y38.2281
G01 X38.2184 Y38.2101
G01 X38.0878 Y38.1764
G01 X37.9840 Y38.1389
G01 X37.8842 Y38.0920
G01 X37.7786 Y38.0300
G01 X37.6699 Y37.9503
G01 X37.5792 Y37.8680
G01 X37.4970 Y37.7771
G01 X37.4242 Y37.6785
G01 X37.3614 Y37.5733
G01 X37.3092 Y37.4624
G01 X37.2682 Y37.3469
G01 X37.2366 Y37.2159
G01 X37.2210 Y37.1066
G01 X37.2153 Y36.9902
G01 X37.2165 Y36.4841
G01 X37.2244 Y36.3494
G01 X37.2439 Y36.2283
G01 X37.2712 Y36.1212
G01 X37.3084 Y36.0172
G01 X37.3656 Y35.8948
G01 X37.4223 Y35.8000
G01 X37.5022 Y35.6911
G01 X37.5848 Y35.6002
G01 X37.6759 Y35.5178
G01 X37.7746 Y35.4448
G01 X37.8800 Y35.3817
G01 X37.9910 Y35.3292
G01 X38.1066 Y35.2879
G01 X38.2257 Y35.2581
G01 X38.3471 Y35.2401
G01 X38.4696 Y35.2341
G01 X38.5921 Y35.2401
G01 X38.7134 Y35.2581
G01 X38.8323 Y35.2879
G01 X38.9477 Y35.3292
G01 X39.0585 Y35.3817
G01 X39.1532 Y35.4382
G01 X39.2619 Y35.5178
G01 X39.3437 Y35.5917
G01 X39.4423 Y35.7008
G01 X39.5076 Y35.7896
G01 X39.5704 Y35.8948
G01 X39.6226 Y36.0057
G01 X39.6636 Y36.1212
G01 X39.6952 Y36.2523
G01 X39.7108 Y36.3616
G01 X39.7165 Y36.4780
G01 X39.7152 Y36.9902
G01 X39.7089 Y37.1066
G01 X39.6906 Y37.2279
G00 Z2.0000
G00 X39.7158 Y36.7295
G01 F60.00
G01 Z-0.1000
G01 F120.00
G01 X39.7152 Y36.9902
G01 X39.7089 Y37.1066
G01 X39.6906 Y37.2279
G01 X39.5095 Y37.6682
G01 X39.5662 Y37.5733
G01 X39.6139 Y37.4737
G01 X39.6605 Y37.3469
G01 X39.6906 Y37.2279
G00 X39.6906 Y37.2279
G01 F60.00
G01 Z-0.1500
G01 F120.00
G01 X39.7089 Y37.1066
G01 X39.7152 Y36.9902
G01 X39.7165 Y36.4780
G01 X39.7108 Y36.3616
G01 X39.6952 Y36.2523
G01 X39.6636 Y36.1212
G01 X39.6226 Y36.0057
G01 X39.5704 Y35.8948
G01 X39.5076 Y35.7896
G01 X39.4423 Y35.7008
G01 X39.3437 Y35.5917
G01 X39.2619 Y35.5178
G01 X39.1532 Y35.4382
G01 X39.0585 Y35.3817
G01 X38.9477 Y35.3292
G01 X38.8323 Y35.2879
G01 X38.7134 Y35.2581
G01 X38.5921 Y35.2401
G01 X38.4696 Y35.2341
G01 X38.3471 Y35.2401
G01 X38.2257 Y35.2581
G01 X38.1066 Y35.2879
G01 X37.9910 Y35.3292
G01 X37.8800 Y35.3817
G01 X37.7746 Y35.4448
G01 X37.6759 Y35.5178
G01 X37.5848 Y35.6002
G01 X37.5022 Y35.6911
G01 X37.4223 Y35.8000
G01 X37.3656 Y35.8948
G01 X37.3084 Y36.0172
G01 X37.2712 Y36.1212
G01 X37.2439 Y36.2283
G01 X37.2244 Y36.3494
G01 X37.2165 Y36.4841
G01 X37.2153 Y36.9902
G01 X37.2210 Y37.1066
G01 X37.2366 Y37.2159
G01 X37.2682 Y37.3469
G01 X37.3092 Y37.4624
G01 X37.3614 Y37.5733
G01 X37.4242 Y37.6785
G01 X37.4970 Y37.7771
G01 X37.5792 Y37.8680
G01 X37.6699 Y37.9503
G01 X37.7786 Y38.0300
G01 X37.8842 Y38.0920
G01 X37.9840 Y38.1389
G01 X38.0878 Y38.1764
G01 X38.2184 Y38.2101
G01 X38.3397 Y38.2281
G01 X38.4622 Y38.2341
G01 X38.5969 Y38.2266
G01 X38.7061 Y38.2101
G01 X38.8133 Y38.1835
G01 X38.9408 Y38.1389
G01 X39.0625 Y38.0804
G01 X39.1571 Y38.0234
G01 X39.2462 Y37.9579
G01 X39.3470 Y37.8680
G01 X39.4296 Y37.7771
G01 X39.5095 Y37.6682
G01 X39.5662 Y37.5733
G01 X39.6139 Y37.4737
G01 X39.6605 Y37.3469
G01 X39.6906 Y37.2279
G00 Z2.0000
G00 X39.4969 Y37.6853
G01 F60.00
G01 Z-0.1500
G01 F120.00
G01 X39.5095 Y37.6682
G01 X39.5662 Y37.5733
G01 X39.6139 Y37.4737
G01 X39.6605 Y37.3469
G01 X39.6906 Y37.2279
G01 X39.7152 Y36.9902
G01 X39.7089 Y37.1066
G01 X39.6906 Y37.2279
G00 Z2.0000
G00 X42.2806 Y37.2279
G01 F60.00
G01 Z-0.0500
G01 F120.00
G01 X42.2989 Y37.1066
G01 X42.3052 Y36.9902
G01 X42.3064 Y36.4780
G01 X42.3008 Y36.3616
G01 X42.2852 Y36.2523
G01 X42.2536 Y36.1212
G01 X42.2125 Y36.0057
G01 X42.1604 Y35.8948
G01 X42.0976 Y35.7896
G01 X42.0323 Y35.7008
G01 X41.9337 Y35.5917
G01 X41.8519 Y35.5178
G01 X41.7432 Y35.4382
G01 X41.6485 Y35.3817
G01 X41.5377 Y35.3292
G01 X41.4223 Y35.2879
G01 X41.3034 Y35.2581
G01 X41.1821 Y35.2401
G01 X41.0596 Y35.2341
G01 X40.9371 Y35.2401
G01 X40.8157 Y35.2581
G01 X40.6966 Y35.2879
G01 X40.5810 Y35.3292
G01 X40.4700 Y35.3817
G01 X40.3646 Y35.4448
G01 X40.2659 Y35.5178
G01 X40.1748 Y35.6002
G01 X40.0922 Y35.6911
G01 X40.0123 Y35.8000
G01 X39.9500 Y35.9058
G01 X39.9029 Y36.0057
G01 X39.8651 Y36.1096
G01 X39.8311 Y36.2402
G01 X39.8144 Y36.3494
G01 X39.8065 Y36.4841
G01 X39.8053 Y36.9902
G01 X39.8110 Y37.1066
G01 X39.8266 Y37.2159
G01 X39.8582 Y37.3469
G01 X39.8992 Y37.4624
G01 X39.9514 Y37.5733
G01 X40.0142 Y37.6785
G01 X40.0870 Y37.7771
G01 X40.1692 Y37.8680
G01 X40.2599 Y37.9503
G01 X40.3686 Y38.0300
G01 X40.4742 Y38.0920
G01 X40.5740 Y38.1389
G01 X40.6778 Y38.1764
G01 X40.8084 Y38.2101
G01 X40.9296 Y38.2281
G01 X41.0522 Y38.2341
G01 X41.1869 Y38.2266
G01 X41.2961 Y38.2101
G01 X41.4033 Y38.1835
G01 X41.5307 Y38.1389
G01 X41.6525 Y38.0804
G01 X41.7471 Y38.0234
G01 X41.8362 Y37.9579
G01 X41.9369 Y37.8680
G01 X42.0196 Y37.7771
G01 X42.0995 Y37.6682
G01 X42.1562 Y37.5733
G01 X42.2039 Y37.4737
G01 X42.2505 Y37.3469
G01 X42.2806 Y37.2279
G00 Z2.0000
G00 X42.0869 Y37.6853
G01 F60.00
G01 Z-0.0500
G01 F120.00
G01 X42.0995 Y37.6682
G01 X42.1562 Y37.5733
G01 X42.2039 Y37.4737
G01 X42.2505 Y37.3469
G01 X42.2806 Y37.2279
G01 X42.3052 Y36.9902
G01 X42.2989 Y37.1066
G01 X42.2806 Y37.2279
G00 X42.2806 Y37.2279
G01 F60.00
G01 Z-0.1000
G01 F120.00
G01 X42.2505 Y37.3469
G01 X42.2039 Y37.4737
G01 X42.1562 Y37.5733
G01 X42.0995 Y37.6682
G01 X42.0196 Y37.7771
G01 X41.9369 Y37.8680
G01 X41.8362 Y37.9579
G01 X41.7471 Y38.0234
G01 X41.6525 Y38.0804
G01 X41.5307 Y38.1389
G01 X41.4033 Y38.1835
G01 X41.2961 Y38.2101
G01 X41.1869 Y38.2266
G01 X41.0522 Y38.2341
G01 X40.9296 Y38.2281
G01 X40.8084 Y38.2101
G01 X40.6778 Y38.1764
G01 X40.5740 Y38.1389
G01 X40.4742 Y38.0920
G01 X40.3686 Y38.0300
G01 X40.2599 Y37.9503
G01 X40.1692 Y37.8680
G01 X40.0870 Y37.7771
G01 X40.0142 Y37.6785
G01 X39.9514 Y37.5733
G01 X39.8992 Y37.4624
G01 X39.8582 Y37.3469
G01 X39.8266 Y37.2159
G01 X39.8110 Y37.1066
G01 X39.8053 Y36.9902
G01 X39.8065 Y36.4841
G01 X39.8144 Y36.3494
G01 X39.8311 Y36.2402
G01 X39.8651 Y36.1096
G01 X39.9029 Y36.0057
G01 X39.9500 Y35.9058
G01 X40.0123 Y35.8000
G01 X40.0922 Y35.6911
G01 X40.1748 Y35.6002
G01 X40.2659 Y35.5178
G01 X40.3646 Y35.4448
G01 X40.4700 Y35.3817
G01 X40.5810 Y35.3292
G01 X40.6966 Y35.2879
G01 X40.8157 Y35.2581
G01 X40.9371 Y35.2401
G01 X41.0596 Y35.2341
G01 X41.1821 Y35.2401
G01 X41.3034 Y35.2581
G01 X41.4223 Y35.2879
G01 X41.5377 Y35.3292
G01 X41.6485 Y35.3817
G01 X41.7432 Y35.4382
G01 X41.8519 Y35.5178
G01 X41.9337 Y35.5917
G01 X42.0323 Y35.7008
G01 X42.0976 Y35.7896
G01 X42.1604 Y35.8948
G01 X42.2125 Y36.0057
G01 X42.2536 Y36.1212
G01 X42.2852 Y36.2523
G01 X42.3008 Y36.3616
G01 X42.3064 Y36.4780
G01 X42.3052 Y36.9902
G01 X42.2989 Y37.1066
G01 X42.2806 Y37.2279
G00 Z2.0000
G00 X42.3058 Y36.7295
G01 F60.00
G01 Z-0.1000
G01 F120.00
G01 X42.3052 Y36.9902
G01 X42.2989 Y37.1066
G01 X42.2806 Y37.2279
G01 X42.0995 Y37.6682
G01 X42.1562 Y37.5733
G01 X42.2039 Y37.4737
G01 X42.2505 Y37.3469
G01 X42.2806 Y37.2279
G00 X42.2806 Y37.2279
G01 F60.00
G01 Z-0.1500
G01 F120.00
G01 X42.2989 Y37.1066
G01 X42.3052 Y36.9902
G01 X42.3064 Y36.4780
G01 X42.3008 Y36.3616
G01 X42.2852 Y36.2523
G01 X42.2536 Y36.1212
G01 X42.2125 Y36.0057
G01 X42.1604 Y35.8948
G01 X42.0976 Y35.7896
G01 X42.0323 Y35.7008
G01 X41.9337 Y35.5917
G01 X41.8519 Y35.5178
G01 X41.7432 Y35.4382
G01 X41.6485 Y35.3817
G01 X41.5377 Y35.3292
G01 X41.4223 Y35.2879
G01 X41.3034 Y35.2581
G01 X41.1821 Y35.2401
G01 X41.0596 Y35.2341
G01 X40.9371 Y35.2401
G01 X40.8157 Y35.2581
G01 X40.6966 Y35.2879
G01 X40.5810 Y35.3292
G01 X40.4700 Y35.3817
G01 X40.3646 Y35.4448
G01 X40.2659 Y35.5178
G01 X40.1748 Y35.6002
G01 X40.0922 Y35.6911
G01 X40.0123 Y35.8000
G01 X39.9500 Y35.9058
G01 X39.9029 Y36.0057
G01 X39.8651 Y36.1096
G01 X39.8311 Y36.2402
G01 X39.8144 Y36.3494
G01 X39.8065 Y36.4841
G01 X39.8053 Y36.9902
G01 X39.8110 Y37.1066
G01 X39.8266 Y37.2159
G01 X39.8582 Y37.3469
G01 X39.8992 Y37.4624
G01 X39.9514 Y37.5733
G01 X40.0142 Y37.6785
G01 X40.0870 Y37.7771
G01 X40.1692 Y37.8680
G01 X40.2599 Y37.9503
G01 X40.3686 Y38.0300
G01 X40.4742 Y38.0920
G01 X40.5740 Y38.1389
G01 X40.6778 Y38.1764
G01 X40.8084 Y38.2101
G01 X40.9296 Y38.2281
G01 X41.0522 Y38.2341
G01 X41.1869 Y38.2266
G01 X41.2961 Y38.2101
G01 X41.4033 Y38.1835
G01 X41.5307 Y38.1389
G01 X41.6525 Y38.0804
G01 X41.7471 Y38.0234
G01 X41.8362 Y37.9579
G01 X41.9369 Y37.8680
G01 X42.0196 Y37.7771
G01 X42.0995 Y37.6682
G01 X42.1562 Y37.5733
G01 X42.2039 Y37.4737
G01 X42.2505 Y37.3469
G01 X42.2806 Y37.2279
G00 Z2.0000
G00 X42.0869 Y37.6853
G01 F60.00
G01 Z-0.1500
G01 F120.00
G01 X42.0995 Y37.6682
G01 X42.1562 Y37.5733
G01 X42.2039 Y37.4737
G01 X42.2505 Y37.3469
G01 X42.2806 Y37.2279
G01 X42.3052 Y36.9902
G01 X42.2989 Y37.1066
G01 X42.2806 Y37.2279
G00 Z2.0000
G00 X44.8706 Y37.2279
G01 F60.00
G01 Z-0.0500
G01 F120.00
G01 X44.8889 Y37.1066
G01 X44.8952 Y36.9902
G01 X44.8964 Y36.4780
G01 X44.8908 Y36.3616
G01 X44.8752 Y36.2523
G01 X44.8436 Y36.1212
G01 X44.8025 Y36.0057
G01 X44.7504 Y35.8948
G01 X44.6876 Y35.7896
G01 X44.6223 Y35.7008
G01 X44.5326 Y35.6002
G01 X44.4512 Y35.5258
G01 X44.3332 Y35.4382
G01 X44.2385 Y35.3817
G01 X44.1277 Y35.3292
G01 X44.0123 Y35.2879
G01 X43.8934 Y35.2581
G01 X43.7721 Y35.2401
G01 X43.6496 Y35.2341
G01 X43.5271 Y35.2401
G01 X43.4057 Y35.2581
G01 X43.2866 Y35.2879
G01 X43.1710 Y35.3292
G01 X43.0600 Y35.3817
G01 X42.9546 Y35.4448
G01 X42.8559 Y35.5178
G01 X42.7648 Y35.6002
G01 X42.6822 Y35.6911
G01 X42.6023 Y35.8000
G01 X42.5400 Y35.9058
G01 X42.4928 Y36.0057
G01 X42.4551 Y36.1096
G01 X42.4211 Y36.2402
G01 X42.4044 Y36.3494
G01 X42.3965 Y36.4841
G01 X42.3953 Y36.9902
G01 X42.4010 Y37.1066
G01 X42.4166 Y37.2159
G01 X42.4482 Y37.3469
G01 X42.4892 Y37.4624
G01 X42.5414 Y37.5733
G01 X42.6042 Y37.6785
G01 X42.6770 Y37.7771
G01 X42.7592 Y37.8680
G01 X42.8499 Y37.9503
G01 X42.9586 Y38.0300
G01 X43.0642 Y38.0920
G01 X43.1640 Y38.1389
G01 X43.2678 Y38.1764
G01 X43.3983 Y38.2101
G01 X43.5196 Y38.2281
G01 X43.6421 Y38.2341
G01 X43.7769 Y38.2266
G01 X43.8861 Y38.2101
G01 X43.9933 Y38.1835
G01 X44.1207 Y38.1389
G01 X44.2424 Y38.0804
G01 X44.3371 Y38.0234
G01 X44.4261 Y37.9579
G01 X44.5269 Y37.8680
G01 X44.6095 Y37.7771
G01 X44.6895 Y37.6682
G01 X44.7462 Y37.5733
G01 X44.7939 Y37.4737
G01 X44.8405 Y37.3469
G01 X44.8706 Y37.2279
G00 Z2.0000
G00 X44.6769 Y37.6853
G01 F60.00
G01 Z-0.0500
G01 F120.00
G01 X44.6895 Y37.6682
G01 X44.7462 Y37.5733
G01 X44.7939 Y37.4737
G01 X44.8405 Y37.3469
G01 X44.8706 Y37.2279
G01 X44.8952 Y36.9902
G01 X44.8889 Y37.1066
G01 X44.8706 Y37.2279
G00 X44.8706 Y37.2279
G01 F60.00
G01 Z-0.1000
G01 F120.00
G01 X44.8405 Y37.3469
G01 X44.7939 Y37.4737
G01 X44.7462 Y37.5733
G01 X44.6895 Y37.6682
G01 X44.6095 Y37.7771
G01 X44.5269 Y37.8680
G01 X44.4261 Y37.9579
G01 X44.3371 Y38.0234
G01 X44.2424 Y38.0804
G01 X44.1207 Y38.1389
G01 X43.9933 Y38.1835
G01 X43.8861 Y38.2101
G01 X43.7769 Y38.2266
G01 X43.6421 Y38.2341
G01 X43.5196 Y38.2281
G01 X43.3983 Y38.2101
G01 X43.2678 Y38.1764
G01 X43.1640 Y38.1389
G01 X43.0642 Y38.0920
G01 X42.9586 Y38.0300
G01 X42.8499 Y37.9503
G01 X42.7592 Y37.8680
G01 X42.6770 Y37.7771
G01 X42.6042 Y37.6785
G01 X42.5414 Y37.5733
G01 X42.4892 Y37.4624
G01 X42.4482 Y37.3469
G01 X42.4166 Y37.2159
G01 X42.4010 Y37.1066
G01 X42.3953 Y36.9902
G01 X42.3965 Y36.4841
G01 X42.4044 Y36.3494
G01 X42.4211 Y36.2402
G01 X42.4551 Y36.1096
G01 X42.4928 Y36.0057
G01 X42.5400 Y35.9058
G01 X42.6023 Y35.8000
G01 X42.6822 Y35.6911
G01 X42.7648 Y35.6002
G01 X42.8559 Y35.5178
G01 X42.9546 Y35.4448
G01 X43.0600 Y35.3817
G01 X43.1710 Y35.3292
G01 X43.2866 Y35.2879
G01 X43.4057 Y35.2581
G01 X43.5271 Y35.2401
G01 X43.6496 Y35.2341
G01 X43.7721 Y35.2401
G01 X43.8934 Y35.2581
G01 X44.0123 Y35.2879
G01 X44.1277 Y35.3292
G01 X44.2385 Y35.3817
G01 X44.3332 Y35.4382
G01 X44.4512 Y35.5258
G01 X44.5326 Y35.6002
G01 X44.6223 Y35.7008
G01 X44.6876 Y35.7896
G01 X44.7504 Y35.8948
G01 X44.8025 Y36.0057
G01 X44.8436 Y36.1212
G01 X44.8752 Y36.2523
G01 X44.8908 Y36.3616
G01 X44.8964 Y36.4780
G01 X44.8952 Y36.9902
G01 X44.8889 Y37.1066
G01 X44.8706 Y37.2279
G00 Z2.0000
G00 X44.8958 Y36.7295
G01 F60.00
G01 Z-0.1000
G01 F120.00
G01 X44.8952 Y36.9902
G01 X44.8889 Y37.1066
G01 X44.8706 Y37.2279
G01 X44.6895 Y37.6682
G01 X44.7462 Y37.5733
G01 X44.7939 Y37.4737
G01 X44.8405 Y37.3469
G01 X44.8706 Y37.2279
G00 X44.8706 Y37.2279
G01 F60.00
G01 Z-0.1500
G01 F120.00
G01 X44.8889 Y37.1066
G01 X44.8952 Y36.9902
G01 X44.8964 Y36.4780
G01 X44.8908 Y36.3616
G01 X44.8752 Y36.2523
G01 X44.8436 Y36.1212
G01 X44.8025 Y36.0057
G01 X44.7504 Y35.8948
G01 X44.6876 Y35.7896
G01 X44.6223 Y35.7008
G01 X44.5326 Y35.6002
G01 X44.4512 Y35.5258
G01 X44.3332 Y35.4382
G01 X44.2385 Y35.3817
G01 X44.1277 Y35.3292
G01 X44.0123 Y35.2879
G01 X43.8934 Y35.2581
G01 X43.7721 Y35.2401
G01 X43.6496 Y35.2341
G01 X43.5271 Y35.2401
G01 X43.4057 Y35.2581
G01 X43.2866 Y35.2879
G01 X43.1710 Y35.3292
G01 X43.0600 Y35.3817
G01 X42.9546 Y35.4448
G01 X42.8559 Y35.5178
G01 X42.7648 Y35.6002
G01 X42.6822 Y35.6911
G01 X42.6023 Y35.8000
G01 X42.5400 Y35.9058
G01 X42.4928 Y36.0057
G01 X42.4551 Y36.1096
G01 X42.4211 Y36.2402
G01 X42.4044 Y36.3494
G01 X42.3965 Y36.4841
G01 X42.3953 Y36.9902
G01 X42.4010 Y37.1066
G01 X42.4166 Y37.2159
G01 X42.4482 Y37.3469
G01 X42.4892 Y37.4624
G01 X42.5414 Y37.5733
G01 X42.6042 Y37.6785
G01 X42.6770 Y37.7771
G01 X42.7592 Y37.8680
G01 X42.8499 Y37.9503
G01 X42.9586 Y38.0300
G01 X43.0642 Y38.0920
G01 X43.1640 Y38.1389
G01 X43.2678 Y38.1764
G01 X43.3983 Y38.2101
G01 X43.5196 Y38.2281
G01 X43.6421 Y38.2341
G01 X43.7769 Y38.2266
G01 X43.8861 Y38.2101
G01 X43.9933 Y38.1835
G01 X44.1207 Y38.1389
G01 X44.2424 Y38.0804
G01 X44.3371 Y38.0234
G01 X44.4261 Y37.9579
G01 X44.5269 Y37.8680
G01 X44.6095 Y37.7771
G01 X44.6895 Y37.6682
G01 X44.7462 Y37.5733
G01 X44.7939 Y37.4737
G01 X44.8405 Y37.3469
G01 X44.8706 Y37.2279
G00 Z2.0000
G00 X44.6769 Y37.6853
G01 F60.00
G01 Z-0.1500
G01 F120.00
G01 X44.6895 Y37.6682
G01 X44.7462 Y37.5733
G01 X44.7939 Y37.4737
G01 X44.8405 Y37.3469
G01 X44.8706 Y37.2279
G01 X44.8952 Y36.9902
G01 X44.8889 Y37.1066
G01 X44.8706 Y37.2279
G00 Z2.0000
G00 X47.4606 Y37.2279
G01 F60.00
G01 Z-0.0500
G01 F120.00
G01 X47.4789 Y37.1066
G01 X47.4852 Y36.9902
G01 X47.4865 Y36.4841
G01 X47.4808 Y36.3616
G01 X47.4631 Y36.2402
G01 X47.4336 Y36.1212
G01 X47.3925 Y36.0057
G01 X47.3404 Y35.8948
G01 X47.2841 Y35.8000
G01 X47.2047 Y35.6911
G01 X47.1310 Y35.6091
G01 X46.9892 Y35.4858
G01 X46.9903 Y35.0399
G01 X49.9618 Y32.0758
G01 X52.5022 Y32.0757
G01 X52.6424 Y32.0613
G01 X52.7833 Y32.0186
G01 X52.9132 Y31.9493
G01 X53.0227 Y31.8603
G01 X54.1164 Y30.7656
G01 X54.1751 Y30.6868
G01 X54.2381 Y30.5674
G01 X54.2664 Y30.4863
G01 X54.2922 Y30.3538
G01 X54.3101 Y24.5630
G01 X54.3053 Y24.4834
G01 X54.2816 Y24.3632
G01 X54.2225 Y24.2155
G01 X54.1777 Y24.1423
G01 X54.0960 Y24.0430
G01 X52.7445 Y22.6881
G01 X52.6354 Y22.5991
G01 X52.4945 Y22.5254
G01 X52.3653 Y22.4871
G01 X52.2251 Y22.4728
G01 X49.3614 Y22.4727
G01 X49.3616 Y21.2975
G01 X49.3404 Y21.2272
G01 X49.2914 Y21.1574
G01 X49.2216 Y21.1081
G01 X49.1393 Y21.0853
G01 X46.6087 Y21.0842
G01 X46.5306 Y21.0988
G01 X46.4561 Y21.1409
G01 X46.4213 Y21.1755
G01 X46.3885 Y21.2272
G01 X46.3718 Y21.2734
G01 X46.3643 Y21.3280
G01 X46.3592 Y23.3341
G01 X46.3780 Y23.4298
G01 X46.4080 Y23.4831
G01 X46.4501 Y23.5274
G01 X46.5018 Y23.5601
G01 X46.5598 Y23.5793
G01 X47.2012 Y23.5841
G01 X47.2417 Y23.6498
G01 X47.3192 Y23.7445
G01 X47.4411 Y23.8467
G01 X47.5821 Y23.9205
G01 X47.6993 Y23.9561
G01 X47.7841 Y23.9696
G01 X51.9044 Y23.9732
G01 X52.8089 Y24.8799
G01 X52.7962 Y29.9695
G01 X52.1890 Y30.5753
G01 X49.6425 Y30.5756
G01 X49.5205 Y30.5876
G01 X49.4369 Y30.6076
G01 X49.3563 Y30.6373
G01 X49.2480 Y30.6951
G01 X49.1237 Y30.7950
G01 X45.7117 Y34.1986
G01 X45.6252 Y34.3022
G01 X45.5801 Y34.3754
G01 X45.5440 Y34.4534
G01 X45.5081 Y34.5708
G01 X45.4944 Y34.6556
G01 X45.4887 Y35.4858
G01 X45.3637 Y35.5917
G01 X45.2802 Y35.6818
G01 X45.1989 Y35.7896
G01 X45.1416 Y35.8842
G01 X45.0828 Y36.0057
G01 X45.0412 Y36.1212
G01 X45.0111 Y36.2402
G01 X44.9944 Y36.3494
G01 X44.9865 Y36.4841
G01 X44.9853 Y36.9902
G01 X44.9910 Y37.1066
G01 X45.0066 Y37.2159
G01 X45.0382 Y37.3469
G01 X45.0792 Y37.4624
G01 X45.1314 Y37.5733
G01 X45.1876 Y37.6682
G01 X45.2750 Y37.7864
G01 X45.3492 Y37.8680
G01 X45.4399 Y37.9503
G01 X45.5382 Y38.0234
G01 X45.6326 Y38.0804
G01 X45.7540 Y38.1389
G01 X45.8812 Y38.1835
G01 X45.9883 Y38.2101
G01 X46.1096 Y38.2281
G01 X46.2444 Y38.2338
G01 X46.3547 Y38.2281
G01 X46.4761 Y38.2101
G01 X46.5951 Y38.1803
G01 X46.6993 Y38.1433
G01 X46.8218 Y38.0865
G01 X46.9271 Y38.0234
G01 X47.0161 Y37.9579
G01 X47.1169 Y37.8680
G01 X47.2071 Y37.7674
G01 X47.2729 Y37.6785
G01 X47.3362 Y37.5733
G01 X47.3933 Y37.4510
G01 X47.4305 Y37.3469
G01 X47.4606 Y37.2279
G00 Z2.0000
G00 X47.2675 Y37.6857
G01 F60.00
G01 Z-0.0500
G01 F120.00
G01 X47.2729 Y37.6785
G01 X47.3362 Y37.5733
G01 X47.3933 Y37.4510
G01 X47.4305 Y37.3469
G01 X47.4606 Y37.2279
G01 X47.4852 Y36.9902
G01 X47.4789 Y37.1066
G01 X47.4606 Y37.2279
G00 X47.4606 Y37.2279
G01 F60.00
G01 Z-0.1000
G01 F120.00
G01 X47.4305 Y37.3469
G01 X47.3933 Y37.4510
G01 X47.3362 Y37.5733
G01 X47.2729 Y37.6785
G01 X47.2071 Y37.7674
G01 X47.1169 Y37.8680
G01 X47.0161 Y37.9579
G01 X46.9271 Y38.0234
G01 X46.8218 Y38.0865
G01 X46.6993 Y38.1433
G01 X46.5951 Y38.1803
G01 X46.4761 Y38.2101
G01 X46.3547 Y38.2281
G01 X46.2444 Y38.2338
G01 X46.1096 Y38.2281
G01 X45.9883 Y38.2101
G01 X45.8812 Y38.1835
G01 X45.7540 Y38.1389
G01 X45.6326 Y38.0804
G01 X45.5382 Y38.0234
G01 X45.4399 Y37.9503
G01 X45.3492 Y37.8680
G01 X45.2750 Y37.7864
G01 X45.1876 Y37.6682
G01 X45.1314 Y37.5733
G01 X45.0792 Y37.4624
G01 X45.0382 Y37.3469
G01 X45.0066 Y37.2159
G01 X44.9910 Y37.1066
G01 X44.9853 Y36.9902
G01 X44.9865 Y36.4841
G01 X44.9944 Y36.3494
G01 X45.0111 Y36.2402
G01 X45.0412 Y36.1212
G01 X45.0828 Y36.0057
G01 X45.1416 Y35.8842
G01 X45.1989 Y35.7896
G01 X45.2802 Y35.6818
G01 X45.3637 Y35.5917
G01 X45.4887 Y35.4858
G01 X45.4944 Y34.6556
G01 X45.5081 Y34.5708
G01 X45.5440 Y34.4534
G01 X45.5801 Y34.3754
G01 X45.6252 Y34.3022
G01 X45.7117 Y34.1986
G01 X49.1237 Y30.7950
G01 X49.2480 Y30.6951
G01 X49.3563 Y30.6373
G01 X49.4369 Y30.6076
G01 X49.5205 Y30.5876
G01 X49.6425 Y30.5756
G01 X52.1890 Y30.5753
G01 X52.7962 Y29.9695
G01 X52.8089 Y24.8799
G01 X51.9044 Y23.9732
G01 X47.7841 Y23.9696
G01 X47.6993 Y23.9561
G01 X47.5821 Y23.9205
G01 X47.4411 Y23.8467
G01 X47.3192 Y23.7445
G01 X47.2417 Y23.6498
G01 X47.2012 Y23.5841
G01 X46.5598 Y23.5793
G01 X46.5018 Y23.5601
G01 X46.4501 Y23.5274
G01 X46.4080 Y23.4831
G01 X46.3780 Y23.4298
G01 X46.3592 Y23.3341
G01 X46.3643 Y21.3280
G01 X46.3718 Y21.2734
G01 X46.3885 Y21.2272
G01 X46.4213 Y21.1755
G01 X46.4561 Y21.1409
G01 X46.5306 Y21.0988
G01 X46.6087 Y21.0842
G01 X49.1393 Y21.0853
G01 X49.2216 Y21.1081
G01 X49.2914 Y21.1574
G01 X49.3404 Y21.2272
G01 X49.3616 Y21.2975
G01 X49.3614 Y22.4727
G01 X52.2251 Y22.4728
G01 X52.3653 Y22.4871
G01 X52.4945 Y22.5254
G01 X52.6354 Y22.5991
G01 X52.7445 Y22.6881
G01 X54.0960 Y24.0430
G01 X54.1777 Y24.1423
G01 X54.2225 Y24.2155
G01 X54.2816 Y24.3632
G01 X54.3053 Y24.4834
G01 X54.3101 Y24.5630
G01 X54.2922 Y30.3538
G01 X54.2664 Y30.4863
G01 X54.2381 Y30.5674
G01 X54.1751 Y30.6868
G01 X54.1164 Y30.7656
G01 X53.0227 Y31.8603
G01 X52.9132 Y31.9493
G01 X52.7833 Y32.0186
G01 X52.6424 Y32.0613
G01 X52.5022 Y32.0757
G01 X49.9618 Y32.0758
G01 X46.9903 Y35.0399
G01 X46.9892 Y35.4858
G01 X47.1310 Y35.6091
G01 X47.2047 Y35.6911
G01 X47.2841 Y35.8000
G01 X47.3404 Y35.8948
G01 X47.3925 Y36.0057
G01 X47.4336 Y36.1212
G01 X47.4631 Y36.2402
G01 X47.4808 Y36.3616
G01 X47.4865 Y36.4841
G01 X47.4852 Y36.9902
G01 X47.4789 Y37.1066
G01 X47.4606 Y37.2279
G00 Z2.0000
G00 X47.4858 Y36.7295
G01 F60.00
G01 Z-0.1000
G01 F120.00
G01 X47.4852 Y36.9902
G01 X47.4789 Y37.1066
G01 X47.4606 Y37.2279
G01 X47.2729 Y37.6785
G01 X47.3362 Y37.5733
G01 X47.3933 Y37.4510
G01 X47.4305 Y37.3469
G01 X47.4606 Y37.2279
G00 X47.4606 Y37.2279
G01 F60.00
G01 Z-0.1500
G01 F120.00
G01 X47.4789 Y37.1066
G01 X47.4852 Y36.9902
G01 X47.4865 Y36.4841
G01 X47.4808 Y36.3616
G01 X47.4631 Y36.2402
G01 X47.4336 Y36.1212
G01 X47.3925 Y36.0057
G01 X47.3404 Y35.8948
G01 X47.2841 Y35.8000
G01 X47.2047 Y35.6911
G01 X47.1310 Y35.6091
G01 X46.9892 Y35.4858
G01 X46.9903 Y35.0399
G01 X49.9618 Y32.0758
G01 X52.5022 Y32.0757
G01 X52.6424 Y32.0613
G01 X52.7833 Y32.0186
G01 X52.9132 Y31.9493
G01 X53.0227 Y31.8603
G01 X54.1164 Y30.7656
G01 X54.1751 Y30.6868
G01 X54.2381 Y30.5674
G01 X54.2664 Y30.4863
G01 X54.2922 Y30.3538
G01 X54.3101 Y24.5630
G01 X54.3053 Y24.4834
G01 X54.2816 Y24.3632
G01 X54.2225 Y24.2155
G01 X54.1777 Y24.1423
G01 X54.0960 Y24.0430
G01 X52.7445 Y22.6881
G01 X52.6354 Y22.5991
G01 X52.4945 Y22.5254
G01 X52.3653 Y22.4871
G01 X52.2251 Y22.4728
G01 X49.3614 Y22.4727
G01 X49.3616 Y21.2975
G01 X49.3404 Y21.2272
G01 X49.2914 Y21.1574
G01 X49.2216 Y21.1081
G01 X49.1393 Y21.0853
G01 X46.6087 Y21.0842
G01 X46.5306 Y21.0988
G01 X46.4561 Y21.1409
G01 X46.4213 Y21.1755
G01 X46.3885 Y21.2272
G01 X46.3718 Y21.2734
G01 X46.3643 Y21.3280
G01 X46.3592 Y23.3341
G01 X46.3780 Y23.4298
G01 X46.4080 Y23.4831
G01 X46.4501 Y23.5274
G01 X46.5018 Y23.5601
G01 X46.5598 Y23.5793
G01 X47.2012 Y23.5841
G01 X47.2417 Y23.6498
G01 X47.3192 Y23.7445
G01 X47.4411 Y23.8467
G01 X47.5821 Y23.9205
G01 X47.6993 Y23.9561
G01 X47.7841 Y23.9696
G01 X51.9044 Y23.9732
G01 X52.8089 Y24.8799
G01 X52.7962 Y29.9695
G01 X52.1890 Y30.5753
G01 X49.6425 Y30.5756
G01 X49.5205 Y30.5876
G01 X49.4369 Y30.6076
G01 X49.3563 Y30.6373
G01 X49.2480 Y30.6951
G01 X49.1237 Y30.7950
G01 X45.7117 Y34.1986
G01 X45.6252 Y34.3022
G01 X45.5801 Y34.3754
G01 X45.5440 Y34.4534
G01 X45.5081 Y34.5708
G01 X45.4944 Y34.6556
G01 X45.4887 Y35.4858
G01 X45.3637 Y35.5917
G01 X45.2802 Y35.6818
G01 X45.1989 Y35.7896
G01 X45.1416 Y35.8842
G01 X45.0828 Y36.0057
G01 X45.0412 Y36.1212
G01 X45.0111 Y36.2402
G01 X44.9944 Y36.3494
G01 X44.9865 Y36.4841
G01 X44.9853 Y36.9902
G01 X44.9910 Y37.1066
G01 X45.0066 Y37.2159
G01 X45.0382 Y37.3469
G01 X45.0792 Y37.4624
G01 X45.1314 Y37.5733
G01 X45.1876 Y37.6682
G01 X45.2750 Y37.7864
G01 X45.3492 Y37.8680
G01 X45.4399 Y37.9503
G01 X45.5382 Y38.0234
G01 X45.6326 Y38.0804
G01 X45.7540 Y38.1389
G01 X45.8812 Y38.1835
G01 X45.9883 Y38.2101
G01 X46.1096 Y38.2281
G01 X46.2444 Y38.2338
G01 X46.3547 Y38.2281
G01 X46.4761 Y38.2101
G01 X46.5951 Y38.1803
G01 X46.6993 Y38.1433
G01 X46.8218 Y38.0865
G01 X46.9271 Y38.0234
G01 X47.0161 Y37.9579
G01 X47.1169 Y37.8680
G01 X47.2071 Y37.7674
G01 X47.2729 Y37.6785
G01 X47.3362 Y37.5733
G01 X47.3933 Y37.4510
G01 X47.4305 Y37.3469
G01 X47.4606 Y37.2279
G00 Z2.0000
G00 X47.2675 Y37.6857
G01 F60.00
G01 Z-0.1500
G01 F120.00
G01 X47.2729 Y37.6785
G01 X47.3362 Y37.5733
G01 X47.3933 Y37.4510
G01 X47.4305 Y37.3469
G01 X47.4606 Y37.2279
G01 X47.4852 Y36.9902
G01 X47.4789 Y37.1066
G01 X47.4606 Y37.2279
G00 Z2.0000
G00 X50.0506 Y37.2279
G01 F60.00
G01 Z-0.0500
G01 F120.00
G01 X50.0689 Y37.1066
G01 X50.0751 Y36.9902
G01 X50.0764 Y36.4780
G01 X50.0708 Y36.3616
G01 X50.0551 Y36.2523
G01 X50.0236 Y36.1212
G01 X49.9825 Y36.0057
G01 X49.9303 Y35.8948
G01 X49.8675 Y35.7896
G01 X49.8022 Y35.7008
G01 X49.7037 Y35.5917
G01 X49.6219 Y35.5178
G01 X49.5132 Y35.4382
G01 X49.4185 Y35.3817
G01 X49.3077 Y35.3292
G01 X49.1923 Y35.2879
G01 X49.0734 Y35.2581
G01 X48.9521 Y35.2401
G01 X48.8296 Y35.2341
G01 X48.7071 Y35.2401
G01 X48.5857 Y35.2581
G01 X48.4666 Y35.2879
G01 X48.3510 Y35.3292
G01 X48.2400 Y35.3817
G01 X48.1346 Y35.4448
G01 X48.0359 Y35.5178
G01 X47.9448 Y35.6002
G01 X47.8622 Y35.6911
G01 X47.7823 Y35.8000
G01 X47.7200 Y35.9058
G01 X47.6728 Y36.0057
G01 X47.6351 Y36.1096
G01 X47.6011 Y36.2402
G01 X47.5843 Y36.3494
G01 X47.5765 Y36.4841
G01 X47.5753 Y36.9902
G01 X47.5810 Y37.1066
G01 X47.5966 Y37.2159
G01 X47.6282 Y37.3469
G01 X47.6692 Y37.4624
G01 X47.7214 Y37.5733
G01 X47.7842 Y37.6785
G01 X47.8570 Y37.7771
G01 X47.9392 Y37.8680
G01 X48.0298 Y37.9503
G01 X48.1385 Y38.0300
G01 X48.2442 Y38.0920
G01 X48.3440 Y38.1389
G01 X48.4478 Y38.1764
G01 X48.5783 Y38.2101
G01 X48.6996 Y38.2281
G01 X48.8221 Y38.2341
G01 X48.9568 Y38.2266
G01 X49.0661 Y38.2101
G01 X49.1733 Y38.1835
G01 X49.3007 Y38.1389
G01 X49.4224 Y38.0804
G01 X49.5171 Y38.0234
G01 X49.6061 Y37.9579
G01 X49.7069 Y37.8680
G01 X49.7895 Y37.7771
G01 X49.8694 Y37.6682
G01 X49.9262 Y37.5733
G01 X49.9739 Y37.4737
G01 X50.0205 Y37.3469
G01 X50.0506 Y37.2279
G00 Z2.0000
G00 X49.8569 Y37.6853
G01 F60.00
G01 Z-0.0500
G01 F120.00
G01 X49.8694 Y37.6682
G01 X49.9262 Y37.5733
G01 X49.9739 Y37.4737
G01 X50.0205 Y37.3469
G01 X50.0506 Y37.2279
G01 X50.0751 Y36.9902
G01 X50.0689 Y37.1066
G01 X50.0506 Y37.2279
G00 X50.0506 Y37.2279
G01 F60.00
G01 Z-0.1000
G01 F120.00
G01 X50.0205 Y37.3469
G01 X49.9739 Y37.4737
G01 X49.9262 Y37.5733
G01 X49.8694 Y37.6682
G01 X49.7895 Y37.7771
G01 X49.7069 Y37.8680
G01 X49.6061 Y37.9579
G01 X49.5171 Y38.0234
G01 X49.4224 Y38.0804
G01 X49.3007 Y38.1389
G01 X49.1733 Y38.1835
G01 X49.0661 Y38.2101
G01 X48.9568 Y38.2266
G01 X48.8221 Y38.2341
G01 X48.6996 Y38.2281
G01 X48.5783 Y38.2101
G01 X48.4478 Y38.1764
G01 X48.3440 Y38.1389
G01 X48.2442 Y38.0920
G01 X48.1385 Y38.0300
G01 X48.0298 Y37.9503
G01 X47.9392 Y37.8680
G01 X47.8570 Y37.7771
G01 X47.7842 Y37.6785
G01 X47.7214 Y37.5733
G01 X47.6692 Y37.4624
G01 X47.6282 Y37.3469
G01 X47.5966 Y37.2159
G01 X47.5810 Y37.1066
G01 X47.5753 Y36.9902
G01 X47.5765 Y36.4841
G01 X47.5843 Y36.3494
G01 X47.6011 Y36.2402
G01 X47.6351 Y36.1096
G01 X47.6728 Y36.0057
G01 X47.7200 Y35.9058
G01 X47.7823 Y35.8000
G01 X47.8622 Y35.6911
G01 X47.9448 Y35.6002
G01 X48.0359 Y35.5178
G01 X48.1346 Y35.4448
G01 X48.2400 Y35.3817
G01 X48.3510 Y35.3292
G01 X48.4666 Y35.2879
G01 X48.5857 Y35.2581
G01 X48.7071 Y35.2401
G01 X48.8296 Y35.2341
G01 X48.9521 Y35.2401
G01 X49.0734 Y35.2581
G01 X49.1923 Y35.2879
G01 X49.3077 Y35.3292
G01 X49.4185 Y35.3817
G01 X49.5132 Y35.4382
G01 X49.6219 Y35.5178
G01 X49.7037 Y35.5917
G01 X49.8022 Y35.7008
G01 X49.8675 Y35.7896
G01 X49.9303 Y35.8948
G01 X49.9825 Y36.0057
G01 X50.0236 Y36.1212
G01 X50.0551 Y36.2523
G01 X50.0708 Y36.3616
G01 X50.0764 Y36.4780
G01 X50.0751 Y36.9902
G01 X50.0689 Y37.1066
G01 X50.0506 Y37.2279
G00 Z2.0000
G00 X50.0758 Y36.7295
G01 F60.00
G01 Z-0.1000
G01 F120.00
G01 X50.0751 Y36.9902
G01 X50.0689 Y37.1066
G01 X50.0506 Y37.2279
G01 X49.8694 Y37.6682
G01 X49.9262 Y37.5733
G01 X49.9739 Y37.4737
G01 X50.0205 Y37.3469
G01 X50.0506 Y37.2279
G00 X50.0506 Y37.2279
G01 F60.00
G01 Z-0.1500
G01 F120.00
G01 X50.0689 Y37.1066
G01 X50.0751 Y36.9902
G01 X50.0764 Y36.4780
G01 X50.0708 Y36.3616
G01 X50.0551 Y36.2523
G01 X50.0236 Y36.1212
G01 X49.9825 Y36.0057
G01 X49.9303 Y35.8948
G01 X49.8675 Y35.7896
G01 X49.8022 Y35.7008
G01 X49.7037 Y35.5917
G01 X49.6219 Y35.5178
G01 X49.5132 Y35.4382
G01 X49.4185 Y35.3817
G01 X49.3077 Y35.3292
G01 X49.1923 Y35.2879
G01 X49.0734 Y35.2581
G01 X48.9521 Y35.2401
G01 X48.8296 Y35.2341
G01 X48.7071 Y35.2401
G01 X48.5857 Y35.2581
G01 X48.4666 Y35.2879
G01 X48.3510 Y35.3292
G01 X48.2400 Y35.3817
G01 X48.1346 Y35.4448
G01 X48.0359 Y35.5178
G01 X47.9448 Y35.6002
G01 X47.8622 Y35.6911
G01 X47.7823 Y35.8000
G01 X47.7200 Y35.9058
G01 X47.6728 Y36.0057
G01 X47.6351 Y36.1096
G01 X47.6011 Y36.2402
G01 X47.5843 Y36.3494
G01 X47.5765 Y36.4841
G01 X47.5753 Y36.9902
G01 X47.5810 Y37.1066
G01 X47.5966 Y37.2159
G01 X47.6282 Y37.3469
G01 X47.6692 Y37.4624
G01 X47.7214 Y37.5733
G01 X47.7842 Y37.6785
G01 X47.8570 Y37.7771
G01 X47.9392 Y37.8680
G01 X48.0298 Y37.9503
G01 X48.1385 Y38.0300
G01 X48.2442 Y38.0920
G01 X48.3440 Y38.1389
G01 X48.4478 Y38.1764
G01 X48.5783 Y38.2101
G01 X48.6996 Y38.2281
G01 X48.8221 Y38.2341
G01 X48.9568 Y38.2266
G01 X49.0661 Y38.2101
G01 X49.1733 Y38.1835
G01 X49.3007 Y38.1389
G01 X49.4224 Y38.0804
G01 X49.5171 Y38.0234
G01 X49.6061 Y37.9579
G01 X49.7069 Y37.8680
G01 X49.7895 Y37.7771
G01 X49.8694 Y37.6682
G01 X49.9262 Y37.5733
G01 X49.9739 Y37.4737
G01 X50.0205 Y37.3469
G01 X50.0506 Y37.2279
G00 Z2.0000
G00 X49.8569 Y37.6853
G01 F60.00
G01 Z-0.1500
G01 F120.00
G01 X49.8694 Y37.6682
G01 X49.9262 Y37.5733
G01 X49.9739 Y37.4737
G01 X50.0205 Y37.3469
G01 X50.0506 Y37.2279
G01 X50.0751 Y36.9902
G01 X50.0689 Y37.1066
G01 X50.0506 Y37.2279
G00 Z2.0000
G00 X52.6406 Y37.2279
G01 F60.00
G01 Z-0.0500
G01 F120.00
G01 X52.6589 Y37.1066
G01 X52.6651 Y36.9902
G01 X52.6664 Y36.4780
G01 X52.6608 Y36.3616
G01 X52.6451 Y36.2523
G01 X52.6136 Y36.1212
G01 X52.5725 Y36.0057
G01 X52.5203 Y35.8948
G01 X52.4575 Y35.7896
G01 X52.3922 Y35.7008
G01 X52.3026 Y35.6002
G01 X52.2211 Y35.5258
G01 X52.1032 Y35.4382
G01 X52.0085 Y35.3817
G01 X51.8977 Y35.3292
G01 X51.7823 Y35.2879
G01 X51.6634 Y35.2581
G01 X51.5421 Y35.2401
G01 X51.4196 Y35.2341
G01 X51.2970 Y35.2401
G01 X51.1757 Y35.2581
G01 X51.0566 Y35.2879
G01 X50.9410 Y35.3292
G01 X50.8300 Y35.3817
G01 X50.7246 Y35.4448
G01 X50.6259 Y35.5178
G01 X50.5348 Y35.6002
G01 X50.4522 Y35.6911
G01 X50.3723 Y35.8000
G01 X50.3100 Y35.9058
G01 X50.2628 Y36.0057
G01 X50.2251 Y36.1096
G01 X50.1911 Y36.2402
G01 X50.1743 Y36.3494
G01 X50.1665 Y36.4841
G01 X50.1653 Y36.9902
G01 X50.1710 Y37.1066
G01 X50.1866 Y37.2159
G01 X50.2182 Y37.3469
G01 X50.2592 Y37.4624
G01 X50.3114 Y37.5733
G01 X50.3742 Y37.6785
G01 X50.4470 Y37.7771
G01 X50.5292 Y37.8680
G01 X50.6198 Y37.9503
G01 X50.7285 Y38.0300
G01 X50.8342 Y38.0920
G01 X50.9340 Y38.1389
G01 X51.0378 Y38.1764
G01 X51.1683 Y38.2101
G01 X51.2896 Y38.2281
G01 X51.4121 Y38.2341
G01 X51.5468 Y38.2266
G01 X51.6560 Y38.2101
G01 X51.7633 Y38.1835
G01 X51.8907 Y38.1389
G01 X52.0124 Y38.0804
G01 X52.1071 Y38.0234
G01 X52.1961 Y37.9579
G01 X52.2969 Y37.8680
G01 X52.3795 Y37.7771
G01 X52.4594 Y37.6682
G01 X52.5162 Y37.5733
G01 X52.5639 Y37.4737
G01 X52.6105 Y37.3469
G01 X52.6406 Y37.2279
G00 Z2.0000
G00 X52.4469 Y37.6853
G01 F60.00
G01 Z-0.0500
G01 F120.00
G01 X52.4594 Y37.6682
G01 X52.5162 Y37.5733
G01 X52.5639 Y37.4737
G01 X52.6105 Y37.3469
G01 X52.6406 Y37.2279
G01 X52.6651 Y36.9902
G01 X52.6589 Y37.1066
G01 X52.6406 Y37.2279
G00 X52.6406 Y37.2279
G01 F60.00
G01 Z-0.1000
G01 F120.00
G01 X52.6105 Y37.3469
G01 X52.5639 Y37.4737
G01 X52.5162 Y37.5733
G01 X52.4594 Y37.6682
G01 X52.3795 Y37.7771
G01 X52.2969 Y37.8680
G01 X52.1961 Y37.9579
G01 X52.1071 Y38.0234
G01 X52.0124 Y38.0804
G01 X51.8907 Y38.1389
G01 X51.7633 Y38.1835
G01 X51.6560 Y38.2101
G01 X51.5468 Y38.2266
G01 X51.4121 Y38.2341
G01 X51.2896 Y38.2281
G01 X51.1683 Y38.2101
G01 X51.0378 Y38.1764
G01 X50.9340 Y38.1389
G01 X50.8342 Y38.0920
G01 X50.7285 Y38.0300
G01 X50.6198 Y37.9503
G01 X50.5292 Y37.8680
G01 X50.4470 Y37.7771
G01 X50.3742 Y37.6785
G01 X50.3114 Y37.5733
G01 X50.2592 Y37.4624
G01 X50.2182 Y37.3469
G01 X50.1866 Y37.2159
G01 X50.1710 Y37.1066
G01 X50.1653 Y36.9902
G01 X50.1665 Y36.4841
G01 X50.1743 Y36.3494
G01 X50.1911 Y36.2402
G01 X50.2251 Y36.1096
G01 X50.2628 Y36.0057
G01 X50.3100 Y35.9058
G01 X50.3723 Y35.8000
G01 X50.4522 Y35.6911
G01 X50.5348 Y35.6002
G01 X50.6259 Y35.5178
G01 X50.7246 Y35.4448
G01 X50.8300 Y35.3817
G01 X50.9410 Y35.3292
G01 X51.0566 Y35.2879
G01 X51.1757 Y35.2581
G01 X51.2970 Y35.2401
G01 X51.4196 Y35.2341
G01 X51.5421 Y35.2401
G01 X51.6634 Y35.2581
G01 X51.7823 Y35.2879
G01 X51.8977 Y35.3292
G01 X52.0085 Y35.3817
G01 X52.1032 Y35.4382
G01 X52.2211 Y35.5258
G01 X52.3026 Y35.6002
G01 X52.3922 Y35.7008
G01 X52.4575 Y35.7896
G01 X52.5203 Y35.8948
G01 X52.5725 Y36.0057
G01 X52.6136 Y36.1212
G01 X52.6451 Y36.2523
G01 X52.6608 Y36.3616
G01 X52.6664 Y36.4780
G01 X52.6651 Y36.9902
G01 X52.6589 Y37.1066
G01 X52.6406 Y37.2279
G00 Z2.0000
G00 X52.6658 Y36.7295
G01 F60.00
G01 Z-0.1000
G01 F120.00
G01 X52.6651 Y36.9902
G01 X52.6589 Y37.1066
G01 X52.6406 Y37.2279
G01 X52.4594 Y37.6682
G01 X52.5162 Y37.5733
G01 X52.5639 Y37.4737
G01 X52.6105 Y37.3469
G01 X52.6406 Y37.2279
G00 X52.6406 Y37.2279
G01 F60.00
G01 Z-0.1500
G01 F120.00
G01 X52.6589 Y37.1066
G01 X52.6651 Y36.9902
G01 X52.6664 Y36.4780
G01 X52.6608 Y36.3616
G01 X52.6451 Y36.2523
G01 X52.6136 Y36.1212
G01 X52.5725 Y36.0057
G01 X52.5203 Y35.8948
G01 X52.4575 Y35.7896
G01 X52.3922 Y35.7008
G01 X52.3026 Y35.6002
G01 X52.2211 Y35.5258
G01 X52.1032 Y35.4382
G01 X52.0085 Y35.3817
