(G-code generated by FlatCAM Evo vUnstable - Version Date: 2023/6/31)

(Name: PCB1_VSSS_Profile.gbr_cutout_cnc)
(Type: G-code from Geometry)
(Units: MM)

(Created on Friday, 30 August 2024 at 19:51)

(This preprocessor is the default preprocessor.)
(It is made to work with MACH3 compatible motion controllers.)

(TOOL DIAMETER: 1.3 mm)
(Feedrate_XY: 120.0 mm/min)
(Feedrate_Z: 60.0 mm/min)
(Feedrate rapids 1500.0 mm/min)

(Z_Cut: -2.4 mm)
(DepthPerCut: 0.2 mm <=>12 passes)
(Z_Move: 2.0 mm)
(Z Start: None mm)
(Z End: 15.0 mm)
(X,Y End: 0.0000, 0.0000 mm)
(Steps per circle: 16)
(Preprocessor Geometry: default)

(X range:   19.3390 ...   75.7763  mm)
(Y range:    0.7965 ...   47.1218  mm)

(Spindle Speed: 3000.0 RPM)
G21
G90
G94

G01 F120.00

M5
G00 Z15.0000
G00 X0.0000 Y0.0000
T1
M6    
(MSG, Change to Tool Dia = 1.3000)
M0
G00 Z15.0000

M03 S3000.0
G01 F120.00
G00 X19.4016 Y21.3091
G01 F60.00
G01 Z-0.2000
G01 F120.00
G01 X19.4511 Y1.4465
G01 X19.4639 Y1.3197
G01 X19.5012 Y1.1977
G01 X19.5615 Y1.0854
G01 X19.6426 Y0.9869
G01 X19.6900 Y0.9440
G01 X19.7961 Y0.8732
G01 X19.9139 Y0.8245
G01 X20.0390 Y0.7996
G01 X20.1027 Y0.7965
G01 X44.9653 Y0.7965
G00 X44.9653 Y0.7965
G01 F60.00
G01 Z-0.4000
G01 F120.00
G01 X20.1027 Y0.7965
G01 X20.0390 Y0.7996
G01 X19.9139 Y0.8245
G01 X19.7961 Y0.8732
G01 X19.6900 Y0.9440
G01 X19.6426 Y0.9869
G01 X19.5615 Y1.0854
G01 X19.5012 Y1.1977
G01 X19.4639 Y1.3197
G01 X19.4511 Y1.4465
G01 X19.4016 Y21.3091
G00 X19.4016 Y21.3091
G01 F60.00
G01 Z-0.6000
G01 F120.00
G01 X19.4511 Y1.4465
G01 X19.4639 Y1.3197
G01 X19.5012 Y1.1977
G01 X19.5615 Y1.0854
G01 X19.6426 Y0.9869
G01 X19.6900 Y0.9440
G01 X19.7961 Y0.8732
G01 X19.9139 Y0.8245
G01 X20.0390 Y0.7996
G01 X20.1027 Y0.7965
G01 X44.9653 Y0.7965
G00 X44.9653 Y0.7965
G01 F60.00
G01 Z-0.8000
G01 F120.00
G01 X20.1027 Y0.7965
G01 X20.0390 Y0.7996
G01 X19.9139 Y0.8245
G01 X19.7961 Y0.8732
G01 X19.6900 Y0.9440
G01 X19.6426 Y0.9869
G01 X19.5615 Y1.0854
G01 X19.5012 Y1.1977
G01 X19.4639 Y1.3197
G01 X19.4511 Y1.4465
G01 X19.4016 Y21.3091
G00 X19.4016 Y21.3091
G01 F60.00
G01 Z-1.0000
G01 F120.00
G01 X19.4511 Y1.4465
G01 X19.4639 Y1.3197
G01 X19.5012 Y1.1977
G01 X19.5615 Y1.0854
G01 X19.6426 Y0.9869
G01 X19.6900 Y0.9440
G01 X19.7961 Y0.8732
G01 X19.9139 Y0.8245
G01 X20.0390 Y0.7996
G01 X20.1027 Y0.7965
G01 X44.9653 Y0.7965
G00 X44.9653 Y0.7965
G01 F60.00
G01 Z-1.2000
G01 F120.00
G01 X20.1027 Y0.7965
G01 X20.0390 Y0.7996
G01 X19.9139 Y0.8245
G01 X19.7961 Y0.8732
G01 X19.6900 Y0.9440
G01 X19.6426 Y0.9869
G01 X19.5615 Y1.0854
G01 X19.5012 Y1.1977
G01 X19.4639 Y1.3197
G01 X19.4511 Y1.4465
G01 X19.4016 Y21.3091
G00 X19.4016 Y21.3091
G01 F60.00
G01 Z-1.4000
G01 F120.00
G01 X19.4511 Y1.4465
G01 X19.4639 Y1.3197
G01 X19.5012 Y1.1977
G01 X19.5615 Y1.0854
G01 X19.6426 Y0.9869
G01 X19.6900 Y0.9440
G01 X19.7961 Y0.8732
G01 X19.9139 Y0.8245
G01 X20.0390 Y0.7996
G01 X20.1027 Y0.7965
G01 X44.9653 Y0.7965
G00 X44.9653 Y0.7965
G01 F60.00
G01 Z-1.6000
G01 F120.00
G01 X20.1027 Y0.7965
G01 X20.0390 Y0.7996
G01 X19.9139 Y0.8245
G01 X19.7961 Y0.8732
G01 X19.6900 Y0.9440
G01 X19.6426 Y0.9869
G01 X19.5615 Y1.0854
G01 X19.5012 Y1.1977
G01 X19.4639 Y1.3197
G01 X19.4511 Y1.4465
G01 X19.4016 Y21.3091
G00 X19.4016 Y21.3091
G01 F60.00
G01 Z-1.8000
G01 F120.00
G01 X19.4511 Y1.4465
G01 X19.4639 Y1.3197
G01 X19.5012 Y1.1977
G01 X19.5615 Y1.0854
G01 X19.6426 Y0.9869
G01 X19.6900 Y0.9440
G01 X19.7961 Y0.8732
G01 X19.9139 Y0.8245
G01 X20.0390 Y0.7996
G01 X20.1027 Y0.7965
G01 X44.9653 Y0.7965
G00 X44.9653 Y0.7965
G01 F60.00
G01 Z-2.0000
G01 F120.00
G01 X20.1027 Y0.7965
G01 X20.0390 Y0.7996
G01 X19.9139 Y0.8245
G01 X19.7961 Y0.8732
G01 X19.6900 Y0.9440
G01 X19.6426 Y0.9869
G01 X19.5615 Y1.0854
G01 X19.5012 Y1.1977
G01 X19.4639 Y1.3197
G01 X19.4511 Y1.4465
G01 X19.4016 Y21.3091
G00 X19.4016 Y21.3091
G01 F60.00
G01 Z-2.2000
G01 F120.00
G01 X19.4511 Y1.4465
G01 X19.4639 Y1.3197
G01 X19.5012 Y1.1977
G01 X19.5615 Y1.0854
G01 X19.6426 Y0.9869
G01 X19.6900 Y0.9440
G01 X19.7961 Y0.8732
G01 X19.9139 Y0.8245
G01 X20.0390 Y0.7996
G01 X20.1027 Y0.7965
G01 X44.9653 Y0.7965
G00 X44.9653 Y0.7965
G01 F60.00
G01 Z-2.4000
G01 F120.00
G01 X20.1027 Y0.7965
G01 X20.0390 Y0.7996
G01 X19.9139 Y0.8245
G01 X19.7961 Y0.8732
G01 X19.6900 Y0.9440
G01 X19.6426 Y0.9869
G01 X19.5615 Y1.0854
G01 X19.5012 Y1.1977
G01 X19.4639 Y1.3197
G01 X19.4511 Y1.4465
G01 X19.4016 Y21.3091
G00 Z2.0000
G00 X50.2653 Y0.7965
G01 F60.00
G01 Z-0.2000
G01 F120.00
G01 X75.1279 Y0.7965
G01 X75.2547 Y0.8090
G01 X75.3765 Y0.8460
G01 X75.4888 Y0.9060
G01 X75.5399 Y0.9440
G01 X75.6298 Y1.0341
G01 X75.7003 Y1.1401
G01 X75.7488 Y1.2578
G01 X75.7733 Y1.3828
G01 X75.7763 Y1.4465
G01 X75.7269 Y21.3091
G00 X75.7269 Y21.3091
G01 F60.00
G01 Z-0.4000
G01 F120.00
G01 X75.7763 Y1.4465
G01 X75.7733 Y1.3828
G01 X75.7488 Y1.2578
G01 X75.7003 Y1.1401
G01 X75.6298 Y1.0341
G01 X75.5399 Y0.9440
G01 X75.4888 Y0.9060
G01 X75.3765 Y0.8460
G01 X75.2547 Y0.8090
G01 X75.1279 Y0.7965
G01 X50.2653 Y0.7965
G00 X50.2653 Y0.7965
G01 F60.00
G01 Z-0.6000
G01 F120.00
G01 X75.1279 Y0.7965
G01 X75.2547 Y0.8090
G01 X75.3765 Y0.8460
G01 X75.4888 Y0.9060
G01 X75.5399 Y0.9440
G01 X75.6298 Y1.0341
G01 X75.7003 Y1.1401
G01 X75.7488 Y1.2578
G01 X75.7733 Y1.3828
G01 X75.7763 Y1.4465
G01 X75.7269 Y21.3091
G00 X75.7269 Y21.3091
G01 F60.00
G01 Z-0.8000
G01 F120.00
G01 X75.7763 Y1.4465
G01 X75.7733 Y1.3828
G01 X75.7488 Y1.2578
G01 X75.7003 Y1.1401
G01 X75.6298 Y1.0341
G01 X75.5399 Y0.9440
G01 X75.4888 Y0.9060
G01 X75.3765 Y0.8460
G01 X75.2547 Y0.8090
G01 X75.1279 Y0.7965
G01 X50.2653 Y0.7965
G00 X50.2653 Y0.7965
G01 F60.00
G01 Z-1.0000
G01 F120.00
G01 X75.1279 Y0.7965
G01 X75.2547 Y0.8090
G01 X75.3765 Y0.8460
G01 X75.4888 Y0.9060
G01 X75.5399 Y0.9440
G01 X75.6298 Y1.0341
G01 X75.7003 Y1.1401
G01 X75.7488 Y1.2578
G01 X75.7733 Y1.3828
G01 X75.7763 Y1.4465
G01 X75.7269 Y21.3091
G00 X75.7269 Y21.3091
G01 F60.00
G01 Z-1.2000
G01 F120.00
G01 X75.7763 Y1.4465
G01 X75.7733 Y1.3828
G01 X75.7488 Y1.2578
G01 X75.7003 Y1.1401
G01 X75.6298 Y1.0341
G01 X75.5399 Y0.9440
G01 X75.4888 Y0.9060
G01 X75.3765 Y0.8460
G01 X75.2547 Y0.8090
G01 X75.1279 Y0.7965
G01 X50.2653 Y0.7965
G00 X50.2653 Y0.7965
G01 F60.00
G01 Z-1.4000
G01 F120.00
G01 X75.1279 Y0.7965
G01 X75.2547 Y0.8090
G01 X75.3765 Y0.8460
G01 X75.4888 Y0.9060
G01 X75.5399 Y0.9440
G01 X75.6298 Y1.0341
G01 X75.7003 Y1.1401
G01 X75.7488 Y1.2578
G01 X75.7733 Y1.3828
G01 X75.7763 Y1.4465
G01 X75.7269 Y21.3091
G00 X75.7269 Y21.3091
G01 F60.00
G01 Z-1.6000
G01 F120.00
G01 X75.7763 Y1.4465
G01 X75.7733 Y1.3828
G01 X75.7488 Y1.2578
G01 X75.7003 Y1.1401
G01 X75.6298 Y1.0341
G01 X75.5399 Y0.9440
G01 X75.4888 Y0.9060
G01 X75.3765 Y0.8460
G01 X75.2547 Y0.8090
G01 X75.1279 Y0.7965
G01 X50.2653 Y0.7965
G00 X50.2653 Y0.7965
G01 F60.00
G01 Z-1.8000
G01 F120.00
G01 X75.1279 Y0.7965
G01 X75.2547 Y0.8090
G01 X75.3765 Y0.8460
G01 X75.4888 Y0.9060
G01 X75.5399 Y0.9440
G01 X75.6298 Y1.0341
G01 X75.7003 Y1.1401
G01 X75.7488 Y1.2578
G01 X75.7733 Y1.3828
G01 X75.7763 Y1.4465
G01 X75.7269 Y21.3091
G00 X75.7269 Y21.3091
G01 F60.00
G01 Z-2.0000
G01 F120.00
G01 X75.7763 Y1.4465
G01 X75.7733 Y1.3828
G01 X75.7488 Y1.2578
G01 X75.7003 Y1.1401
G01 X75.6298 Y1.0341
G01 X75.5399 Y0.9440
G01 X75.4888 Y0.9060
G01 X75.3765 Y0.8460
G01 X75.2547 Y0.8090
G01 X75.1279 Y0.7965
G01 X50.2653 Y0.7965
G00 X50.2653 Y0.7965
G01 F60.00
G01 Z-2.2000
G01 F120.00
G01 X75.1279 Y0.7965
G01 X75.2547 Y0.8090
G01 X75.3765 Y0.8460
G01 X75.4888 Y0.9060
G01 X75.5399 Y0.9440
G01 X75.6298 Y1.0341
G01 X75.7003 Y1.1401
G01 X75.7488 Y1.2578
G01 X75.7733 Y1.3828
G01 X75.7763 Y1.4465
G01 X75.7269 Y21.3091
G00 X75.7269 Y21.3091
G01 F60.00
G01 Z-2.4000
G01 F120.00
G01 X75.7763 Y1.4465
G01 X75.7733 Y1.3828
G01 X75.7488 Y1.2578
G01 X75.7003 Y1.1401
G01 X75.6298 Y1.0341
G01 X75.5399 Y0.9440
G01 X75.4888 Y0.9060
G01 X75.3765 Y0.8460
G01 X75.2547 Y0.8090
G01 X75.1279 Y0.7965
G01 X50.2653 Y0.7965
G00 Z2.0000
G00 X75.7137 Y26.6091
G01 F60.00
G01 Z-0.2000
G01 F120.00
G01 X75.6643 Y46.4718
G01 X75.6514 Y46.5986
G01 X75.6358 Y46.6604
G01 X75.5867 Y46.7782
G01 X75.5157 Y46.8841
G01 X75.4254 Y46.9742
G01 X75.3192 Y47.0450
G01 X75.2615 Y47.0723
G01 X75.1395 Y47.1093
G01 X75.0126 Y47.1218
G01 X50.1500 Y47.1218
G00 X50.1500 Y47.1218
G01 F60.00
G01 Z-0.4000
G01 F120.00
G01 X75.0126 Y47.1218
G01 X75.1395 Y47.1093
G01 X75.2615 Y47.0723
G01 X75.3192 Y47.0450
G01 X75.4254 Y46.9742
G01 X75.5157 Y46.8841
G01 X75.5867 Y46.7782
G01 X75.6358 Y46.6604
G01 X75.6514 Y46.5986
G01 X75.6643 Y46.4718
G01 X75.7137 Y26.6091
G00 X75.7137 Y26.6091
G01 F60.00
G01 Z-0.6000
G01 F120.00
G01 X75.6643 Y46.4718
G01 X75.6514 Y46.5986
G01 X75.6358 Y46.6604
G01 X75.5867 Y46.7782
G01 X75.5157 Y46.8841
G01 X75.4254 Y46.9742
G01 X75.3192 Y47.0450
G01 X75.2615 Y47.0723
G01 X75.1395 Y47.1093
G01 X75.0126 Y47.1218
G01 X50.1500 Y47.1218
G00 X50.1500 Y47.1218
G01 F60.00
G01 Z-0.8000
G01 F120.00
G01 X75.0126 Y47.1218
G01 X75.1395 Y47.1093
G01 X75.2615 Y47.0723
G01 X75.3192 Y47.0450
G01 X75.4254 Y46.9742
G01 X75.5157 Y46.8841
G01 X75.5867 Y46.7782
G01 X75.6358 Y46.6604
G01 X75.6514 Y46.5986
G01 X75.6643 Y46.4718
G01 X75.7137 Y26.6091
G00 X75.7137 Y26.6091
G01 F60.00
G01 Z-1.0000
G01 F120.00
G01 X75.6643 Y46.4718
G01 X75.6514 Y46.5986
G01 X75.6358 Y46.6604
G01 X75.5867 Y46.7782
G01 X75.5157 Y46.8841
G01 X75.4254 Y46.9742
G01 X75.3192 Y47.0450
G01 X75.2615 Y47.0723
G01 X75.1395 Y47.1093
G01 X75.0126 Y47.1218
G01 X50.1500 Y47.1218
G00 X50.1500 Y47.1218
G01 F60.00
G01 Z-1.2000
G01 F120.00
G01 X75.0126 Y47.1218
G01 X75.1395 Y47.1093
G01 X75.2615 Y47.0723
G01 X75.3192 Y47.0450
G01 X75.4254 Y46.9742
G01 X75.5157 Y46.8841
G01 X75.5867 Y46.7782
G01 X75.6358 Y46.6604
G01 X75.6514 Y46.5986
G01 X75.6643 Y46.4718
G01 X75.7137 Y26.6091
G00 X75.7137 Y26.6091
G01 F60.00
G01 Z-1.4000
G01 F120.00
G01 X75.6643 Y46.4718
G01 X75.6514 Y46.5986
G01 X75.6358 Y46.6604
G01 X75.5867 Y46.7782
G01 X75.5157 Y46.8841
G01 X75.4254 Y46.9742
G01 X75.3192 Y47.0450
G01 X75.2615 Y47.0723
G01 X75.1395 Y47.1093
G01 X75.0126 Y47.1218
G01 X50.1500 Y47.1218
G00 X50.1500 Y47.1218
G01 F60.00
G01 Z-1.6000
G01 F120.00
G01 X75.0126 Y47.1218
G01 X75.1395 Y47.1093
G01 X75.2615 Y47.0723
G01 X75.3192 Y47.0450
G01 X75.4254 Y46.9742
G01 X75.5157 Y46.8841
G01 X75.5867 Y46.7782
G01 X75.6358 Y46.6604
G01 X75.6514 Y46.5986
G01 X75.6643 Y46.4718
G01 X75.7137 Y26.6091
G00 X75.7137 Y26.6091
G01 F60.00
G01 Z-1.8000
G01 F120.00
G01 X75.6643 Y46.4718
G01 X75.6514 Y46.5986
G01 X75.6358 Y46.6604
G01 X75.5867 Y46.7782
G01 X75.5157 Y46.8841
G01 X75.4254 Y46.9742
G01 X75.3192 Y47.0450
G01 X75.2615 Y47.0723
G01 X75.1395 Y47.1093
G01 X75.0126 Y47.1218
G01 X50.1500 Y47.1218
G00 X50.1500 Y47.1218
G01 F60.00
G01 Z-2.0000
G01 F120.00
G01 X75.0126 Y47.1218
G01 X75.1395 Y47.1093
G01 X75.2615 Y47.0723
G01 X75.3192 Y47.0450
G01 X75.4254 Y46.9742
G01 X75.5157 Y46.8841
G01 X75.5867 Y46.7782
G01 X75.6358 Y46.6604
G01 X75.6514 Y46.5986
G01 X75.6643 Y46.4718
G01 X75.7137 Y26.6091
G00 X75.7137 Y26.6091
G01 F60.00
G01 Z-2.2000
G01 F120.00
G01 X75.6643 Y46.4718
G01 X75.6514 Y46.5986
G01 X75.6358 Y46.6604
G01 X75.5867 Y46.7782
G01 X75.5157 Y46.8841
G01 X75.4254 Y46.9742
G01 X75.3192 Y47.0450
G01 X75.2615 Y47.0723
G01 X75.1395 Y47.1093
G01 X75.0126 Y47.1218
G01 X50.1500 Y47.1218
G00 X50.1500 Y47.1218
G01 F60.00
G01 Z-2.4000
G01 F120.00
G01 X75.0126 Y47.1218
G01 X75.1395 Y47.1093
G01 X75.2615 Y47.0723
G01 X75.3192 Y47.0450
G01 X75.4254 Y46.9742
G01 X75.5157 Y46.8841
G01 X75.5867 Y46.7782
G01 X75.6358 Y46.6604
G01 X75.6514 Y46.5986
G01 X75.6643 Y46.4718
G01 X75.7137 Y26.6091
G00 Z2.0000
G00 X44.8500 Y47.1218
G01 F60.00
G01 Z-0.2000
G01 F120.00
G01 X19.9874 Y47.1218
G01 X19.8606 Y47.1093
G01 X19.7388 Y47.0723
G01 X19.6812 Y47.0450
G01 X19.5754 Y46.9742
G01 X19.4855 Y46.8841
G01 X19.4150 Y46.7782
G01 X19.3879 Y46.7205
G01 X19.3512 Y46.5986
G01 X19.3390 Y46.4718
G01 X19.3884 Y26.6091
G00 X19.3884 Y26.6091
G01 F60.00
G01 Z-0.4000
G01 F120.00
G01 X19.3390 Y46.4718
G01 X19.3512 Y46.5986
G01 X19.3879 Y46.7205
G01 X19.4150 Y46.7782
G01 X19.4855 Y46.8841
G01 X19.5754 Y46.9742
G01 X19.6812 Y47.0450
G01 X19.7388 Y47.0723
G01 X19.8606 Y47.1093
G01 X19.9874 Y47.1218
G01 X44.8500 Y47.1218
G00 X44.8500 Y47.1218
G01 F60.00
G01 Z-0.6000
G01 F120.00
G01 X19.9874 Y47.1218
G01 X19.8606 Y47.1093
G01 X19.7388 Y47.0723
G01 X19.6812 Y47.0450
G01 X19.5754 Y46.9742
G01 X19.4855 Y46.8841
G01 X19.4150 Y46.7782
G01 X19.3879 Y46.7205
G01 X19.3512 Y46.5986
G01 X19.3390 Y46.4718
G01 X19.3884 Y26.6091
G00 X19.3884 Y26.6091
G01 F60.00
G01 Z-0.8000
G01 F120.00
G01 X19.3390 Y46.4718
G01 X19.3512 Y46.5986
G01 X19.3879 Y46.7205
G01 X19.4150 Y46.7782
G01 X19.4855 Y46.8841
G01 X19.5754 Y46.9742
G01 X19.6812 Y47.0450
G01 X19.7388 Y47.0723
G01 X19.8606 Y47.1093
G01 X19.9874 Y47.1218
G01 X44.8500 Y47.1218
G00 X44.8500 Y47.1218
G01 F60.00
G01 Z-1.0000
G01 F120.00
G01 X19.9874 Y47.1218
G01 X19.8606 Y47.1093
G01 X19.7388 Y47.0723
G01 X19.6812 Y47.0450
G01 X19.5754 Y46.9742
G01 X19.4855 Y46.8841
G01 X19.4150 Y46.7782
G01 X19.3879 Y46.7205
G01 X19.3512 Y46.5986
G01 X19.3390 Y46.4718
G01 X19.3884 Y26.6091
G00 X19.3884 Y26.6091
G01 F60.00
G01 Z-1.2000
G01 F120.00
G01 X19.3390 Y46.4718
G01 X19.3512 Y46.5986
G01 X19.3879 Y46.7205
G01 X19.4150 Y46.7782
G01 X19.4855 Y46.8841
G01 X19.5754 Y46.9742
G01 X19.6812 Y47.0450
G01 X19.7388 Y47.0723
G01 X19.8606 Y47.1093
G01 X19.9874 Y47.1218
G01 X44.8500 Y47.1218
G00 X44.8500 Y47.1218
G01 F60.00
G01 Z-1.4000
G01 F120.00
G01 X19.9874 Y47.1218
G01 X19.8606 Y47.1093
G01 X19.7388 Y47.0723
G01 X19.6812 Y47.0450
G01 X19.5754 Y46.9742
G01 X19.4855 Y46.8841
G01 X19.4150 Y46.7782
G01 X19.3879 Y46.7205
G01 X19.3512 Y46.5986
G01 X19.3390 Y46.4718
G01 X19.3884 Y26.6091
G00 X19.3884 Y26.6091
G01 F60.00
G01 Z-1.6000
G01 F120.00
G01 X19.3390 Y46.4718
G01 X19.3512 Y46.5986
G01 X19.3879 Y46.7205
G01 X19.4150 Y46.7782
G01 X19.4855 Y46.8841
G01 X19.5754 Y46.9742
G01 X19.6812 Y47.0450
G01 X19.7388 Y47.0723
G01 X19.8606 Y47.1093
G01 X19.9874 Y47.1218
G01 X44.8500 Y47.1218
G00 X44.8500 Y47.1218
G01 F60.00
G01 Z-1.8000
G01 F120.00
G01 X19.9874 Y47.1218
G01 X19.8606 Y47.1093
G01 X19.7388 Y47.0723
G01 X19.6812 Y47.0450
G01 X19.5754 Y46.9742
G01 X19.4855 Y46.8841
G01 X19.4150 Y46.7782
G01 X19.3879 Y46.7205
G01 X19.3512 Y46.5986
G01 X19.3390 Y46.4718
G01 X19.3884 Y26.6091
G00 X19.3884 Y26.6091
G01 F60.00
G01 Z-2.0000
G01 F120.00
G01 X19.3390 Y46.4718
G01 X19.3512 Y46.5986
G01 X19.3879 Y46.7205
G01 X19.4150 Y46.7782
G01 X19.4855 Y46.8841
G01 X19.5754 Y46.9742
G01 X19.6812 Y47.0450
G01 X19.7388 Y47.0723
G01 X19.8606 Y47.1093
G01 X19.9874 Y47.1218
G01 X44.8500 Y47.1218
G00 X44.8500 Y47.1218
G01 F60.00
G01 Z-2.2000
G01 F120.00
G01 X19.9874 Y47.1218
G01 X19.8606 Y47.1093
G01 X19.7388 Y47.0723
G01 X19.6812 Y47.0450
G01 X19.5754 Y46.9742
G01 X19.4855 Y46.8841
G01 X19.4150 Y46.7782
G01 X19.3879 Y46.7205
G01 X19.3512 Y46.5986
G01 X19.3390 Y46.4718
G01 X19.3884 Y26.6091
G00 X19.3884 Y26.6091
G01 F60.00
G01 Z-2.4000
G01 F120.00
G01 X19.3390 Y46.4718
G01 X19.3512 Y46.5986
G01 X19.3879 Y46.7205
G01 X19.4150 Y46.7782
G01 X19.4855 Y46.8841
G01 X19.5754 Y46.9742
G01 X19.6812 Y47.0450
G01 X19.7388 Y47.0723
G01 X19.8606 Y47.1093
G01 X19.9874 Y47.1218
G01 X44.8500 Y47.1218
G00 Z2.0000
M05
G00 Z2.0000
G00 Z15.00
G00 X0.0 Y0.0


