(G-code generated by FlatCAM Evo vUnstable - Version Date: 2023/6/31)

(Name: Alignment bot check_cnc)
(Type: G-code from Excellon)
(Units: MM)

(Created on Tuesday, 03 September 2024 at 21:10)

(This preprocessor is the default preprocessor.)
(It is made to work with MACH3 compatible motion controllers.)

(Z Toolchange: 15.0 mm)
(X,Y Toolchange: 0.0000, 0.0000 mm)
(Z Start: 2 mm)
(Z End: 15.0 mm)
(X,Y End: 0.0000, 0.0000 mm)
(Steps per circle: 16)
(Preprocessor Excellon: default)

(X range:   14.0655 ...   80.9272  mm)
(Y range:   10.1413 ...   45.9412  mm)

(Spindle Speed: 0.0 RPM)
G21
G90
G94
G01 F60.00


M5
G00 Z2.0000
T1
G00 X0.0000 Y0.0000                
M6
(MSG, Change to Tool Dia = 0.8000 ||| Total drills for tool T1 = 2)
M0
G00 Z2.0000

G01 F60.00
M03
G00 X14.2630 Y44.9036
G01 Z0.0000
G00 Z2.0000
G00 X79.3999 Y10.3937
G01 Z0.0000
G00 Z2.0000
M05
G00 Z15.00
G00 X0.0 Y0.0


