(G-code generated by FlatCAM Evo vUnstable - Version Date: 2023/6/31)

(Name: PCB1_VSSS_Profile.gbr_cutout_cnc)
(Type: G-code from Geometry)
(Units: MM)

(Created on Tuesday, 03 September 2024 at 21:09)

(This preprocessor is the default preprocessor.)
(It is made to work with MACH3 compatible motion controllers.)

(TOOL DIAMETER: 1.3 mm)
(Feedrate_XY: 120.0 mm/min)
(Feedrate_Z: 60.0 mm/min)
(Feedrate rapids 1500.0 mm/min)

(Z_Cut: -2.4 mm)
(DepthPerCut: 0.2 mm <=>12 passes)
(Z_Move: 2.0 mm)
(Z Start: None mm)
(Z End: 15.0 mm)
(X,Y End: 0.0000, 0.0000 mm)
(Steps per circle: 16)
(Preprocessor Geometry: default)

(X range:   19.3511 ...   75.7560  mm)
(Y range:    0.8286 ...   47.1539  mm)

(Spindle Speed: 3000.0 RPM)
G21
G90
G94

G01 F120.00

M5
G00 Z15.0000
G00 X0.0000 Y0.0000
T1
M6    
(MSG, Change to Tool Dia = 1.3000)
M0
G00 Z15.0000

M03 S3000.0
G01 F120.00
G00 X19.1240 Y21.0425
G01 F60.00
G01 Z-0.2000
G01 F120.00
G01 X19.1586 Y1.4579
G01 X19.1711 Y1.3328
G01 X19.2078 Y1.2126
G01 X19.2672 Y1.1018
G01 X19.3048 Y1.0513
G01 X19.3938 Y0.9625
G01 X19.4984 Y0.8926
G01 X19.6145 Y0.8446
G01 X19.7378 Y0.8201
G01 X19.8006 Y0.8170
G01 X44.3152 Y0.8170
G00 X44.3152 Y0.8170
G01 F60.00
G01 Z-0.4000
G01 F120.00
G01 X19.8006 Y0.8170
G01 X19.7378 Y0.8201
G01 X19.6145 Y0.8446
G01 X19.4984 Y0.8926
G01 X19.3938 Y0.9625
G01 X19.3048 Y1.0513
G01 X19.2672 Y1.1018
G01 X19.2078 Y1.2126
G01 X19.1711 Y1.3328
G01 X19.1586 Y1.4579
G01 X19.1240 Y21.0425
G00 X19.1240 Y21.0425
G01 F60.00
G01 Z-0.6000
G01 F120.00
G01 X19.1586 Y1.4579
G01 X19.1711 Y1.3328
G01 X19.2078 Y1.2126
G01 X19.2672 Y1.1018
G01 X19.3048 Y1.0513
G01 X19.3938 Y0.9625
G01 X19.4984 Y0.8926
G01 X19.6145 Y0.8446
G01 X19.7378 Y0.8201
G01 X19.8006 Y0.8170
G01 X44.3152 Y0.8170
G00 X44.3152 Y0.8170
G01 F60.00
G01 Z-0.8000
G01 F120.00
G01 X19.8006 Y0.8170
G01 X19.7378 Y0.8201
G01 X19.6145 Y0.8446
G01 X19.4984 Y0.8926
G01 X19.3938 Y0.9625
G01 X19.3048 Y1.0513
G01 X19.2672 Y1.1018
G01 X19.2078 Y1.2126
G01 X19.1711 Y1.3328
G01 X19.1586 Y1.4579
G01 X19.1240 Y21.0425
G00 X19.1240 Y21.0425
G01 F60.00
G01 Z-1.0000
G01 F120.00
G01 X19.1586 Y1.4579
G01 X19.1711 Y1.3328
G01 X19.2078 Y1.2126
G01 X19.2672 Y1.1018
G01 X19.3048 Y1.0513
G01 X19.3938 Y0.9625
G01 X19.4984 Y0.8926
G01 X19.6145 Y0.8446
G01 X19.7378 Y0.8201
G01 X19.8006 Y0.8170
G01 X44.3152 Y0.8170
G00 X44.3152 Y0.8170
G01 F60.00
G01 Z-1.2000
G01 F120.00
G01 X19.8006 Y0.8170
G01 X19.7378 Y0.8201
G01 X19.6145 Y0.8446
G01 X19.4984 Y0.8926
G01 X19.3938 Y0.9625
G01 X19.3048 Y1.0513
G01 X19.2672 Y1.1018
G01 X19.2078 Y1.2126
G01 X19.1711 Y1.3328
G01 X19.1586 Y1.4579
G01 X19.1240 Y21.0425
G00 X19.1240 Y21.0425
G01 F60.00
G01 Z-1.4000
G01 F120.00
G01 X19.1586 Y1.4579
G01 X19.1711 Y1.3328
G01 X19.2078 Y1.2126
G01 X19.2672 Y1.1018
G01 X19.3048 Y1.0513
G01 X19.3938 Y0.9625
G01 X19.4984 Y0.8926
G01 X19.6145 Y0.8446
G01 X19.7378 Y0.8201
G01 X19.8006 Y0.8170
G01 X44.3152 Y0.8170
G00 X44.3152 Y0.8170
G01 F60.00
G01 Z-1.6000
G01 F120.00
G01 X19.8006 Y0.8170
G01 X19.7378 Y0.8201
G01 X19.6145 Y0.8446
G01 X19.4984 Y0.8926
G01 X19.3938 Y0.9625
G01 X19.3048 Y1.0513
G01 X19.2672 Y1.1018
G01 X19.2078 Y1.2126
G01 X19.1711 Y1.3328
G01 X19.1586 Y1.4579
G01 X19.1240 Y21.0425
G00 X19.1240 Y21.0425
G01 F60.00
G01 Z-1.8000
G01 F120.00
G01 X19.1586 Y1.4579
G01 X19.1711 Y1.3328
G01 X19.2078 Y1.2126
G01 X19.2672 Y1.1018
G01 X19.3048 Y1.0513
G01 X19.3938 Y0.9625
G01 X19.4984 Y0.8926
G01 X19.6145 Y0.8446
G01 X19.7378 Y0.8201
G01 X19.8006 Y0.8170
G01 X44.3152 Y0.8170
G00 X44.3152 Y0.8170
G01 F60.00
G01 Z-2.0000
G01 F120.00
G01 X19.8006 Y0.8170
G01 X19.7378 Y0.8201
G01 X19.6145 Y0.8446
G01 X19.4984 Y0.8926
G01 X19.3938 Y0.9625
G01 X19.3048 Y1.0513
G01 X19.2672 Y1.1018
G01 X19.2078 Y1.2126
G01 X19.1711 Y1.3328
G01 X19.1586 Y1.4579
G01 X19.1240 Y21.0425
G00 X19.1240 Y21.0425
G01 F60.00
G01 Z-2.2000
G01 F120.00
G01 X19.1586 Y1.4579
G01 X19.1711 Y1.3328
G01 X19.2078 Y1.2126
G01 X19.2672 Y1.1018
G01 X19.3048 Y1.0513
G01 X19.3938 Y0.9625
G01 X19.4984 Y0.8926
G01 X19.6145 Y0.8446
G01 X19.7378 Y0.8201
G01 X19.8006 Y0.8170
G01 X44.3152 Y0.8170
G00 X44.3152 Y0.8170
G01 F60.00
G01 Z-2.4000
G01 F120.00
G01 X19.8006 Y0.8170
G01 X19.7378 Y0.8201
G01 X19.6145 Y0.8446
G01 X19.4984 Y0.8926
G01 X19.3938 Y0.9625
G01 X19.3048 Y1.0513
G01 X19.2672 Y1.1018
G01 X19.2078 Y1.2126
G01 X19.1711 Y1.3328
G01 X19.1586 Y1.4579
G01 X19.1240 Y21.0425
G00 Z2.0000
G00 X49.5410 Y0.8170
G01 F60.00
G01 Z-0.2000
G01 F120.00
G01 X74.0556 Y0.8170
G01 X74.1184 Y0.8201
G01 X74.2416 Y0.8446
G01 X74.3576 Y0.8926
G01 X74.4619 Y0.9625
G01 X74.5506 Y1.0513
G01 X74.6202 Y1.1558
G01 X74.6681 Y1.2718
G01 X74.6924 Y1.3951
G01 X74.6954 Y1.4579
G01 X74.6608 Y21.0425
G00 X74.6608 Y21.0425
G01 F60.00
G01 Z-0.4000
G01 F120.00
G01 X74.6954 Y1.4579
G01 X74.6924 Y1.3951
G01 X74.6681 Y1.2718
G01 X74.6202 Y1.1558
G01 X74.5506 Y1.0513
G01 X74.4619 Y0.9625
G01 X74.3576 Y0.8926
G01 X74.2416 Y0.8446
G01 X74.1184 Y0.8201
G01 X74.0556 Y0.8170
G01 X49.5410 Y0.8170
G00 X49.5410 Y0.8170
G01 F60.00
G01 Z-0.6000
G01 F120.00
G01 X74.0556 Y0.8170
G01 X74.1184 Y0.8201
G01 X74.2416 Y0.8446
G01 X74.3576 Y0.8926
G01 X74.4619 Y0.9625
G01 X74.5506 Y1.0513
G01 X74.6202 Y1.1558
G01 X74.6681 Y1.2718
G01 X74.6924 Y1.3951
G01 X74.6954 Y1.4579
G01 X74.6608 Y21.0425
G00 X74.6608 Y21.0425
G01 F60.00
G01 Z-0.8000
G01 F120.00
G01 X74.6954 Y1.4579
G01 X74.6924 Y1.3951
G01 X74.6681 Y1.2718
G01 X74.6202 Y1.1558
G01 X74.5506 Y1.0513
G01 X74.4619 Y0.9625
G01 X74.3576 Y0.8926
G01 X74.2416 Y0.8446
G01 X74.1184 Y0.8201
G01 X74.0556 Y0.8170
G01 X49.5410 Y0.8170
G00 X49.5410 Y0.8170
G01 F60.00
G01 Z-1.0000
G01 F120.00
G01 X74.0556 Y0.8170
G01 X74.1184 Y0.8201
G01 X74.2416 Y0.8446
G01 X74.3576 Y0.8926
G01 X74.4619 Y0.9625
G01 X74.5506 Y1.0513
G01 X74.6202 Y1.1558
G01 X74.6681 Y1.2718
G01 X74.6924 Y1.3951
G01 X74.6954 Y1.4579
G01 X74.6608 Y21.0425
G00 X74.6608 Y21.0425
G01 F60.00
G01 Z-1.2000
G01 F120.00
G01 X74.6954 Y1.4579
G01 X74.6924 Y1.3951
G01 X74.6681 Y1.2718
G01 X74.6202 Y1.1558
G01 X74.5506 Y1.0513
G01 X74.4619 Y0.9625
G01 X74.3576 Y0.8926
G01 X74.2416 Y0.8446
G01 X74.1184 Y0.8201
G01 X74.0556 Y0.8170
G01 X49.5410 Y0.8170
G00 X49.5410 Y0.8170
G01 F60.00
G01 Z-1.4000
G01 F120.00
G01 X74.0556 Y0.8170
G01 X74.1184 Y0.8201
G01 X74.2416 Y0.8446
G01 X74.3576 Y0.8926
G01 X74.4619 Y0.9625
G01 X74.5506 Y1.0513
G01 X74.6202 Y1.1558
G01 X74.6681 Y1.2718
G01 X74.6924 Y1.3951
G01 X74.6954 Y1.4579
G01 X74.6608 Y21.0425
G00 X74.6608 Y21.0425
G01 F60.00
G01 Z-1.6000
G01 F120.00
G01 X74.6954 Y1.4579
G01 X74.6924 Y1.3951
G01 X74.6681 Y1.2718
G01 X74.6202 Y1.1558
G01 X74.5506 Y1.0513
G01 X74.4619 Y0.9625
G01 X74.3576 Y0.8926
G01 X74.2416 Y0.8446
G01 X74.1184 Y0.8201
G01 X74.0556 Y0.8170
G01 X49.5410 Y0.8170
G00 X49.5410 Y0.8170
G01 F60.00
G01 Z-1.8000
G01 F120.00
G01 X74.0556 Y0.8170
G01 X74.1184 Y0.8201
G01 X74.2416 Y0.8446
G01 X74.3576 Y0.8926
G01 X74.4619 Y0.9625
G01 X74.5506 Y1.0513
G01 X74.6202 Y1.1558
G01 X74.6681 Y1.2718
G01 X74.6924 Y1.3951
G01 X74.6954 Y1.4579
G01 X74.6608 Y21.0425
G00 X74.6608 Y21.0425
G01 F60.00
G01 Z-2.0000
G01 F120.00
G01 X74.6954 Y1.4579
G01 X74.6924 Y1.3951
G01 X74.6681 Y1.2718
G01 X74.6202 Y1.1558
G01 X74.5506 Y1.0513
G01 X74.4619 Y0.9625
G01 X74.3576 Y0.8926
G01 X74.2416 Y0.8446
G01 X74.1184 Y0.8201
G01 X74.0556 Y0.8170
G01 X49.5410 Y0.8170
G00 X49.5410 Y0.8170
G01 F60.00
G01 Z-2.2000
G01 F120.00
G01 X74.0556 Y0.8170
G01 X74.1184 Y0.8201
G01 X74.2416 Y0.8446
G01 X74.3576 Y0.8926
G01 X74.4619 Y0.9625
G01 X74.5506 Y1.0513
G01 X74.6202 Y1.1558
G01 X74.6681 Y1.2718
G01 X74.6924 Y1.3951
G01 X74.6954 Y1.4579
G01 X74.6608 Y21.0425
G00 X74.6608 Y21.0425
G01 F60.00
G01 Z-2.4000
G01 F120.00
G01 X74.6954 Y1.4579
G01 X74.6924 Y1.3951
G01 X74.6681 Y1.2718
G01 X74.6202 Y1.1558
G01 X74.5506 Y1.0513
G01 X74.4619 Y0.9625
G01 X74.3576 Y0.8926
G01 X74.2416 Y0.8446
G01 X74.1184 Y0.8201
G01 X74.0556 Y0.8170
G01 X49.5410 Y0.8170
G00 Z2.0000
G00 X74.6515 Y26.2683
G01 F60.00
G01 Z-0.2000
G01 F120.00
G01 X74.6169 Y45.8529
G01 X74.6044 Y45.9779
G01 X74.5677 Y46.0981
G01 X74.5083 Y46.2089
G01 X74.4707 Y46.2594
G01 X74.3817 Y46.3483
G01 X74.3311 Y46.3857
G01 X74.2202 Y46.4450
G01 X74.0999 Y46.4814
G01 X73.9749 Y46.4938
G01 X49.4603 Y46.4938
G00 X49.4603 Y46.4938
G01 F60.00
G01 Z-0.4000
G01 F120.00
G01 X73.9749 Y46.4938
G01 X74.0999 Y46.4814
G01 X74.2202 Y46.4450
G01 X74.3311 Y46.3857
G01 X74.3817 Y46.3483
G01 X74.4707 Y46.2594
G01 X74.5083 Y46.2089
G01 X74.5677 Y46.0981
G01 X74.6044 Y45.9779
G01 X74.6169 Y45.8529
G01 X74.6515 Y26.2683
G00 X74.6515 Y26.2683
G01 F60.00
G01 Z-0.6000
G01 F120.00
G01 X74.6169 Y45.8529
G01 X74.6044 Y45.9779
G01 X74.5677 Y46.0981
G01 X74.5083 Y46.2089
G01 X74.4707 Y46.2594
G01 X74.3817 Y46.3483
G01 X74.3311 Y46.3857
G01 X74.2202 Y46.4450
G01 X74.0999 Y46.4814
G01 X73.9749 Y46.4938
G01 X49.4603 Y46.4938
G00 X49.4603 Y46.4938
G01 F60.00
G01 Z-0.8000
G01 F120.00
G01 X73.9749 Y46.4938
G01 X74.0999 Y46.4814
G01 X74.2202 Y46.4450
G01 X74.3311 Y46.3857
G01 X74.3817 Y46.3483
G01 X74.4707 Y46.2594
G01 X74.5083 Y46.2089
G01 X74.5677 Y46.0981
G01 X74.6044 Y45.9779
G01 X74.6169 Y45.8529
G01 X74.6515 Y26.2683
G00 X74.6515 Y26.2683
G01 F60.00
G01 Z-1.0000
G01 F120.00
G01 X74.6169 Y45.8529
G01 X74.6044 Y45.9779
G01 X74.5677 Y46.0981
G01 X74.5083 Y46.2089
G01 X74.4707 Y46.2594
G01 X74.3817 Y46.3483
G01 X74.3311 Y46.3857
G01 X74.2202 Y46.4450
G01 X74.0999 Y46.4814
G01 X73.9749 Y46.4938
G01 X49.4603 Y46.4938
G00 X49.4603 Y46.4938
G01 F60.00
G01 Z-1.2000
G01 F120.00
G01 X73.9749 Y46.4938
G01 X74.0999 Y46.4814
G01 X74.2202 Y46.4450
G01 X74.3311 Y46.3857
G01 X74.3817 Y46.3483
G01 X74.4707 Y46.2594
G01 X74.5083 Y46.2089
G01 X74.5677 Y46.0981
G01 X74.6044 Y45.9779
G01 X74.6169 Y45.8529
G01 X74.6515 Y26.2683
G00 X74.6515 Y26.2683
G01 F60.00
G01 Z-1.4000
G01 F120.00
G01 X74.6169 Y45.8529
G01 X74.6044 Y45.9779
G01 X74.5677 Y46.0981
G01 X74.5083 Y46.2089
G01 X74.4707 Y46.2594
G01 X74.3817 Y46.3483
G01 X74.3311 Y46.3857
G01 X74.2202 Y46.4450
G01 X74.0999 Y46.4814
G01 X73.9749 Y46.4938
G01 X49.4603 Y46.4938
G00 X49.4603 Y46.4938
G01 F60.00
G01 Z-1.6000
G01 F120.00
G01 X73.9749 Y46.4938
G01 X74.0999 Y46.4814
G01 X74.2202 Y46.4450
G01 X74.3311 Y46.3857
G01 X74.3817 Y46.3483
G01 X74.4707 Y46.2594
G01 X74.5083 Y46.2089
G01 X74.5677 Y46.0981
G01 X74.6044 Y45.9779
G01 X74.6169 Y45.8529
G01 X74.6515 Y26.2683
G00 X74.6515 Y26.2683
G01 F60.00
G01 Z-1.8000
G01 F120.00
G01 X74.6169 Y45.8529
G01 X74.6044 Y45.9779
G01 X74.5677 Y46.0981
G01 X74.5083 Y46.2089
G01 X74.4707 Y46.2594
G01 X74.3817 Y46.3483
G01 X74.3311 Y46.3857
G01 X74.2202 Y46.4450
G01 X74.0999 Y46.4814
G01 X73.9749 Y46.4938
G01 X49.4603 Y46.4938
G00 X49.4603 Y46.4938
G01 F60.00
G01 Z-2.0000
G01 F120.00
G01 X73.9749 Y46.4938
G01 X74.0999 Y46.4814
G01 X74.2202 Y46.4450
G01 X74.3311 Y46.3857
G01 X74.3817 Y46.3483
G01 X74.4707 Y46.2594
G01 X74.5083 Y46.2089
G01 X74.5677 Y46.0981
G01 X74.6044 Y45.9779
G01 X74.6169 Y45.8529
G01 X74.6515 Y26.2683
G00 X74.6515 Y26.2683
G01 F60.00
G01 Z-2.2000
G01 F120.00
G01 X74.6169 Y45.8529
G01 X74.6044 Y45.9779
G01 X74.5677 Y46.0981
G01 X74.5083 Y46.2089
G01 X74.4707 Y46.2594
G01 X74.3817 Y46.3483
G01 X74.3311 Y46.3857
G01 X74.2202 Y46.4450
G01 X74.0999 Y46.4814
G01 X73.9749 Y46.4938
G01 X49.4603 Y46.4938
G00 X49.4603 Y46.4938
G01 F60.00
G01 Z-2.4000
G01 F120.00
G01 X73.9749 Y46.4938
G01 X74.0999 Y46.4814
G01 X74.2202 Y46.4450
G01 X74.3311 Y46.3857
G01 X74.3817 Y46.3483
G01 X74.4707 Y46.2594
G01 X74.5083 Y46.2089
G01 X74.5677 Y46.0981
G01 X74.6044 Y45.9779
G01 X74.6169 Y45.8529
G01 X74.6515 Y26.2683
G00 Z2.0000
G00 X44.2345 Y46.4938
G01 F60.00
G01 Z-0.2000
G01 F120.00
G01 X19.7199 Y46.4938
G01 X19.5949 Y46.4814
G01 X19.4747 Y46.4450
G01 X19.4179 Y46.4181
G01 X19.3136 Y46.3483
G01 X19.2671 Y46.3060
G01 X19.1875 Y46.2089
G01 X19.1285 Y46.0981
G01 X19.0922 Y45.9779
G01 X19.0801 Y45.8529
G01 X19.1148 Y26.2683
G00 X19.1148 Y26.2683
G01 F60.00
G01 Z-0.4000
G01 F120.00
G01 X19.0801 Y45.8529
G01 X19.0922 Y45.9779
G01 X19.1285 Y46.0981
G01 X19.1875 Y46.2089
G01 X19.2671 Y46.3060
G01 X19.3136 Y46.3483
G01 X19.4179 Y46.4181
G01 X19.4747 Y46.4450
G01 X19.5949 Y46.4814
G01 X19.7199 Y46.4938
G01 X44.2345 Y46.4938
G00 X44.2345 Y46.4938
G01 F60.00
G01 Z-0.6000
G01 F120.00
G01 X19.7199 Y46.4938
G01 X19.5949 Y46.4814
G01 X19.4747 Y46.4450
G01 X19.4179 Y46.4181
G01 X19.3136 Y46.3483
G01 X19.2671 Y46.3060
G01 X19.1875 Y46.2089
G01 X19.1285 Y46.0981
G01 X19.0922 Y45.9779
G01 X19.0801 Y45.8529
G01 X19.1148 Y26.2683
G00 X19.1148 Y26.2683
G01 F60.00
G01 Z-0.8000
G01 F120.00
G01 X19.0801 Y45.8529
G01 X19.0922 Y45.9779
G01 X19.1285 Y46.0981
G01 X19.1875 Y46.2089
G01 X19.2671 Y46.3060
G01 X19.3136 Y46.3483
G01 X19.4179 Y46.4181
G01 X19.4747 Y46.4450
G01 X19.5949 Y46.4814
G01 X19.7199 Y46.4938
G01 X44.2345 Y46.4938
G00 X44.2345 Y46.4938
G01 F60.00
G01 Z-1.0000
G01 F120.00
G01 X19.7199 Y46.4938
G01 X19.5949 Y46.4814
G01 X19.4747 Y46.4450
G01 X19.4179 Y46.4181
G01 X19.3136 Y46.3483
G01 X19.2671 Y46.3060
G01 X19.1875 Y46.2089
G01 X19.1285 Y46.0981
G01 X19.0922 Y45.9779
G01 X19.0801 Y45.8529
G01 X19.1148 Y26.2683
G00 X19.1148 Y26.2683
G01 F60.00
G01 Z-1.2000
G01 F120.00
G01 X19.0801 Y45.8529
G01 X19.0922 Y45.9779
G01 X19.1285 Y46.0981
G01 X19.1875 Y46.2089
G01 X19.2671 Y46.3060
G01 X19.3136 Y46.3483
G01 X19.4179 Y46.4181
G01 X19.4747 Y46.4450
G01 X19.5949 Y46.4814
G01 X19.7199 Y46.4938
G01 X44.2345 Y46.4938
G00 X44.2345 Y46.4938
G01 F60.00
G01 Z-1.4000
G01 F120.00
G01 X19.7199 Y46.4938
G01 X19.5949 Y46.4814
G01 X19.4747 Y46.4450
G01 X19.4179 Y46.4181
G01 X19.3136 Y46.3483
G01 X19.2671 Y46.3060
G01 X19.1875 Y46.2089
G01 X19.1285 Y46.0981
G01 X19.0922 Y45.9779
G01 X19.0801 Y45.8529
G01 X19.1148 Y26.2683
G00 X19.1148 Y26.2683
G01 F60.00
G01 Z-1.6000
G01 F120.00
G01 X19.0801 Y45.8529
G01 X19.0922 Y45.9779
G01 X19.1285 Y46.0981
G01 X19.1875 Y46.2089
G01 X19.2671 Y46.3060
G01 X19.3136 Y46.3483
G01 X19.4179 Y46.4181
G01 X19.4747 Y46.4450
G01 X19.5949 Y46.4814
G01 X19.7199 Y46.4938
G01 X44.2345 Y46.4938
G00 X44.2345 Y46.4938
G01 F60.00
G01 Z-1.8000
G01 F120.00
G01 X19.7199 Y46.4938
G01 X19.5949 Y46.4814
G01 X19.4747 Y46.4450
G01 X19.4179 Y46.4181
G01 X19.3136 Y46.3483
G01 X19.2671 Y46.3060
G01 X19.1875 Y46.2089
G01 X19.1285 Y46.0981
G01 X19.0922 Y45.9779
G01 X19.0801 Y45.8529
G01 X19.1148 Y26.2683
G00 X19.1148 Y26.2683
G01 F60.00
G01 Z-2.0000
G01 F120.00
G01 X19.0801 Y45.8529
G01 X19.0922 Y45.9779
G01 X19.1285 Y46.0981
G01 X19.1875 Y46.2089
G01 X19.2671 Y46.3060
G01 X19.3136 Y46.3483
G01 X19.4179 Y46.4181
G01 X19.4747 Y46.4450
G01 X19.5949 Y46.4814
G01 X19.7199 Y46.4938
G01 X44.2345 Y46.4938
G00 X44.2345 Y46.4938
G01 F60.00
G01 Z-2.2000
G01 F120.00
G01 X19.7199 Y46.4938
G01 X19.5949 Y46.4814
G01 X19.4747 Y46.4450
G01 X19.4179 Y46.4181
G01 X19.3136 Y46.3483
G01 X19.2671 Y46.3060
G01 X19.1875 Y46.2089
G01 X19.1285 Y46.0981
G01 X19.0922 Y45.9779
G01 X19.0801 Y45.8529
G01 X19.1148 Y26.2683
G00 X19.1148 Y26.2683
G01 F60.00
G01 Z-2.4000
G01 F120.00
G01 X19.0801 Y45.8529
G01 X19.0922 Y45.9779
G01 X19.1285 Y46.0981
G01 X19.1875 Y46.2089
G01 X19.2671 Y46.3060
G01 X19.3136 Y46.3483
G01 X19.4179 Y46.4181
G01 X19.4747 Y46.4450
G01 X19.5949 Y46.4814
G01 X19.7199 Y46.4938
G01 X44.2345 Y46.4938
G00 Z2.0000
M05
G00 Z2.0000
G00 Z15.00
G00 X0.0 Y0.0


