(G-code generated by FlatCAM Evo vUnstable - Version Date: 2023/6/31)

(Name: drill bot_cnc)
(Type: G-code from Excellon)
(Units: MM)

(Created on Tuesday, 03 September 2024 at 21:09)

(This preprocessor is the default preprocessor.)
(It is made to work with MACH3 compatible motion controllers.)

(Z Toolchange: 15.0 mm)
(X,Y Toolchange: 0.0000, 0.0000 mm)
(Z Start: 2 mm)
(Z End: 15.0 mm)
(X,Y End: 0.0000, 0.0000 mm)
(Steps per circle: 16)
(Preprocessor Excellon: default)

(X range:   22.0874 ...   73.4888  mm)
(Y range:    3.0413 ...   43.8412  mm)

(Spindle Speed: 3000.0 RPM)
G21
G90
G94
G01 F60.00


M5
G00 Z2.0000
T1
G00 X0.0000 Y0.0000                
M6
(MSG, Change to Tool Dia = 0.8000 ||| Total drills for tool T1 = 80)
M0
G00 Z2.0000

G01 F60.00
M03 S3000.0
G00 X22.1726 Y4.7735
G01 Z-2.4000
G00 Z2.0000
G00 X24.6869 Y4.7735
G01 Z-2.4000
G00 Z2.0000
G00 X27.1519 Y4.7735
G01 Z-2.4000
G00 Z2.0000
G00 X29.6662 Y4.7735
G01 Z-2.4000
G00 Z2.0000
G00 X32.1805 Y4.7735
G01 Z-2.4000
G00 Z2.0000
G00 X34.6948 Y4.7735
G01 Z-2.4000
G00 Z2.0000
G00 X37.2090 Y4.7735
G01 Z-2.4000
G00 Z2.0000
G00 X39.6740 Y4.7735
G01 Z-2.4000
G00 Z2.0000
G00 X40.5027 Y10.0979
G01 Z-2.4000
G00 Z2.0000
G00 X37.9884 Y10.0979
G01 Z-2.4000
G00 Z2.0000
G00 X35.4248 Y10.0979
G01 Z-2.4000
G00 Z2.0000
G00 X32.8612 Y10.0979
G01 Z-2.4000
G00 Z2.0000
G00 X30.2976 Y10.1472
G01 Z-2.4000
G00 Z2.0000
G00 X27.7340 Y10.1472
G01 Z-2.4000
G00 Z2.0000
G00 X25.2198 Y10.0979
G01 Z-2.4000
G00 Z2.0000
G00 X22.6561 Y10.1472
G01 Z-2.4000
G00 Z2.0000
G00 X32.0646 Y14.5349
G01 Z-2.4000
G00 Z2.0000
G00 X32.0602 Y17.0492
G01 Z-2.4000
G00 Z2.0000
G00 X32.0557 Y19.5635
G01 Z-2.4000
G00 Z2.0000
G00 X32.0514 Y22.0285
G01 Z-2.4000
G00 Z2.0000
G00 X40.0313 Y25.7753
G01 Z-2.4000
G00 Z2.0000
G00 X41.0133 Y28.0431
G01 Z-2.4000
G00 Z2.0000
G00 X47.1736 Y29.2756
G01 Z-2.4000
G00 Z2.0000
G00 X48.1473 Y36.2761
G01 Z-2.4000
G00 Z2.0000
G00 X50.7109 Y36.2761
G01 Z-2.4000
G00 Z2.0000
G00 X53.2744 Y36.2761
G01 Z-2.4000
G00 Z2.0000
G00 X55.7887 Y36.2761
G01 Z-2.4000
G00 Z2.0000
G00 X58.3523 Y36.2761
G01 Z-2.4000
G00 Z2.0000
G00 X50.6500 Y42.8330
G01 Z-2.4000
G00 Z2.0000
G00 X45.5228 Y42.8330
G01 Z-2.4000
G00 Z2.0000
G00 X43.0578 Y42.8330
G01 Z-2.4000
G00 Z2.0000
G00 X43.0202 Y36.2268
G01 Z-2.4000
G00 Z2.0000
G00 X40.4566 Y36.2268
G01 Z-2.4000
G00 Z2.0000
G00 X37.9423 Y36.2268
G01 Z-2.4000
G00 Z2.0000
G00 X35.3787 Y36.2268
G01 Z-2.4000
G00 Z2.0000
G00 X32.8151 Y36.2268
G01 Z-2.4000
G00 Z2.0000
G00 X30.2515 Y36.2268
G01 Z-2.4000
G00 Z2.0000
G00 X27.7372 Y36.2268
G01 Z-2.4000
G00 Z2.0000
G00 X25.1736 Y36.2268
G01 Z-2.4000
G00 Z2.0000
G00 X22.6100 Y36.2268
G01 Z-2.4000
G00 Z2.0000
G00 X22.9490 Y39.6778
G01 Z-2.4000
G00 Z2.0000
G00 X22.9445 Y42.1921
G01 Z-2.4000
G00 Z2.0000
G00 X26.6908 Y42.4879
G01 Z-2.4000
G00 Z2.0000
G00 X35.6140 Y42.5372
G01 Z-2.4000
G00 Z2.0000
G00 X45.5837 Y36.2761
G01 Z-2.4000
G00 Z2.0000
G00 X47.1864 Y22.0285
G01 Z-2.4000
G00 Z2.0000
G00 X47.1908 Y19.5635
G01 Z-2.4000
G00 Z2.0000
G00 X47.1952 Y17.0492
G01 Z-2.4000
G00 Z2.0000
G00 X47.1997 Y14.5349
G01 Z-2.4000
G00 Z2.0000
G00 X50.9421 Y16.9999
G01 Z-2.4000
G00 Z2.0000
G00 X57.2977 Y19.3170
G01 Z-2.4000
G00 Z2.0000
G00 X61.9862 Y16.5069
G01 Z-2.4000
G00 Z2.0000
G00 X61.9906 Y13.9926
G01 Z-2.4000
G00 Z2.0000
G00 X61.9951 Y11.4783
G01 Z-2.4000
G00 Z2.0000
G00 X61.9995 Y8.9640
G01 Z-2.4000
G00 Z2.0000
G00 X62.0039 Y6.4990
G01 Z-2.4000
G00 Z2.0000
G00 X62.0576 Y3.9847
G01 Z-2.4000
G00 Z2.0000
G00 X58.3986 Y10.0979
G01 Z-2.4000
G00 Z2.0000
G00 X55.8350 Y10.0979
G01 Z-2.4000
G00 Z2.0000
G00 X53.2714 Y10.0979
G01 Z-2.4000
G00 Z2.0000
G00 X50.7571 Y10.0979
G01 Z-2.4000
G00 Z2.0000
G00 X48.1935 Y10.0979
G01 Z-2.4000
G00 Z2.0000
G00 X45.6299 Y10.0979
G01 Z-2.4000
G00 Z2.0000
G00 X43.0663 Y10.0979
G01 Z-2.4000
G00 Z2.0000
G00 X39.7091 Y12.8094
G01 Z-2.4000
G00 Z2.0000
G00 X45.7897 Y3.3931
G01 Z-2.4000
G00 Z2.0000
G00 X64.6580 Y11.0839
G01 Z-2.4000
G00 Z2.0000
G00 X66.3321 Y12.2671
G01 Z-2.4000
G00 Z2.0000
G00 X66.3260 Y15.7181
G01 Z-2.4000
G00 Z2.0000
G00 X66.9143 Y17.5422
G01 Z-2.4000
G00 Z2.0000
G00 X72.0434 Y16.4576
G01 Z-2.4000
G00 Z2.0000
G00 X72.0479 Y13.9433
G01 Z-2.4000
G00 Z2.0000
G00 X72.0523 Y11.4290
G01 Z-2.4000
G00 Z2.0000
G00 X72.0568 Y8.9147
G01 Z-2.4000
G00 Z2.0000
G00 X72.0611 Y6.4497
G01 Z-2.4000
G00 Z2.0000
G00 X72.0656 Y3.9354
G01 Z-2.4000
G00 Z2.0000
G00 X70.9938 Y24.5921
G01 Z-2.4000
G00 Z2.0000
G00 X67.9372 Y24.5921
G01 Z-2.4000
G00 Z2.0000
G00 X65.8663 Y24.7400
G01 Z-2.4000
G00 Z2.0000
G00 X62.8097 Y24.7400
G01 Z-2.4000
G00 Z2.0000
M05
G00 Z15.00
G00 X0.0 Y0.0


