(G-code generated by FlatCAM Evo vUnstable - Version Date: 2023/6/31)

(Name: PCB1_VSSS_Copper_Signal_Bot.gbr_iso_cnc)
(Type: G-code from Geometry)
(Units: MM)

(Created on Tuesday, 03 September 2024 at 21:09)

(This preprocessor is the default preprocessor.)
(It is made to work with MACH3 compatible motion controllers.)

(TOOL DIAMETER: 0.5 mm)
(Feedrate_XY: 120.0 mm/min)
(Feedrate_Z: 60.0 mm/min)
(Feedrate rapids 1500.0 mm/min)

(Z_Cut: -0.15 mm)
(DepthPerCut: 0.05 mm <=>3 passes)
(Z_Move: 2.0 mm)
(Z Start: None mm)
(Z End: 15.0 mm)
(X,Y End: 0.0000, 0.0000 mm)
(Steps per circle: 16)
(Preprocessor Geometry: default)

(X range:   19.7638 ...   75.3432  mm)
(Y range:    1.2413 ...   46.7412  mm)

(Spindle Speed: 3000.0 RPM)
G21
G90
G94

G01 F120.00

M5
G00 Z15.0000
G00 X0.0000 Y0.0000
T1
M6    
(MSG, Change to Tool Dia = 0.5000)
M0
G00 Z15.0000

M03 S3000.0
G01 F120.00
G00 X22.3568 Y3.8064
G01 F60.00
G01 Z-0.0500
G01 F120.00
G01 X22.1645 Y3.7875
G01 X21.9721 Y3.8064
G01 X21.7870 Y3.8626
G01 X21.6164 Y3.9537
G01 X21.4667 Y4.0763
G01 X21.3439 Y4.2257
G01 X21.2524 Y4.3962
G01 X21.1960 Y4.5811
G01 X21.1767 Y4.7735
G01 X21.1953 Y4.9659
G01 X21.2511 Y5.1508
G01 X21.3419 Y5.3213
G01 X21.4643 Y5.4707
G01 X21.6135 Y5.5933
G01 X21.7838 Y5.6844
G01 X21.9686 Y5.7405
G01 X22.1610 Y5.7595
G01 X22.3534 Y5.7405
G01 X22.5384 Y5.6844
G01 X22.7091 Y5.5933
G01 X22.8587 Y5.4707
G01 X22.9816 Y5.3213
G01 X23.0730 Y5.1508
G01 X23.1294 Y4.9659
G01 X23.1487 Y4.7735
G01 X23.1301 Y4.5811
G01 X23.0743 Y4.3962
G01 X22.9835 Y4.2257
G01 X22.8612 Y4.0763
G01 X22.7120 Y3.9537
G01 X22.5417 Y3.8626
G01 X22.3568 Y3.8064
G00 Z2.0000
G00 X22.7998 Y4.0258
G01 F60.00
G01 Z-0.0500
G01 F120.00
G01 X22.7120 Y3.9537
G01 X22.5417 Y3.8626
G01 X22.3568 Y3.8064
G01 X21.9721 Y3.8064
G01 X22.1645 Y3.7875
G01 X22.3568 Y3.8064
G00 X22.3568 Y3.8064
G01 F60.00
G01 Z-0.1000
G01 F120.00
G01 X22.5417 Y3.8626
G01 X22.7120 Y3.9537
G01 X22.8612 Y4.0763
G01 X22.9835 Y4.2257
G01 X23.0743 Y4.3962
G01 X23.1301 Y4.5811
G01 X23.1487 Y4.7735
G01 X23.1294 Y4.9659
G01 X23.0730 Y5.1508
G01 X22.9816 Y5.3213
G01 X22.8587 Y5.4707
G01 X22.7091 Y5.5933
G01 X22.5384 Y5.6844
G01 X22.3534 Y5.7405
G01 X22.1610 Y5.7595
G01 X21.9686 Y5.7405
G01 X21.7838 Y5.6844
G01 X21.6135 Y5.5933
G01 X21.4643 Y5.4707
G01 X21.3419 Y5.3213
G01 X21.2511 Y5.1508
G01 X21.1953 Y4.9659
G01 X21.1767 Y4.7735
G01 X21.1960 Y4.5811
G01 X21.2524 Y4.3962
G01 X21.3439 Y4.2257
G01 X21.4667 Y4.0763
G01 X21.6164 Y3.9537
G01 X21.7870 Y3.8626
G01 X21.9721 Y3.8064
G01 X22.1645 Y3.7875
G01 X22.3568 Y3.8064
G00 Z2.0000
G00 X21.8635 Y3.8394
G01 F60.00
G01 Z-0.1000
G01 F120.00
G01 X21.9721 Y3.8064
G01 X22.1645 Y3.7875
G01 X22.3568 Y3.8064
G01 X22.7120 Y3.9537
G01 X22.5417 Y3.8626
G01 X22.3568 Y3.8064
G00 X22.3568 Y3.8064
G01 F60.00
G01 Z-0.1500
G01 F120.00
G01 X22.1645 Y3.7875
G01 X21.9721 Y3.8064
G01 X21.7870 Y3.8626
G01 X21.6164 Y3.9537
G01 X21.4667 Y4.0763
G01 X21.3439 Y4.2257
G01 X21.2524 Y4.3962
G01 X21.1960 Y4.5811
G01 X21.1767 Y4.7735
G01 X21.1953 Y4.9659
G01 X21.2511 Y5.1508
G01 X21.3419 Y5.3213
G01 X21.4643 Y5.4707
G01 X21.6135 Y5.5933
G01 X21.7838 Y5.6844
G01 X21.9686 Y5.7405
G01 X22.1610 Y5.7595
G01 X22.3534 Y5.7405
G01 X22.5384 Y5.6844
G01 X22.7091 Y5.5933
G01 X22.8587 Y5.4707
G01 X22.9816 Y5.3213
G01 X23.0730 Y5.1508
G01 X23.1294 Y4.9659
G01 X23.1487 Y4.7735
G01 X23.1301 Y4.5811
G01 X23.0743 Y4.3962
G01 X22.9835 Y4.2257
G01 X22.8612 Y4.0763
G01 X22.7120 Y3.9537
G01 X22.5417 Y3.8626
G01 X22.3568 Y3.8064
G00 Z2.0000
G00 X22.7998 Y4.0258
G01 F60.00
G01 Z-0.1500
G01 F120.00
G01 X22.7120 Y3.9537
G01 X22.5417 Y3.8626
G01 X22.3568 Y3.8064
G01 X21.9721 Y3.8064
G01 X22.1645 Y3.7875
G01 X22.3568 Y3.8064
G00 Z2.0000
G00 X24.8612 Y3.8064
G01 F60.00
G01 Z-0.0500
G01 F120.00
G01 X24.6689 Y3.7875
G01 X24.4765 Y3.8064
G01 X24.2914 Y3.8626
G01 X24.1208 Y3.9537
G01 X23.9712 Y4.0763
G01 X23.8483 Y4.2257
G01 X23.7569 Y4.3962
G01 X23.7004 Y4.5811
G01 X23.6812 Y4.7735
G01 X23.6998 Y4.9659
G01 X23.7555 Y5.1508
G01 X23.8464 Y5.3213
G01 X23.9687 Y5.4707
G01 X24.1179 Y5.5933
G01 X24.2882 Y5.6844
G01 X24.4731 Y5.7405
G01 X24.6654 Y5.7595
G01 X24.8578 Y5.7405
G01 X25.0429 Y5.6844
G01 X25.2135 Y5.5933
G01 X25.3631 Y5.4707
G01 X25.4860 Y5.3213
G01 X25.5774 Y5.1508
G01 X25.6339 Y4.9659
G01 X25.6531 Y4.7735
G01 X25.6345 Y4.5811
G01 X25.5788 Y4.3962
G01 X25.4879 Y4.2257
G01 X25.3656 Y4.0763
G01 X25.2164 Y3.9537
G01 X25.0461 Y3.8626
G01 X24.8612 Y3.8064
G00 Z2.0000
G00 X25.3042 Y4.0258
G01 F60.00
G01 Z-0.0500
G01 F120.00
G01 X25.2164 Y3.9537
G01 X25.0461 Y3.8626
G01 X24.8612 Y3.8064
G01 X24.4765 Y3.8064
G01 X24.6689 Y3.7875
G01 X24.8612 Y3.8064
G00 X24.8612 Y3.8064
G01 F60.00
G01 Z-0.1000
G01 F120.00
G01 X25.0461 Y3.8626
G01 X25.2164 Y3.9537
G01 X25.3656 Y4.0763
G01 X25.4879 Y4.2257
G01 X25.5788 Y4.3962
G01 X25.6345 Y4.5811
G01 X25.6531 Y4.7735
G01 X25.6339 Y4.9659
G01 X25.5774 Y5.1508
G01 X25.4860 Y5.3213
G01 X25.3631 Y5.4707
G01 X25.2135 Y5.5933
G01 X25.0429 Y5.6844
G01 X24.8578 Y5.7405
G01 X24.6654 Y5.7595
G01 X24.4731 Y5.7405
G01 X24.2882 Y5.6844
G01 X24.1179 Y5.5933
G01 X23.9687 Y5.4707
G01 X23.8464 Y5.3213
G01 X23.7555 Y5.1508
G01 X23.6998 Y4.9659
G01 X23.6812 Y4.7735
G01 X23.7004 Y4.5811
G01 X23.7569 Y4.3962
G01 X23.8483 Y4.2257
G01 X23.9712 Y4.0763
G01 X24.1208 Y3.9537
G01 X24.2914 Y3.8626
G01 X24.4765 Y3.8064
G01 X24.6689 Y3.7875
G01 X24.8612 Y3.8064
G00 Z2.0000
G00 X24.3680 Y3.8394
G01 F60.00
G01 Z-0.1000
G01 F120.00
G01 X24.4765 Y3.8064
G01 X24.6689 Y3.7875
G01 X24.8612 Y3.8064
G01 X25.2164 Y3.9537
G01 X25.0461 Y3.8626
G01 X24.8612 Y3.8064
G00 X24.8612 Y3.8064
G01 F60.00
G01 Z-0.1500
G01 F120.00
G01 X24.6689 Y3.7875
G01 X24.4765 Y3.8064
G01 X24.2914 Y3.8626
G01 X24.1208 Y3.9537
G01 X23.9712 Y4.0763
G01 X23.8483 Y4.2257
G01 X23.7569 Y4.3962
G01 X23.7004 Y4.5811
G01 X23.6812 Y4.7735
G01 X23.6998 Y4.9659
G01 X23.7555 Y5.1508
G01 X23.8464 Y5.3213
G01 X23.9687 Y5.4707
G01 X24.1179 Y5.5933
G01 X24.2882 Y5.6844
G01 X24.4731 Y5.7405
G01 X24.6654 Y5.7595
G01 X24.8578 Y5.7405
G01 X25.0429 Y5.6844
G01 X25.2135 Y5.5933
G01 X25.3631 Y5.4707
G01 X25.4860 Y5.3213
G01 X25.5774 Y5.1508
G01 X25.6339 Y4.9659
G01 X25.6531 Y4.7735
G01 X25.6345 Y4.5811
G01 X25.5788 Y4.3962
G01 X25.4879 Y4.2257
G01 X25.3656 Y4.0763
G01 X25.2164 Y3.9537
G01 X25.0461 Y3.8626
G01 X24.8612 Y3.8064
G00 Z2.0000
G00 X25.3042 Y4.0258
G01 F60.00
G01 Z-0.1500
G01 F120.00
G01 X25.2164 Y3.9537
G01 X25.0461 Y3.8626
G01 X24.8612 Y3.8064
G01 X24.4765 Y3.8064
G01 X24.6689 Y3.7875
G01 X24.8612 Y3.8064
G00 Z2.0000
G00 X27.3775 Y3.8091
G01 F60.00
G01 Z-0.0500
G01 F120.00
G01 X27.2700 Y3.7922
G01 X27.1733 Y3.7875
G01 X26.9809 Y3.8064
G01 X26.7959 Y3.8626
G01 X26.6252 Y3.9537
G01 X26.4756 Y4.0763
G01 X26.3527 Y4.2257
G01 X26.2613 Y4.3962
G01 X26.2049 Y4.5811
G01 X26.1856 Y4.7735
G01 X26.2042 Y4.9659
G01 X26.2600 Y5.1508
G01 X26.3508 Y5.3213
G01 X26.4731 Y5.4707
G01 X26.6223 Y5.5933
G01 X26.7926 Y5.6844
G01 X26.9775 Y5.7405
G01 X27.1698 Y5.7595
G01 X27.3622 Y5.7405
G01 X27.5473 Y5.6844
G01 X27.7179 Y5.5933
G01 X27.8676 Y5.4707
G01 X27.9904 Y5.3213
G01 X28.0819 Y5.1508
G01 X28.1383 Y4.9659
G01 X28.1576 Y4.7735
G01 X28.1390 Y4.5811
G01 X28.0832 Y4.3962
G01 X27.9924 Y4.2257
G01 X27.8700 Y4.0763
G01 X27.7208 Y3.9537
G01 X27.5505 Y3.8626
G01 X27.3775 Y3.8091
G00 Z2.0000
G00 X27.8179 Y4.0335
G01 F60.00
G01 Z-0.0500
G01 F120.00
G01 X27.7208 Y3.9537
G01 X27.5505 Y3.8626
G01 X27.3775 Y3.8091
G01 X26.9809 Y3.8064
G01 X27.1733 Y3.7875
G01 X27.2700 Y3.7922
G01 X27.3775 Y3.8091
G00 X27.3775 Y3.8091
G01 F60.00
G01 Z-0.1000
G01 F120.00
G01 X27.5505 Y3.8626
G01 X27.7208 Y3.9537
G01 X27.8700 Y4.0763
G01 X27.9924 Y4.2257
G01 X28.0832 Y4.3962
G01 X28.1390 Y4.5811
G01 X28.1576 Y4.7735
G01 X28.1383 Y4.9659
G01 X28.0819 Y5.1508
G01 X27.9904 Y5.3213
G01 X27.8676 Y5.4707
G01 X27.7179 Y5.5933
G01 X27.5473 Y5.6844
G01 X27.3622 Y5.7405
G01 X27.1698 Y5.7595
G01 X26.9775 Y5.7405
G01 X26.7926 Y5.6844
G01 X26.6223 Y5.5933
G01 X26.4731 Y5.4707
G01 X26.3508 Y5.3213
G01 X26.2600 Y5.1508
G01 X26.2042 Y4.9659
G01 X26.1856 Y4.7735
G01 X26.2049 Y4.5811
G01 X26.2613 Y4.3962
G01 X26.3527 Y4.2257
G01 X26.4756 Y4.0763
G01 X26.6252 Y3.9537
G01 X26.7959 Y3.8626
G01 X26.9809 Y3.8064
G01 X27.1733 Y3.7875
G01 X27.2700 Y3.7922
G01 X27.3775 Y3.8091
G00 Z2.0000
G00 X26.8842 Y3.8358
G01 F60.00
G01 Z-0.1000
G01 F120.00
G01 X26.9809 Y3.8064
G01 X27.1733 Y3.7875
G01 X27.2700 Y3.7922
G01 X27.3775 Y3.8091
G01 X27.7208 Y3.9537
G01 X27.5505 Y3.8626
G01 X27.3775 Y3.8091
G00 X27.3775 Y3.8091
G01 F60.00
G01 Z-0.1500
G01 F120.00
G01 X27.2700 Y3.7922
G01 X27.1733 Y3.7875
G01 X26.9809 Y3.8064
G01 X26.7959 Y3.8626
G01 X26.6252 Y3.9537
G01 X26.4756 Y4.0763
G01 X26.3527 Y4.2257
G01 X26.2613 Y4.3962
G01 X26.2049 Y4.5811
G01 X26.1856 Y4.7735
G01 X26.2042 Y4.9659
G01 X26.2600 Y5.1508
G01 X26.3508 Y5.3213
G01 X26.4731 Y5.4707
G01 X26.6223 Y5.5933
G01 X26.7926 Y5.6844
G01 X26.9775 Y5.7405
G01 X27.1698 Y5.7595
G01 X27.3622 Y5.7405
G01 X27.5473 Y5.6844
G01 X27.7179 Y5.5933
G01 X27.8676 Y5.4707
G01 X27.9904 Y5.3213
G01 X28.0819 Y5.1508
G01 X28.1383 Y4.9659
G01 X28.1576 Y4.7735
G01 X28.1390 Y4.5811
G01 X28.0832 Y4.3962
G01 X27.9924 Y4.2257
G01 X27.8700 Y4.0763
G01 X27.7208 Y3.9537
G01 X27.5505 Y3.8626
G01 X27.3775 Y3.8091
G00 Z2.0000
G00 X27.8179 Y4.0335
G01 F60.00
G01 Z-0.1500
G01 F120.00
G01 X27.7208 Y3.9537
G01 X27.5505 Y3.8626
G01 X27.3775 Y3.8091
G01 X26.9809 Y3.8064
G01 X27.1733 Y3.7875
G01 X27.2700 Y3.7922
G01 X27.3775 Y3.8091
G00 Z2.0000
G00 X29.8701 Y3.8064
G01 F60.00
G01 Z-0.0500
G01 F120.00
G01 X29.6778 Y3.7875
G01 X29.4854 Y3.8064
G01 X29.3003 Y3.8626
G01 X29.1297 Y3.9537
G01 X28.9801 Y4.0763
G01 X28.8572 Y4.2257
G01 X28.7657 Y4.3962
G01 X28.7093 Y4.5811
G01 X28.6900 Y4.7735
G01 X28.7086 Y4.9659
G01 X28.7644 Y5.1508
G01 X28.8552 Y5.3213
G01 X28.9776 Y5.4707
G01 X29.1268 Y5.5933
G01 X29.2971 Y5.6844
G01 X29.4820 Y5.7405
G01 X29.6743 Y5.7595
G01 X29.8667 Y5.7405
G01 X30.0517 Y5.6844
G01 X30.2224 Y5.5933
G01 X30.3720 Y5.4707
G01 X30.4949 Y5.3213
G01 X30.5863 Y5.1508
G01 X30.6427 Y4.9659
G01 X30.6620 Y4.7735
G01 X30.6434 Y4.5811
G01 X30.5876 Y4.3962
G01 X30.4968 Y4.2257
G01 X30.3745 Y4.0763
G01 X30.2253 Y3.9537
G01 X30.0550 Y3.8626
G01 X29.8701 Y3.8064
G00 Z2.0000
G00 X30.3131 Y4.0258
G01 F60.00
G01 Z-0.0500
G01 F120.00
G01 X30.2253 Y3.9537
G01 X30.0550 Y3.8626
G01 X29.8701 Y3.8064
G01 X29.4854 Y3.8064
G01 X29.6778 Y3.7875
G01 X29.8701 Y3.8064
G00 X29.8701 Y3.8064
G01 F60.00
G01 Z-0.1000
G01 F120.00
G01 X30.0550 Y3.8626
G01 X30.2253 Y3.9537
G01 X30.3745 Y4.0763
G01 X30.4968 Y4.2257
G01 X30.5876 Y4.3962
G01 X30.6434 Y4.5811
G01 X30.6620 Y4.7735
G01 X30.6427 Y4.9659
G01 X30.5863 Y5.1508
G01 X30.4949 Y5.3213
G01 X30.3720 Y5.4707
G01 X30.2224 Y5.5933
G01 X30.0517 Y5.6844
G01 X29.8667 Y5.7405
G01 X29.6743 Y5.7595
G01 X29.4820 Y5.7405
G01 X29.2971 Y5.6844
G01 X29.1268 Y5.5933
G01 X28.9776 Y5.4707
G01 X28.8552 Y5.3213
G01 X28.7644 Y5.1508
G01 X28.7086 Y4.9659
G01 X28.6900 Y4.7735
G01 X28.7093 Y4.5811
G01 X28.7657 Y4.3962
G01 X28.8572 Y4.2257
G01 X28.9801 Y4.0763
G01 X29.1297 Y3.9537
G01 X29.3003 Y3.8626
G01 X29.4854 Y3.8064
G01 X29.6778 Y3.7875
G01 X29.8701 Y3.8064
G00 Z2.0000
G00 X29.3768 Y3.8394
G01 F60.00
G01 Z-0.1000
G01 F120.00
G01 X29.4854 Y3.8064
G01 X29.6778 Y3.7875
G01 X29.8701 Y3.8064
G01 X30.2253 Y3.9537
G01 X30.0550 Y3.8626
G01 X29.8701 Y3.8064
G00 X29.8701 Y3.8064
G01 F60.00
G01 Z-0.1500
G01 F120.00
G01 X29.6778 Y3.7875
G01 X29.4854 Y3.8064
G01 X29.3003 Y3.8626
G01 X29.1297 Y3.9537
G01 X28.9801 Y4.0763
G01 X28.8572 Y4.2257
G01 X28.7657 Y4.3962
G01 X28.7093 Y4.5811
G01 X28.6900 Y4.7735
G01 X28.7086 Y4.9659
G01 X28.7644 Y5.1508
G01 X28.8552 Y5.3213
G01 X28.9776 Y5.4707
G01 X29.1268 Y5.5933
G01 X29.2971 Y5.6844
G01 X29.4820 Y5.7405
G01 X29.6743 Y5.7595
G01 X29.8667 Y5.7405
G01 X30.0517 Y5.6844
G01 X30.2224 Y5.5933
G01 X30.3720 Y5.4707
G01 X30.4949 Y5.3213
G01 X30.5863 Y5.1508
G01 X30.6427 Y4.9659
G01 X30.6620 Y4.7735
G01 X30.6434 Y4.5811
G01 X30.5876 Y4.3962
G01 X30.4968 Y4.2257
G01 X30.3745 Y4.0763
G01 X30.2253 Y3.9537
G01 X30.0550 Y3.8626
G01 X29.8701 Y3.8064
G00 Z2.0000
G00 X30.3131 Y4.0258
G01 F60.00
G01 Z-0.1500
G01 F120.00
G01 X30.2253 Y3.9537
G01 X30.0550 Y3.8626
G01 X29.8701 Y3.8064
G01 X29.4854 Y3.8064
G01 X29.6778 Y3.7875
G01 X29.8701 Y3.8064
G00 Z2.0000
G00 X34.8908 Y3.8091
G01 F60.00
G01 Z-0.0500
G01 F120.00
G01 X34.7833 Y3.7922
G01 X34.6866 Y3.7875
G01 X34.4942 Y3.8064
G01 X34.3092 Y3.8626
G01 X34.1386 Y3.9537
G01 X33.9889 Y4.0763
G01 X33.8660 Y4.2257
G01 X33.7746 Y4.3962
G01 X33.7182 Y4.5811
G01 X33.6989 Y4.7735
G01 X33.7175 Y4.9659
G01 X33.7733 Y5.1508
G01 X33.8641 Y5.3213
G01 X33.9865 Y5.4707
G01 X34.1357 Y5.5933
G01 X34.3060 Y5.6844
G01 X34.4908 Y5.7405
G01 X34.6832 Y5.7595
G01 X34.8755 Y5.7405
G01 X35.0606 Y5.6844
G01 X35.2312 Y5.5933
G01 X35.3809 Y5.4707
G01 X35.5038 Y5.3213
G01 X35.5952 Y5.1508
G01 X35.6516 Y4.9659
G01 X35.6709 Y4.7735
G01 X35.6523 Y4.5811
G01 X35.5965 Y4.3962
G01 X35.5057 Y4.2257
G01 X35.3833 Y4.0763
G01 X35.2341 Y3.9537
G01 X35.0638 Y3.8626
G01 X34.8908 Y3.8091
G00 Z2.0000
G00 X35.3313 Y4.0335
G01 F60.00
G01 Z-0.0500
G01 F120.00
G01 X35.2341 Y3.9537
G01 X35.0638 Y3.8626
G01 X34.8908 Y3.8091
G01 X34.4942 Y3.8064
G01 X34.6866 Y3.7875
G01 X34.7833 Y3.7922
G01 X34.8908 Y3.8091
G00 X34.8908 Y3.8091
G01 F60.00
G01 Z-0.1000
G01 F120.00
G01 X35.0638 Y3.8626
G01 X35.2341 Y3.9537
G01 X35.3833 Y4.0763
G01 X35.5057 Y4.2257
G01 X35.5965 Y4.3962
G01 X35.6523 Y4.5811
G01 X35.6709 Y4.7735
G01 X35.6516 Y4.9659
G01 X35.5952 Y5.1508
G01 X35.5038 Y5.3213
G01 X35.3809 Y5.4707
G01 X35.2312 Y5.5933
G01 X35.0606 Y5.6844
G01 X34.8755 Y5.7405
G01 X34.6832 Y5.7595
G01 X34.4908 Y5.7405
G01 X34.3060 Y5.6844
G01 X34.1357 Y5.5933
G01 X33.9865 Y5.4707
G01 X33.8641 Y5.3213
G01 X33.7733 Y5.1508
G01 X33.7175 Y4.9659
G01 X33.6989 Y4.7735
G01 X33.7182 Y4.5811
G01 X33.7746 Y4.3962
G01 X33.8660 Y4.2257
G01 X33.9889 Y4.0763
G01 X34.1386 Y3.9537
G01 X34.3092 Y3.8626
G01 X34.4942 Y3.8064
G01 X34.6866 Y3.7875
G01 X34.7833 Y3.7922
G01 X34.8908 Y3.8091
G00 Z2.0000
G00 X34.3975 Y3.8358
G01 F60.00
G01 Z-0.1000
G01 F120.00
G01 X34.4942 Y3.8064
G01 X34.6866 Y3.7875
G01 X34.7833 Y3.7922
G01 X34.8908 Y3.8091
G01 X35.2341 Y3.9537
G01 X35.0638 Y3.8626
G01 X34.8908 Y3.8091
G00 X34.8908 Y3.8091
G01 F60.00
G01 Z-0.1500
G01 F120.00
G01 X34.7833 Y3.7922
G01 X34.6866 Y3.7875
G01 X34.4942 Y3.8064
G01 X34.3092 Y3.8626
G01 X34.1386 Y3.9537
G01 X33.9889 Y4.0763
G01 X33.8660 Y4.2257
G01 X33.7746 Y4.3962
G01 X33.7182 Y4.5811
G01 X33.6989 Y4.7735
G01 X33.7175 Y4.9659
G01 X33.7733 Y5.1508
G01 X33.8641 Y5.3213
G01 X33.9865 Y5.4707
G01 X34.1357 Y5.5933
G01 X34.3060 Y5.6844
G01 X34.4908 Y5.7405
G01 X34.6832 Y5.7595
G01 X34.8755 Y5.7405
G01 X35.0606 Y5.6844
G01 X35.2312 Y5.5933
G01 X35.3809 Y5.4707
G01 X35.5038 Y5.3213
G01 X35.5952 Y5.1508
G01 X35.6516 Y4.9659
G01 X35.6709 Y4.7735
G01 X35.6523 Y4.5811
G01 X35.5965 Y4.3962
G01 X35.5057 Y4.2257
G01 X35.3833 Y4.0763
G01 X35.2341 Y3.9537
G01 X35.0638 Y3.8626
G01 X34.8908 Y3.8091
G00 Z2.0000
G00 X35.3313 Y4.0335
G01 F60.00
G01 Z-0.1500
G01 F120.00
G01 X35.2341 Y3.9537
G01 X35.0638 Y3.8626
G01 X34.8908 Y3.8091
G01 X34.4942 Y3.8064
G01 X34.6866 Y3.7875
G01 X34.7833 Y3.7922
G01 X34.8908 Y3.8091
G00 Z2.0000
G00 X34.0790 Y10.6095
G01 F60.00
G01 Z-0.0500
G01 F120.00
G01 X34.0970 Y10.4898
G01 X34.1030 Y10.3751
G01 X34.1039 Y9.8700
G01 X34.0968 Y9.7432
G01 X34.0807 Y9.6356
G01 X34.0548 Y9.5299
G01 X34.0061 Y9.3933
G01 X33.9595 Y9.2950
G01 X33.8975 Y9.1913
G01 X33.8256 Y9.0942
G01 X33.7529 Y9.0133
G01 X33.6130 Y8.8917
G01 X33.6190 Y5.4736
G01 X33.6141 Y5.3890
G01 X33.5876 Y5.2588
G01 X33.5323 Y5.1248
G01 X33.4594 Y5.0138
G01 X33.1638 Y4.7105
G01 X33.1478 Y4.5811
G01 X33.1245 Y4.4873
G01 X33.0509 Y4.3087
G01 X32.9438 Y4.1480
G01 X32.8073 Y4.0113
G01 X32.7297 Y3.9537
G01 X32.6360 Y3.8985
G01 X32.4798 Y3.8337
G01 X32.3745 Y3.8064
G01 X32.2668 Y3.7914
G01 X32.0976 Y3.7914
G01 X31.9898 Y3.8064
G01 X31.8959 Y3.8300
G01 X31.7280 Y3.8985
G01 X31.6341 Y3.9537
G01 X31.4933 Y4.0679
G01 X31.4119 Y4.1575
G01 X31.3117 Y4.3087
G01 X31.2412 Y4.4758
G01 X31.2117 Y4.5931
G01 X31.1948 Y4.7614
G01 X31.1990 Y4.8701
G01 X31.2131 Y4.9659
G01 X31.2688 Y5.1508
G01 X31.3597 Y5.3213
G01 X31.4737 Y5.4619
G01 X31.5631 Y5.5431
G01 X31.7249 Y5.6485
G01 X31.9042 Y5.7203
G01 X31.9983 Y5.7426
G01 X32.1158 Y5.7567
G01 X32.1390 Y5.7800
G01 X32.1335 Y8.8917
G01 X31.9932 Y9.0133
G01 X31.9201 Y9.0942
G01 X31.8479 Y9.1913
G01 X31.7856 Y9.2950
G01 X31.7337 Y9.4044
G01 X31.6927 Y9.5183
G01 X31.6658 Y9.6238
G01 X31.6451 Y9.7552
G01 X31.6391 Y9.8700
G01 X31.6382 Y10.3751
G01 X31.6438 Y10.4898
G01 X31.6593 Y10.5976
G01 X31.6906 Y10.7268
G01 X31.7311 Y10.8407
G01 X31.7772 Y10.9392
G01 X31.8516 Y11.0637
G01 X31.9165 Y11.1509
G01 X31.9976 Y11.2405
G01 X32.0871 Y11.3218
G01 X32.1742 Y11.3869
G01 X32.2985 Y11.4614
G01 X32.3970 Y11.5077
G01 X32.5108 Y11.5485
G01 X32.6280 Y11.5779
G01 X32.7356 Y11.5941
G01 X32.8805 Y11.6012
G01 X32.9893 Y11.5956
G01 X33.1089 Y11.5779
G01 X33.2263 Y11.5485
G01 X33.3290 Y11.5121
G01 X33.4602 Y11.4500
G01 X33.5536 Y11.3938
G01 X33.6508 Y11.3218
G01 X33.7406 Y11.2405
G01 X33.8220 Y11.1509
G01 X33.8942 Y11.0538
G01 X33.9506 Y10.9606
G01 X34.0128 Y10.8294
G01 X34.0494 Y10.7268
G01 X34.0790 Y10.6095
G00 Z2.0000
G00 X33.8847 Y11.0666
G01 F60.00
G01 Z-0.0500
G01 F120.00
G01 X33.8942 Y11.0538
G01 X33.9506 Y10.9606
G01 X34.0128 Y10.8294
G01 X34.0494 Y10.7268
G01 X34.0790 Y10.6095
G01 X34.1030 Y10.3751
G01 X34.0970 Y10.4898
G01 X34.0790 Y10.6095
G00 X34.0790 Y10.6095
G01 F60.00
G01 Z-0.1000
G01 F120.00
G01 X34.0494 Y10.7268
G01 X34.0128 Y10.8294
G01 X33.9506 Y10.9606
G01 X33.8942 Y11.0538
G01 X33.8220 Y11.1509
G01 X33.7406 Y11.2405
G01 X33.6508 Y11.3218
G01 X33.5536 Y11.3938
G01 X33.4602 Y11.4500
G01 X33.3290 Y11.5121
G01 X33.2263 Y11.5485
G01 X33.1089 Y11.5779
G01 X32.9893 Y11.5956
G01 X32.8805 Y11.6012
G01 X32.7356 Y11.5941
G01 X32.6280 Y11.5779
G01 X32.5108 Y11.5485
G01 X32.3970 Y11.5077
G01 X32.2985 Y11.4614
G01 X32.1742 Y11.3869
G01 X32.0871 Y11.3218
G01 X31.9976 Y11.2405
G01 X31.9165 Y11.1509
G01 X31.8516 Y11.0637
G01 X31.7772 Y10.9392
G01 X31.7311 Y10.8407
G01 X31.6906 Y10.7268
G01 X31.6593 Y10.5976
G01 X31.6438 Y10.4898
G01 X31.6382 Y10.3751
G01 X31.6391 Y9.8700
G01 X31.6451 Y9.7552
G01 X31.6658 Y9.6238
G01 X31.6927 Y9.5183
G01 X31.7337 Y9.4044
G01 X31.7856 Y9.2950
G01 X31.8479 Y9.1913
G01 X31.9201 Y9.0942
G01 X31.9932 Y9.0133
G01 X32.1335 Y8.8917
G01 X32.1390 Y5.7800
G01 X32.1158 Y5.7567
G01 X31.9983 Y5.7426
G01 X31.9042 Y5.7203
G01 X31.7249 Y5.6485
G01 X31.5631 Y5.5431
G01 X31.4737 Y5.4619
G01 X31.3597 Y5.3213
G01 X31.2688 Y5.1508
G01 X31.2131 Y4.9659
G01 X31.1990 Y4.8701
G01 X31.1948 Y4.7614
G01 X31.2117 Y4.5931
G01 X31.2412 Y4.4758
G01 X31.3117 Y4.3087
G01 X31.4119 Y4.1575
G01 X31.4933 Y4.0679
G01 X31.6341 Y3.9537
G01 X31.7280 Y3.8985
G01 X31.8959 Y3.8300
G01 X31.9898 Y3.8064
G01 X32.0976 Y3.7914
G01 X32.2668 Y3.7914
G01 X32.3745 Y3.8064
G01 X32.4798 Y3.8337
G01 X32.6360 Y3.8985
G01 X32.7297 Y3.9537
G01 X32.8073 Y4.0113
G01 X32.9438 Y4.1480
G01 X33.0509 Y4.3087
G01 X33.1245 Y4.4873
G01 X33.1478 Y4.5811
G01 X33.1638 Y4.7105
G01 X33.4594 Y5.0138
G01 X33.5323 Y5.1248
G01 X33.5876 Y5.2588
G01 X33.6141 Y5.3890
G01 X33.6190 Y5.4736
G01 X33.6130 Y8.8917
G01 X33.7529 Y9.0133
G01 X33.8256 Y9.0942
G01 X33.8975 Y9.1913
G01 X33.9595 Y9.2950
G01 X34.0061 Y9.3933
G01 X34.0548 Y9.5299
G01 X34.0807 Y9.6356
G01 X34.0968 Y9.7432
G01 X34.1039 Y9.8700
G01 X34.1030 Y10.3751
G01 X34.0970 Y10.4898
G01 X34.0790 Y10.6095
G00 Z2.0000
G00 X34.1035 Y10.1110
G01 F60.00
G01 Z-0.1000
G01 F120.00
G01 X34.1030 Y10.3751
G01 X34.0970 Y10.4898
G01 X34.0790 Y10.6095
G01 X33.8942 Y11.0538
G01 X33.9506 Y10.9606
G01 X34.0128 Y10.8294
G01 X34.0494 Y10.7268
G01 X34.0790 Y10.6095
G00 X34.0790 Y10.6095
G01 F60.00
G01 Z-0.1500
G01 F120.00
G01 X34.0970 Y10.4898
G01 X34.1030 Y10.3751
G01 X34.1039 Y9.8700
G01 X34.0968 Y9.7432
G01 X34.0807 Y9.6356
G01 X34.0548 Y9.5299
G01 X34.0061 Y9.3933
G01 X33.9595 Y9.2950
G01 X33.8975 Y9.1913
G01 X33.8256 Y9.0942
G01 X33.7529 Y9.0133
G01 X33.6130 Y8.8917
G01 X33.6190 Y5.4736
G01 X33.6141 Y5.3890
G01 X33.5876 Y5.2588
G01 X33.5323 Y5.1248
G01 X33.4594 Y5.0138
G01 X33.1638 Y4.7105
G01 X33.1478 Y4.5811
G01 X33.1245 Y4.4873
G01 X33.0509 Y4.3087
G01 X32.9438 Y4.1480
G01 X32.8073 Y4.0113
G01 X32.7297 Y3.9537
G01 X32.6360 Y3.8985
G01 X32.4798 Y3.8337
G01 X32.3745 Y3.8064
G01 X32.2668 Y3.7914
G01 X32.0976 Y3.7914
G01 X31.9898 Y3.8064
G01 X31.8959 Y3.8300
G01 X31.7280 Y3.8985
G01 X31.6341 Y3.9537
G01 X31.4933 Y4.0679
G01 X31.4119 Y4.1575
G01 X31.3117 Y4.3087
G01 X31.2412 Y4.4758
G01 X31.2117 Y4.5931
G01 X31.1948 Y4.7614
G01 X31.1990 Y4.8701
G01 X31.2131 Y4.9659
G01 X31.2688 Y5.1508
G01 X31.3597 Y5.3213
G01 X31.4737 Y5.4619
G01 X31.5631 Y5.5431
G01 X31.7249 Y5.6485
G01 X31.9042 Y5.7203
G01 X31.9983 Y5.7426
G01 X32.1158 Y5.7567
G01 X32.1390 Y5.7800
G01 X32.1335 Y8.8917
G01 X31.9932 Y9.0133
G01 X31.9201 Y9.0942
G01 X31.8479 Y9.1913
G01 X31.7856 Y9.2950
G01 X31.7337 Y9.4044
G01 X31.6927 Y9.5183
G01 X31.6658 Y9.6238
G01 X31.6451 Y9.7552
G01 X31.6391 Y9.8700
G01 X31.6382 Y10.3751
G01 X31.6438 Y10.4898
G01 X31.6593 Y10.5976
G01 X31.6906 Y10.7268
G01 X31.7311 Y10.8407
G01 X31.7772 Y10.9392
G01 X31.8516 Y11.0637
G01 X31.9165 Y11.1509
G01 X31.9976 Y11.2405
G01 X32.0871 Y11.3218
G01 X32.1742 Y11.3869
G01 X32.2985 Y11.4614
G01 X32.3970 Y11.5077
G01 X32.5108 Y11.5485
G01 X32.6280 Y11.5779
G01 X32.7356 Y11.5941
G01 X32.8805 Y11.6012
G01 X32.9893 Y11.5956
G01 X33.1089 Y11.5779
G01 X33.2263 Y11.5485
G01 X33.3290 Y11.5121
G01 X33.4602 Y11.4500
G01 X33.5536 Y11.3938
G01 X33.6508 Y11.3218
G01 X33.7406 Y11.2405
G01 X33.8220 Y11.1509
G01 X33.8942 Y11.0538
G01 X33.9506 Y10.9606
G01 X34.0128 Y10.8294
G01 X34.0494 Y10.7268
G01 X34.0790 Y10.6095
G00 Z2.0000
G00 X33.8847 Y11.0666
G01 F60.00
G01 Z-0.1500
G01 F120.00
G01 X33.8942 Y11.0538
G01 X33.9506 Y10.9606
G01 X34.0128 Y10.8294
G01 X34.0494 Y10.7268
G01 X34.0790 Y10.6095
G01 X34.1030 Y10.3751
G01 X34.0970 Y10.4898
G01 X34.0790 Y10.6095
G00 Z2.0000
G00 X31.5253 Y10.6095
G01 F60.00
G01 Z-0.0500
G01 F120.00
G01 X31.5432 Y10.4898
G01 X31.5493 Y10.3751
G01 X31.5502 Y9.8700
G01 X31.5445 Y9.7552
G01 X31.5291 Y9.6475
G01 X31.4978 Y9.5183
G01 X31.4573 Y9.4044
G01 X31.4058 Y9.2950
G01 X31.3438 Y9.1913
G01 X31.2793 Y9.1037
G01 X31.1908 Y9.0045
G01 X31.1105 Y8.9312
G01 X30.9941 Y8.8448
G01 X30.9007 Y8.7891
G01 X30.7914 Y8.7374
G01 X30.6776 Y8.6966
G01 X30.5603 Y8.6672
G01 X30.4407 Y8.6495
G01 X30.3199 Y8.6435
G01 X30.1991 Y8.6495
G01 X30.0794 Y8.6672
G01 X29.9621 Y8.6966
G01 X29.8481 Y8.7374
G01 X29.7387 Y8.7891
G01 X29.6348 Y8.8513
G01 X29.5376 Y8.9233
G01 X29.4478 Y9.0045
G01 X29.3664 Y9.0942
G01 X29.2877 Y9.2015
G01 X29.2318 Y9.2950
G01 X29.1848 Y9.3933
G01 X29.1428 Y9.5068
G01 X29.1094 Y9.6356
G01 X29.0929 Y9.7432
G01 X29.0853 Y9.8760
G01 X29.0845 Y10.3751
G01 X29.0901 Y10.4898
G01 X29.1056 Y10.5976
G01 X29.1368 Y10.7268
G01 X29.1774 Y10.8407
G01 X29.2289 Y10.9500
G01 X29.2909 Y11.0538
G01 X29.3628 Y11.1509
G01 X29.4438 Y11.2405
G01 X29.5333 Y11.3218
G01 X29.6406 Y11.4003
G01 X29.7340 Y11.4560
G01 X29.8322 Y11.5028
G01 X29.9455 Y11.5447
G01 X30.0743 Y11.5779
G01 X30.1939 Y11.5956
G01 X30.3268 Y11.6012
G01 X30.4355 Y11.5956
G01 X30.5433 Y11.5799
G01 X30.6726 Y11.5485
G01 X30.7865 Y11.5077
G01 X30.9065 Y11.4500
G01 X30.9998 Y11.3938
G01 X31.0875 Y11.3292
G01 X31.1869 Y11.2405
G01 X31.2682 Y11.1509
G01 X31.3470 Y11.0436
G01 X31.4028 Y10.9500
G01 X31.4498 Y10.8518
G01 X31.4957 Y10.7268
G01 X31.5253 Y10.6095
G00 Z2.0000
G00 X31.3304 Y11.0662
G01 F60.00
G01 Z-0.0500
G01 F120.00
G01 X31.3470 Y11.0436
G01 X31.4028 Y10.9500
G01 X31.4498 Y10.8518
G01 X31.4957 Y10.7268
G01 X31.5253 Y10.6095
G01 X31.5493 Y10.3751
G01 X31.5432 Y10.4898
G01 X31.5253 Y10.6095
G00 X31.5253 Y10.6095
G01 F60.00
G01 Z-0.1000
G01 F120.00
G01 X31.4957 Y10.7268
G01 X31.4498 Y10.8518
G01 X31.4028 Y10.9500
G01 X31.3470 Y11.0436
G01 X31.2682 Y11.1509
G01 X31.1869 Y11.2405
G01 X31.0875 Y11.3292
G01 X30.9998 Y11.3938
G01 X30.9065 Y11.4500
G01 X30.7865 Y11.5077
G01 X30.6726 Y11.5485
G01 X30.5433 Y11.5799
G01 X30.4355 Y11.5956
G01 X30.3268 Y11.6012
G01 X30.1939 Y11.5956
G01 X30.0743 Y11.5779
G01 X29.9455 Y11.5447
G01 X29.8322 Y11.5028
G01 X29.7340 Y11.4560
G01 X29.6406 Y11.4003
G01 X29.5333 Y11.3218
G01 X29.4438 Y11.2405
G01 X29.3628 Y11.1509
G01 X29.2909 Y11.0538
G01 X29.2289 Y10.9500
G01 X29.1774 Y10.8407
G01 X29.1368 Y10.7268
G01 X29.1056 Y10.5976
G01 X29.0901 Y10.4898
G01 X29.0845 Y10.3751
G01 X29.0853 Y9.8760
G01 X29.0929 Y9.7432
G01 X29.1094 Y9.6356
G01 X29.1428 Y9.5068
G01 X29.1848 Y9.3933
G01 X29.2318 Y9.2950
G01 X29.2877 Y9.2015
G01 X29.3664 Y9.0942
G01 X29.4478 Y9.0045
G01 X29.5376 Y8.9233
G01 X29.6348 Y8.8513
G01 X29.7387 Y8.7891
G01 X29.8481 Y8.7374
G01 X29.9621 Y8.6966
G01 X30.0794 Y8.6672
G01 X30.1991 Y8.6495
G01 X30.3199 Y8.6435
G01 X30.4407 Y8.6495
G01 X30.5603 Y8.6672
G01 X30.6776 Y8.6966
G01 X30.7914 Y8.7374
G01 X30.9007 Y8.7891
G01 X30.9941 Y8.8448
G01 X31.1105 Y8.9312
G01 X31.1908 Y9.0045
G01 X31.2793 Y9.1037
G01 X31.3438 Y9.1913
G01 X31.4058 Y9.2950
G01 X31.4573 Y9.4044
G01 X31.4978 Y9.5183
G01 X31.5291 Y9.6475
G01 X31.5445 Y9.7552
G01 X31.5502 Y9.8700
G01 X31.5493 Y10.3751
G01 X31.5432 Y10.4898
G01 X31.5253 Y10.6095
G00 Z2.0000
G00 X31.5498 Y10.1110
G01 F60.00
G01 Z-0.1000
G01 F120.00
G01 X31.5493 Y10.3751
G01 X31.5432 Y10.4898
G01 X31.5253 Y10.6095
G01 X31.3470 Y11.0436
G01 X31.4028 Y10.9500
G01 X31.4498 Y10.8518
G01 X31.4957 Y10.7268
G01 X31.5253 Y10.6095
G00 X31.5253 Y10.6095
G01 F60.00
G01 Z-0.1500
G01 F120.00
G01 X31.5432 Y10.4898
G01 X31.5493 Y10.3751
G01 X31.5502 Y9.8700
G01 X31.5445 Y9.7552
G01 X31.5291 Y9.6475
G01 X31.4978 Y9.5183
G01 X31.4573 Y9.4044
G01 X31.4058 Y9.2950
G01 X31.3438 Y9.1913
G01 X31.2793 Y9.1037
G01 X31.1908 Y9.0045
G01 X31.1105 Y8.9312
G01 X30.9941 Y8.8448
G01 X30.9007 Y8.7891
G01 X30.7914 Y8.7374
G01 X30.6776 Y8.6966
G01 X30.5603 Y8.6672
G01 X30.4407 Y8.6495
G01 X30.3199 Y8.6435
G01 X30.1991 Y8.6495
G01 X30.0794 Y8.6672
G01 X29.9621 Y8.6966
G01 X29.8481 Y8.7374
G01 X29.7387 Y8.7891
G01 X29.6348 Y8.8513
G01 X29.5376 Y8.9233
G01 X29.4478 Y9.0045
G01 X29.3664 Y9.0942
G01 X29.2877 Y9.2015
G01 X29.2318 Y9.2950
G01 X29.1848 Y9.3933
G01 X29.1428 Y9.5068
G01 X29.1094 Y9.6356
G01 X29.0929 Y9.7432
G01 X29.0853 Y9.8760
G01 X29.0845 Y10.3751
G01 X29.0901 Y10.4898
G01 X29.1056 Y10.5976
G01 X29.1368 Y10.7268
G01 X29.1774 Y10.8407
G01 X29.2289 Y10.9500
G01 X29.2909 Y11.0538
G01 X29.3628 Y11.1509
G01 X29.4438 Y11.2405
G01 X29.5333 Y11.3218
G01 X29.6406 Y11.4003
G01 X29.7340 Y11.4560
G01 X29.8322 Y11.5028
G01 X29.9455 Y11.5447
G01 X30.0743 Y11.5779
G01 X30.1939 Y11.5956
G01 X30.3268 Y11.6012
G01 X30.4355 Y11.5956
G01 X30.5433 Y11.5799
G01 X30.6726 Y11.5485
G01 X30.7865 Y11.5077
G01 X30.9065 Y11.4500
G01 X30.9998 Y11.3938
G01 X31.0875 Y11.3292
G01 X31.1869 Y11.2405
G01 X31.2682 Y11.1509
G01 X31.3470 Y11.0436
G01 X31.4028 Y10.9500
G01 X31.4498 Y10.8518
G01 X31.4957 Y10.7268
G01 X31.5253 Y10.6095
G00 Z2.0000
G00 X31.3304 Y11.0662
G01 F60.00
G01 Z-0.1500
G01 F120.00
G01 X31.3470 Y11.0436
G01 X31.4028 Y10.9500
G01 X31.4498 Y10.8518
G01 X31.4957 Y10.7268
G01 X31.5253 Y10.6095
G01 X31.5493 Y10.3751
G01 X31.5432 Y10.4898
G01 X31.5253 Y10.6095
G00 Z2.0000
G00 X28.9715 Y10.6095
G01 F60.00
G01 Z-0.0500
G01 F120.00
G01 X28.9895 Y10.4898
G01 X28.9956 Y10.3751
G01 X28.9965 Y9.8700
G01 X28.9908 Y9.7552
G01 X28.9753 Y9.6475
G01 X28.9441 Y9.5183
G01 X28.9035 Y9.4044
G01 X28.8520 Y9.2950
G01 X28.7900 Y9.1913
G01 X28.7256 Y9.1037
G01 X28.6283 Y8.9962
G01 X28.5476 Y8.9233
G01 X28.4404 Y8.8448
G01 X28.3469 Y8.7891
G01 X28.2377 Y8.7374
G01 X28.1239 Y8.6966
G01 X28.0066 Y8.6672
G01 X27.8870 Y8.6495
G01 X27.7662 Y8.6435
G01 X27.6454 Y8.6495
G01 X27.5257 Y8.6672
G01 X27.4083 Y8.6966
G01 X27.2944 Y8.7374
G01 X27.1850 Y8.7891
G01 X27.0811 Y8.8513
G01 X26.9838 Y8.9233
G01 X26.8941 Y9.0045
G01 X26.8127 Y9.0942
G01 X26.7340 Y9.2015
G01 X26.6781 Y9.2950
G01 X26.6218 Y9.4157
G01 X26.5820 Y9.5299
G01 X26.5556 Y9.6356
G01 X26.5392 Y9.7432
G01 X26.5315 Y9.8760
G01 X26.5307 Y10.3751
G01 X26.5364 Y10.4898
G01 X26.5519 Y10.5976
G01 X26.5831 Y10.7268
G01 X26.6236 Y10.8407
G01 X26.6752 Y10.9500
G01 X26.7372 Y11.0538
G01 X26.8090 Y11.1509
G01 X26.8901 Y11.2405
G01 X26.9796 Y11.3218
G01 X27.0868 Y11.4003
G01 X27.1802 Y11.4560
G01 X27.2784 Y11.5028
G01 X27.3918 Y11.5447
G01 X27.5206 Y11.5779
G01 X27.6402 Y11.5956
G01 X27.7610 Y11.6015
G01 X27.8938 Y11.5941
G01 X28.0015 Y11.5779
G01 X28.1072 Y11.5517
G01 X28.2328 Y11.5077
G01 X28.3528 Y11.4500
G01 X28.4461 Y11.3938
G01 X28.5338 Y11.3292
G01 X28.6331 Y11.2405
G01 X28.7145 Y11.1509
G01 X28.7932 Y11.0436
G01 X28.8491 Y10.9500
G01 X28.8961 Y10.8518
G01 X28.9420 Y10.7268
G01 X28.9715 Y10.6095
G00 Z2.0000
G00 X28.7766 Y11.0662
G01 F60.00
G01 Z-0.0500
G01 F120.00
G01 X28.7932 Y11.0436
G01 X28.8491 Y10.9500
G01 X28.8961 Y10.8518
G01 X28.9420 Y10.7268
G01 X28.9715 Y10.6095
G01 X28.9956 Y10.3751
G01 X28.9895 Y10.4898
G01 X28.9715 Y10.6095
G00 X28.9715 Y10.6095
G01 F60.00
G01 Z-0.1000
G01 F120.00
G01 X28.9420 Y10.7268
G01 X28.8961 Y10.8518
G01 X28.8491 Y10.9500
G01 X28.7932 Y11.0436
G01 X28.7145 Y11.1509
G01 X28.6331 Y11.2405
G01 X28.5338 Y11.3292
G01 X28.4461 Y11.3938
G01 X28.3528 Y11.4500
G01 X28.2328 Y11.5077
G01 X28.1072 Y11.5517
G01 X28.0015 Y11.5779
G01 X27.8938 Y11.5941
G01 X27.7610 Y11.6015
G01 X27.6402 Y11.5956
G01 X27.5206 Y11.5779
G01 X27.3918 Y11.5447
G01 X27.2784 Y11.5028
G01 X27.1802 Y11.4560
G01 X27.0868 Y11.4003
G01 X26.9796 Y11.3218
G01 X26.8901 Y11.2405
G01 X26.8090 Y11.1509
G01 X26.7372 Y11.0538
G01 X26.6752 Y10.9500
G01 X26.6236 Y10.8407
G01 X26.5831 Y10.7268
G01 X26.5519 Y10.5976
G01 X26.5364 Y10.4898
G01 X26.5307 Y10.3751
G01 X26.5315 Y9.8760
G01 X26.5392 Y9.7432
G01 X26.5556 Y9.6356
G01 X26.5820 Y9.5299
G01 X26.6218 Y9.4157
G01 X26.6781 Y9.2950
G01 X26.7340 Y9.2015
G01 X26.8127 Y9.0942
G01 X26.8941 Y9.0045
G01 X26.9838 Y8.9233
G01 X27.0811 Y8.8513
G01 X27.1850 Y8.7891
G01 X27.2944 Y8.7374
G01 X27.4083 Y8.6966
G01 X27.5257 Y8.6672
G01 X27.6454 Y8.6495
G01 X27.7662 Y8.6435
G01 X27.8870 Y8.6495
G01 X28.0066 Y8.6672
G01 X28.1239 Y8.6966
G01 X28.2377 Y8.7374
G01 X28.3469 Y8.7891
G01 X28.4404 Y8.8448
G01 X28.5476 Y8.9233
G01 X28.6283 Y8.9962
G01 X28.7256 Y9.1037
G01 X28.7900 Y9.1913
G01 X28.8520 Y9.2950
G01 X28.9035 Y9.4044
G01 X28.9441 Y9.5183
G01 X28.9753 Y9.6475
G01 X28.9908 Y9.7552
G01 X28.9965 Y9.8700
G01 X28.9956 Y10.3751
G01 X28.9895 Y10.4898
G01 X28.9715 Y10.6095
G00 Z2.0000
G00 X28.9960 Y10.1110
G01 F60.00
G01 Z-0.1000
G01 F120.00
G01 X28.9956 Y10.3751
G01 X28.9895 Y10.4898
G01 X28.9715 Y10.6095
G01 X28.7932 Y11.0436
G01 X28.8491 Y10.9500
G01 X28.8961 Y10.8518
G01 X28.9420 Y10.7268
G01 X28.9715 Y10.6095
G00 X28.9715 Y10.6095
G01 F60.00
G01 Z-0.1500
G01 F120.00
G01 X28.9895 Y10.4898
G01 X28.9956 Y10.3751
G01 X28.9965 Y9.8700
G01 X28.9908 Y9.7552
G01 X28.9753 Y9.6475
G01 X28.9441 Y9.5183
G01 X28.9035 Y9.4044
G01 X28.8520 Y9.2950
G01 X28.7900 Y9.1913
G01 X28.7256 Y9.1037
G01 X28.6283 Y8.9962
G01 X28.5476 Y8.9233
G01 X28.4404 Y8.8448
G01 X28.3469 Y8.7891
G01 X28.2377 Y8.7374
G01 X28.1239 Y8.6966
G01 X28.0066 Y8.6672
G01 X27.8870 Y8.6495
G01 X27.7662 Y8.6435
G01 X27.6454 Y8.6495
G01 X27.5257 Y8.6672
G01 X27.4083 Y8.6966
G01 X27.2944 Y8.7374
G01 X27.1850 Y8.7891
G01 X27.0811 Y8.8513
G01 X26.9838 Y8.9233
G01 X26.8941 Y9.0045
G01 X26.8127 Y9.0942
G01 X26.7340 Y9.2015
G01 X26.6781 Y9.2950
G01 X26.6218 Y9.4157
G01 X26.5820 Y9.5299
G01 X26.5556 Y9.6356
G01 X26.5392 Y9.7432
G01 X26.5315 Y9.8760
G01 X26.5307 Y10.3751
G01 X26.5364 Y10.4898
G01 X26.5519 Y10.5976
G01 X26.5831 Y10.7268
G01 X26.6236 Y10.8407
G01 X26.6752 Y10.9500
G01 X26.7372 Y11.0538
G01 X26.8090 Y11.1509
G01 X26.8901 Y11.2405
G01 X26.9796 Y11.3218
G01 X27.0868 Y11.4003
G01 X27.1802 Y11.4560
G01 X27.2784 Y11.5028
G01 X27.3918 Y11.5447
G01 X27.5206 Y11.5779
G01 X27.6402 Y11.5956
G01 X27.7610 Y11.6015
G01 X27.8938 Y11.5941
G01 X28.0015 Y11.5779
G01 X28.1072 Y11.5517
G01 X28.2328 Y11.5077
G01 X28.3528 Y11.4500
G01 X28.4461 Y11.3938
G01 X28.5338 Y11.3292
G01 X28.6331 Y11.2405
G01 X28.7145 Y11.1509
G01 X28.7932 Y11.0436
G01 X28.8491 Y10.9500
G01 X28.8961 Y10.8518
G01 X28.9420 Y10.7268
G01 X28.9715 Y10.6095
G00 Z2.0000
G00 X28.7766 Y11.0662
G01 F60.00
G01 Z-0.1500
G01 F120.00
G01 X28.7932 Y11.0436
G01 X28.8491 Y10.9500
G01 X28.8961 Y10.8518
G01 X28.9420 Y10.7268
G01 X28.9715 Y10.6095
G01 X28.9956 Y10.3751
G01 X28.9895 Y10.4898
G01 X28.9715 Y10.6095
G00 Z2.0000
G00 X26.4178 Y10.6095
G01 F60.00
G01 Z-0.0500
G01 F120.00
G01 X26.4358 Y10.4898
G01 X26.4418 Y10.3751
G01 X26.4427 Y9.8700
G01 X26.4371 Y9.7552
G01 X26.4216 Y9.6475
G01 X26.3903 Y9.5183
G01 X26.3498 Y9.4044
G01 X26.2983 Y9.2950
G01 X26.2363 Y9.1913
G01 X26.1718 Y9.1037
G01 X26.0746 Y8.9962
G01 X25.9939 Y8.9233
G01 X25.8866 Y8.8448
G01 X25.7932 Y8.7891
G01 X25.6840 Y8.7374
G01 X25.5702 Y8.6966
G01 X25.4529 Y8.6672
G01 X25.3333 Y8.6495
G01 X25.2125 Y8.6435
G01 X25.0916 Y8.6495
G01 X24.9720 Y8.6672
G01 X24.8546 Y8.6966
G01 X24.7406 Y8.7374
G01 X24.6312 Y8.7891
G01 X24.5274 Y8.8513
G01 X24.4301 Y8.9233
G01 X24.3403 Y9.0045
G01 X24.2589 Y9.0942
G01 X24.1802 Y9.2015
G01 X24.1244 Y9.2950
G01 X24.0681 Y9.4157
G01 X24.0282 Y9.5299
G01 X24.0019 Y9.6356
G01 X23.9854 Y9.7432
G01 X23.9778 Y9.8760
G01 X23.9770 Y10.3751
G01 X23.9826 Y10.4898
G01 X23.9981 Y10.5976
G01 X24.0294 Y10.7268
G01 X24.0699 Y10.8407
G01 X24.1214 Y10.9500
G01 X24.1834 Y11.0538
G01 X24.2553 Y11.1509
G01 X24.3364 Y11.2405
G01 X24.4258 Y11.3218
G01 X24.5331 Y11.4003
G01 X24.6265 Y11.4560
G01 X24.7247 Y11.5028
G01 X24.8381 Y11.5447
G01 X24.9668 Y11.5779
G01 X25.0864 Y11.5956
G01 X25.2072 Y11.6015
G01 X25.3401 Y11.5941
G01 X25.4477 Y11.5779
G01 X25.5534 Y11.5517
G01 X25.6791 Y11.5077
G01 X25.7990 Y11.4500
G01 X25.8924 Y11.3938
G01 X25.9801 Y11.3292
G01 X26.0794 Y11.2405
G01 X26.1608 Y11.1509
G01 X26.2395 Y11.0436
G01 X26.2954 Y10.9500
G01 X26.3423 Y10.8518
G01 X26.3882 Y10.7268
G01 X26.4178 Y10.6095
G00 Z2.0000
G00 X26.2229 Y11.0662
G01 F60.00
G01 Z-0.0500
G01 F120.00
G01 X26.2395 Y11.0436
G01 X26.2954 Y10.9500
G01 X26.3423 Y10.8518
G01 X26.3882 Y10.7268
G01 X26.4178 Y10.6095
G01 X26.4418 Y10.3751
G01 X26.4358 Y10.4898
G01 X26.4178 Y10.6095
G00 X26.4178 Y10.6095
G01 F60.00
G01 Z-0.1000
G01 F120.00
G01 X26.3882 Y10.7268
G01 X26.3423 Y10.8518
G01 X26.2954 Y10.9500
G01 X26.2395 Y11.0436
G01 X26.1608 Y11.1509
G01 X26.0794 Y11.2405
G01 X25.9801 Y11.3292
G01 X25.8924 Y11.3938
G01 X25.7990 Y11.4500
G01 X25.6791 Y11.5077
G01 X25.5534 Y11.5517
G01 X25.4477 Y11.5779
G01 X25.3401 Y11.5941
G01 X25.2072 Y11.6015
G01 X25.0864 Y11.5956
G01 X24.9668 Y11.5779
G01 X24.8381 Y11.5447
G01 X24.7247 Y11.5028
G01 X24.6265 Y11.4560
G01 X24.5331 Y11.4003
G01 X24.4258 Y11.3218
G01 X24.3364 Y11.2405
G01 X24.2553 Y11.1509
G01 X24.1834 Y11.0538
G01 X24.1214 Y10.9500
G01 X24.0699 Y10.8407
G01 X24.0294 Y10.7268
G01 X23.9981 Y10.5976
G01 X23.9826 Y10.4898
G01 X23.9770 Y10.3751
G01 X23.9778 Y9.8760
G01 X23.9854 Y9.7432
G01 X24.0019 Y9.6356
G01 X24.0282 Y9.5299
G01 X24.0681 Y9.4157
G01 X24.1244 Y9.2950
G01 X24.1802 Y9.2015
G01 X24.2589 Y9.0942
G01 X24.3403 Y9.0045
G01 X24.4301 Y8.9233
G01 X24.5274 Y8.8513
G01 X24.6312 Y8.7891
G01 X24.7406 Y8.7374
G01 X24.8546 Y8.6966
G01 X24.9720 Y8.6672
G01 X25.0916 Y8.6495
G01 X25.2125 Y8.6435
G01 X25.3333 Y8.6495
G01 X25.4529 Y8.6672
G01 X25.5702 Y8.6966
G01 X25.6840 Y8.7374
G01 X25.7932 Y8.7891
G01 X25.8866 Y8.8448
G01 X25.9939 Y8.9233
G01 X26.0746 Y8.9962
G01 X26.1718 Y9.1037
G01 X26.2363 Y9.1913
G01 X26.2983 Y9.2950
G01 X26.3498 Y9.4044
G01 X26.3903 Y9.5183
G01 X26.4216 Y9.6475
G01 X26.4371 Y9.7552
G01 X26.4427 Y9.8700
G01 X26.4418 Y10.3751
G01 X26.4358 Y10.4898
G01 X26.4178 Y10.6095
G00 Z2.0000
G00 X26.4423 Y10.1110
G01 F60.00
G01 Z-0.1000
G01 F120.00
G01 X26.4418 Y10.3751
G01 X26.4358 Y10.4898
G01 X26.4178 Y10.6095
G01 X26.2395 Y11.0436
G01 X26.2954 Y10.9500
G01 X26.3423 Y10.8518
G01 X26.3882 Y10.7268
G01 X26.4178 Y10.6095
G00 X26.4178 Y10.6095
G01 F60.00
G01 Z-0.1500
G01 F120.00
G01 X26.4358 Y10.4898
G01 X26.4418 Y10.3751
G01 X26.4427 Y9.8700
G01 X26.4371 Y9.7552
G01 X26.4216 Y9.6475
G01 X26.3903 Y9.5183
G01 X26.3498 Y9.4044
G01 X26.2983 Y9.2950
G01 X26.2363 Y9.1913
G01 X26.1718 Y9.1037
G01 X26.0746 Y8.9962
G01 X25.9939 Y8.9233
G01 X25.8866 Y8.8448
G01 X25.7932 Y8.7891
G01 X25.6840 Y8.7374
G01 X25.5702 Y8.6966
G01 X25.4529 Y8.6672
G01 X25.3333 Y8.6495
G01 X25.2125 Y8.6435
G01 X25.0916 Y8.6495
G01 X24.9720 Y8.6672
G01 X24.8546 Y8.6966
G01 X24.7406 Y8.7374
G01 X24.6312 Y8.7891
G01 X24.5274 Y8.8513
G01 X24.4301 Y8.9233
G01 X24.3403 Y9.0045
G01 X24.2589 Y9.0942
G01 X24.1802 Y9.2015
G01 X24.1244 Y9.2950
G01 X24.0681 Y9.4157
G01 X24.0282 Y9.5299
G01 X24.0019 Y9.6356
G01 X23.9854 Y9.7432
G01 X23.9778 Y9.8760
G01 X23.9770 Y10.3751
G01 X23.9826 Y10.4898
G01 X23.9981 Y10.5976
G01 X24.0294 Y10.7268
G01 X24.0699 Y10.8407
G01 X24.1214 Y10.9500
G01 X24.1834 Y11.0538
G01 X24.2553 Y11.1509
G01 X24.3364 Y11.2405
G01 X24.4258 Y11.3218
G01 X24.5331 Y11.4003
G01 X24.6265 Y11.4560
G01 X24.7247 Y11.5028
G01 X24.8381 Y11.5447
G01 X24.9668 Y11.5779
G01 X25.0864 Y11.5956
G01 X25.2072 Y11.6015
G01 X25.3401 Y11.5941
G01 X25.4477 Y11.5779
G01 X25.5534 Y11.5517
G01 X25.6791 Y11.5077
G01 X25.7990 Y11.4500
G01 X25.8924 Y11.3938
G01 X25.9801 Y11.3292
G01 X26.0794 Y11.2405
G01 X26.1608 Y11.1509
G01 X26.2395 Y11.0436
G01 X26.2954 Y10.9500
G01 X26.3423 Y10.8518
G01 X26.3882 Y10.7268
G01 X26.4178 Y10.6095
G00 Z2.0000
G00 X26.2229 Y11.0662
G01 F60.00
G01 Z-0.1500
G01 F120.00
G01 X26.2395 Y11.0436
G01 X26.2954 Y10.9500
G01 X26.3423 Y10.8518
G01 X26.3882 Y10.7268
G01 X26.4178 Y10.6095
G01 X26.4418 Y10.3751
G01 X26.4358 Y10.4898
G01 X26.4178 Y10.6095
G00 Z2.0000
G00 X23.8641 Y10.6095
G01 F60.00
G01 Z-0.0500
G01 F120.00
G01 X23.8820 Y10.4898
G01 X23.8881 Y10.3751
G01 X23.8890 Y9.8700
G01 X23.8833 Y9.7552
G01 X23.8678 Y9.6475
G01 X23.8366 Y9.5183
G01 X23.7961 Y9.4044
G01 X23.7445 Y9.2950
G01 X23.6825 Y9.1913
G01 X23.6181 Y9.1037
G01 X23.5209 Y8.9962
G01 X23.4401 Y8.9233
G01 X23.3329 Y8.8448
G01 X23.2395 Y8.7891
G01 X23.1302 Y8.7374
G01 X23.0164 Y8.6966
G01 X22.8991 Y8.6672
G01 X22.7795 Y8.6495
G01 X22.6587 Y8.6435
G01 X22.5379 Y8.6495
G01 X22.4182 Y8.6672
G01 X22.3009 Y8.6966
G01 X22.1869 Y8.7374
G01 X22.0775 Y8.7891
G01 X21.9736 Y8.8513
G01 X21.8764 Y8.9233
G01 X21.7866 Y9.0045
G01 X21.7052 Y9.0942
G01 X21.6265 Y9.2015
G01 X21.5706 Y9.2950
G01 X21.5143 Y9.4157
G01 X21.4745 Y9.5299
G01 X21.4482 Y9.6356
G01 X21.4317 Y9.7432
G01 X21.4241 Y9.8760
G01 X21.4232 Y10.3751
G01 X21.4289 Y10.4898
G01 X21.4444 Y10.5976
G01 X21.4756 Y10.7268
G01 X21.5162 Y10.8407
G01 X21.5677 Y10.9500
G01 X21.6297 Y11.0538
G01 X21.7016 Y11.1509
G01 X21.7826 Y11.2405
G01 X21.8721 Y11.3218
G01 X21.9793 Y11.4003
G01 X22.0728 Y11.4560
G01 X22.1710 Y11.5028
G01 X22.2843 Y11.5447
G01 X22.4131 Y11.5779
G01 X22.5327 Y11.5956
G01 X22.6535 Y11.6015
G01 X22.7863 Y11.5941
G01 X22.8940 Y11.5779
G01 X22.9997 Y11.5517
G01 X23.1253 Y11.5077
G01 X23.2453 Y11.4500
G01 X23.3386 Y11.3938
G01 X23.4263 Y11.3292
G01 X23.5256 Y11.2405
G01 X23.6070 Y11.1509
G01 X23.6857 Y11.0436
G01 X23.7416 Y10.9500
G01 X23.7886 Y10.8518
G01 X23.8345 Y10.7268
G01 X23.8641 Y10.6095
G00 Z2.0000
G00 X23.6692 Y11.0662
G01 F60.00
G01 Z-0.0500
G01 F120.00
G01 X23.6857 Y11.0436
G01 X23.7416 Y10.9500
G01 X23.7886 Y10.8518
G01 X23.8345 Y10.7268
G01 X23.8641 Y10.6095
G01 X23.8881 Y10.3751
G01 X23.8820 Y10.4898
G01 X23.8641 Y10.6095
G00 X23.8641 Y10.6095
G01 F60.00
G01 Z-0.1000
G01 F120.00
G01 X23.8345 Y10.7268
G01 X23.7886 Y10.8518
G01 X23.7416 Y10.9500
G01 X23.6857 Y11.0436
G01 X23.6070 Y11.1509
G01 X23.5256 Y11.2405
G01 X23.4263 Y11.3292
G01 X23.3386 Y11.3938
G01 X23.2453 Y11.4500
G01 X23.1253 Y11.5077
G01 X22.9997 Y11.5517
G01 X22.8940 Y11.5779
G01 X22.7863 Y11.5941
G01 X22.6535 Y11.6015
G01 X22.5327 Y11.5956
G01 X22.4131 Y11.5779
G01 X22.2843 Y11.5447
G01 X22.1710 Y11.5028
G01 X22.0728 Y11.4560
G01 X21.9793 Y11.4003
G01 X21.8721 Y11.3218
G01 X21.7826 Y11.2405
G01 X21.7016 Y11.1509
G01 X21.6297 Y11.0538
G01 X21.5677 Y10.9500
G01 X21.5162 Y10.8407
G01 X21.4756 Y10.7268
G01 X21.4444 Y10.5976
G01 X21.4289 Y10.4898
G01 X21.4232 Y10.3751
G01 X21.4241 Y9.8760
G01 X21.4317 Y9.7432
G01 X21.4482 Y9.6356
G01 X21.4745 Y9.5299
G01 X21.5143 Y9.4157
G01 X21.5706 Y9.2950
G01 X21.6265 Y9.2015
G01 X21.7052 Y9.0942
G01 X21.7866 Y9.0045
G01 X21.8764 Y8.9233
G01 X21.9736 Y8.8513
G01 X22.0775 Y8.7891
G01 X22.1869 Y8.7374
G01 X22.3009 Y8.6966
G01 X22.4182 Y8.6672
G01 X22.5379 Y8.6495
G01 X22.6587 Y8.6435
G01 X22.7795 Y8.6495
G01 X22.8991 Y8.6672
G01 X23.0164 Y8.6966
G01 X23.1302 Y8.7374
G01 X23.2395 Y8.7891
G01 X23.3329 Y8.8448
G01 X23.4401 Y8.9233
G01 X23.5209 Y8.9962
G01 X23.6181 Y9.1037
G01 X23.6825 Y9.1913
G01 X23.7445 Y9.2950
G01 X23.7961 Y9.4044
G01 X23.8366 Y9.5183
G01 X23.8678 Y9.6475
G01 X23.8833 Y9.7552
G01 X23.8890 Y9.8700
G01 X23.8881 Y10.3751
G01 X23.8820 Y10.4898
G01 X23.8641 Y10.6095
G00 Z2.0000
G00 X23.8886 Y10.1110
G01 F60.00
G01 Z-0.1000
G01 F120.00
G01 X23.8881 Y10.3751
G01 X23.8820 Y10.4898
G01 X23.8641 Y10.6095
G01 X23.6857 Y11.0436
G01 X23.7416 Y10.9500
G01 X23.7886 Y10.8518
G01 X23.8345 Y10.7268
G01 X23.8641 Y10.6095
G00 X23.8641 Y10.6095
G01 F60.00
G01 Z-0.1500
G01 F120.00
G01 X23.8820 Y10.4898
G01 X23.8881 Y10.3751
G01 X23.8890 Y9.8700
G01 X23.8833 Y9.7552
G01 X23.8678 Y9.6475
G01 X23.8366 Y9.5183
G01 X23.7961 Y9.4044
G01 X23.7445 Y9.2950
G01 X23.6825 Y9.1913
G01 X23.6181 Y9.1037
G01 X23.5209 Y8.9962
G01 X23.4401 Y8.9233
G01 X23.3329 Y8.8448
G01 X23.2395 Y8.7891
G01 X23.1302 Y8.7374
G01 X23.0164 Y8.6966
G01 X22.8991 Y8.6672
G01 X22.7795 Y8.6495
G01 X22.6587 Y8.6435
G01 X22.5379 Y8.6495
G01 X22.4182 Y8.6672
G01 X22.3009 Y8.6966
G01 X22.1869 Y8.7374
G01 X22.0775 Y8.7891
G01 X21.9736 Y8.8513
G01 X21.8764 Y8.9233
G01 X21.7866 Y9.0045
G01 X21.7052 Y9.0942
G01 X21.6265 Y9.2015
G01 X21.5706 Y9.2950
G01 X21.5143 Y9.4157
G01 X21.4745 Y9.5299
G01 X21.4482 Y9.6356
G01 X21.4317 Y9.7432
G01 X21.4241 Y9.8760
G01 X21.4232 Y10.3751
G01 X21.4289 Y10.4898
G01 X21.4444 Y10.5976
G01 X21.4756 Y10.7268
G01 X21.5162 Y10.8407
G01 X21.5677 Y10.9500
G01 X21.6297 Y11.0538
G01 X21.7016 Y11.1509
G01 X21.7826 Y11.2405
G01 X21.8721 Y11.3218
G01 X21.9793 Y11.4003
G01 X22.0728 Y11.4560
G01 X22.1710 Y11.5028
G01 X22.2843 Y11.5447
G01 X22.4131 Y11.5779
G01 X22.5327 Y11.5956
G01 X22.6535 Y11.6015
G01 X22.7863 Y11.5941
G01 X22.8940 Y11.5779
G01 X22.9997 Y11.5517
G01 X23.1253 Y11.5077
G01 X23.2453 Y11.4500
G01 X23.3386 Y11.3938
G01 X23.4263 Y11.3292
G01 X23.5256 Y11.2405
G01 X23.6070 Y11.1509
G01 X23.6857 Y11.0436
G01 X23.7416 Y10.9500
G01 X23.7886 Y10.8518
G01 X23.8345 Y10.7268
G01 X23.8641 Y10.6095
G00 Z2.0000
G00 X23.6692 Y11.0662
G01 F60.00
G01 Z-0.1500
G01 F120.00
G01 X23.6857 Y11.0436
G01 X23.7416 Y10.9500
G01 X23.7886 Y10.8518
G01 X23.8345 Y10.7268
G01 X23.8641 Y10.6095
G01 X23.8881 Y10.3751
G01 X23.8820 Y10.4898
G01 X23.8641 Y10.6095
G00 Z2.0000
G00 X29.0601 Y19.1316
G01 F60.00
G01 Z-0.0500
G01 F120.00
G01 X29.1202 Y19.1718
G01 X29.2812 Y19.2360
G01 X29.3532 Y19.2431
G01 X29.4242 Y19.2290
G01 X29.5068 Y19.1795
G01 X29.7333 Y18.9538
G01 X29.9236 Y18.8080
G01 X30.1300 Y18.7226
G01 X30.3677 Y18.6913
G01 X30.6851 Y18.6910
G01 X30.7560 Y18.6769
G01 X30.8197 Y18.6429
G01 X30.9338 Y18.5416
G01 X30.9911 Y18.4644
G01 X31.0146 Y18.3712
G01 X31.0149 Y18.2218
G01 X31.0009 Y18.1509
G01 X30.9517 Y18.0684
G01 X30.8691 Y17.9970
G01 X30.7019 Y17.7928
G01 X30.5778 Y17.5599
G01 X30.5015 Y17.3071
G01 X30.4761 Y17.0442
G01 X30.5024 Y16.7814
G01 X30.5796 Y16.5286
G01 X30.7045 Y16.2956
G01 X30.8725 Y16.0914
G01 X30.9706 Y16.0015
G01 X31.0048 Y15.9377
G01 X31.0167 Y15.8908
G01 X31.0193 Y15.7173
G01 X30.9961 Y15.6240
G01 X30.9389 Y15.5467
G01 X30.8257 Y15.4458
G01 X30.7843 Y15.4209
G01 X30.7388 Y15.4046
G01 X30.6788 Y15.3972
G01 X29.5623 Y15.3972
G01 X29.5024 Y15.4046
G01 X29.4355 Y15.4323
G01 X29.3966 Y15.4611
G01 X29.0489 Y15.8082
G01 X29.0086 Y15.8683
G01 X28.9923 Y15.9138
G01 X28.9848 Y15.9737
G01 X28.9795 Y18.9490
G01 X28.9868 Y19.0089
G01 X29.0030 Y19.0544
G01 X29.0601 Y19.1316
G00 Z2.0000
G00 X28.9800 Y18.6537
G01 F60.00
G01 Z-0.0500
G01 F120.00
G01 X28.9795 Y18.9490
G01 X28.9868 Y19.0089
G01 X29.0030 Y19.0544
G01 X29.0601 Y19.1316
G01 X29.5068 Y19.1795
G01 X29.4242 Y19.2290
G01 X29.3532 Y19.2431
G01 X29.2812 Y19.2360
G01 X29.1202 Y19.1718
G01 X29.0601 Y19.1316
G00 X29.0601 Y19.1316
G01 F60.00
G01 Z-0.1000
G01 F120.00
G01 X29.0030 Y19.0544
G01 X28.9868 Y19.0089
G01 X28.9795 Y18.9490
G01 X28.9848 Y15.9737
G01 X28.9923 Y15.9138
G01 X29.0086 Y15.8683
G01 X29.0489 Y15.8082
G01 X29.3966 Y15.4611
G01 X29.4355 Y15.4323
G01 X29.5024 Y15.4046
G01 X29.5623 Y15.3972
G01 X30.6788 Y15.3972
G01 X30.7388 Y15.4046
G01 X30.7843 Y15.4209
G01 X30.8257 Y15.4458
G01 X30.9389 Y15.5467
G01 X30.9961 Y15.6240
G01 X31.0193 Y15.7173
G01 X31.0167 Y15.8908
G01 X31.0048 Y15.9377
G01 X30.9706 Y16.0015
G01 X30.8725 Y16.0914
G01 X30.7045 Y16.2956
G01 X30.5796 Y16.5286
G01 X30.5024 Y16.7814
G01 X30.4761 Y17.0442
G01 X30.5015 Y17.3071
G01 X30.5778 Y17.5599
G01 X30.7019 Y17.7928
G01 X30.8691 Y17.9970
G01 X30.9517 Y18.0684
G01 X31.0009 Y18.1509
G01 X31.0149 Y18.2218
G01 X31.0146 Y18.3712
G01 X30.9911 Y18.4644
G01 X30.9338 Y18.5416
G01 X30.8197 Y18.6429
G01 X30.7560 Y18.6769
G01 X30.6851 Y18.6910
G01 X30.3677 Y18.6913
G01 X30.1300 Y18.7226
G01 X29.9236 Y18.8080
G01 X29.7333 Y18.9538
G01 X29.5068 Y19.1795
G01 X29.4242 Y19.2290
G01 X29.3532 Y19.2431
G01 X29.2812 Y19.2360
G01 X29.1202 Y19.1718
G01 X29.0601 Y19.1316
G00 Z2.0000
G00 X29.5163 Y19.1701
G01 F60.00
G01 Z-0.1000
G01 F120.00
G01 X29.5068 Y19.1795
G01 X29.4242 Y19.2290
G01 X29.3532 Y19.2431
G01 X29.2812 Y19.2360
G01 X29.1202 Y19.1718
G01 X29.0601 Y19.1316
G01 X28.9795 Y18.9490
G01 X28.9868 Y19.0089
G01 X29.0030 Y19.0544
G01 X29.0601 Y19.1316
G00 X29.0601 Y19.1316
G01 F60.00
G01 Z-0.1500
G01 F120.00
G01 X29.1202 Y19.1718
G01 X29.2812 Y19.2360
G01 X29.3532 Y19.2431
G01 X29.4242 Y19.2290
G01 X29.5068 Y19.1795
G01 X29.7333 Y18.9538
G01 X29.9236 Y18.8080
G01 X30.1300 Y18.7226
G01 X30.3677 Y18.6913
G01 X30.6851 Y18.6910
G01 X30.7560 Y18.6769
G01 X30.8197 Y18.6429
G01 X30.9338 Y18.5416
G01 X30.9911 Y18.4644
G01 X31.0146 Y18.3712
G01 X31.0149 Y18.2218
G01 X31.0009 Y18.1509
G01 X30.9517 Y18.0684
G01 X30.8691 Y17.9970
G01 X30.7019 Y17.7928
G01 X30.5778 Y17.5599
G01 X30.5015 Y17.3071
G01 X30.4761 Y17.0442
G01 X30.5024 Y16.7814
G01 X30.5796 Y16.5286
G01 X30.7045 Y16.2956
G01 X30.8725 Y16.0914
G01 X30.9706 Y16.0015
G01 X31.0048 Y15.9377
G01 X31.0167 Y15.8908
G01 X31.0193 Y15.7173
G01 X30.9961 Y15.6240
G01 X30.9389 Y15.5467
G01 X30.8257 Y15.4458
G01 X30.7843 Y15.4209
G01 X30.7388 Y15.4046
G01 X30.6788 Y15.3972
G01 X29.5623 Y15.3972
G01 X29.5024 Y15.4046
G01 X29.4355 Y15.4323
G01 X29.3966 Y15.4611
G01 X29.0489 Y15.8082
G01 X29.0086 Y15.8683
G01 X28.9923 Y15.9138
G01 X28.9848 Y15.9737
G01 X28.9795 Y18.9490
G01 X28.9868 Y19.0089
G01 X29.0030 Y19.0544
G01 X29.0601 Y19.1316
G00 Z2.0000
G00 X28.9800 Y18.6537
G01 F60.00
G01 Z-0.1500
G01 F120.00
G01 X28.9795 Y18.9490
G01 X28.9868 Y19.0089
G01 X29.0030 Y19.0544
G01 X29.0601 Y19.1316
G01 X29.5068 Y19.1795
G01 X29.4242 Y19.2290
G01 X29.3532 Y19.2431
G01 X29.2812 Y19.2360
G01 X29.1202 Y19.1718
G01 X29.0601 Y19.1316
G00 Z2.0000
G00 X28.8279 Y26.4871
G01 F60.00
G01 Z-0.0500
G01 F120.00
G01 X28.9602 Y26.4992
G01 X39.5932 Y26.4992
G01 X39.7098 Y26.5608
G01 X39.8014 Y26.5945
G01 X39.9571 Y26.6264
G01 X40.0668 Y26.6318
G01 X40.2130 Y26.6174
G01 X40.3195 Y26.5907
G01 X40.4662 Y26.5291
G01 X40.5990 Y26.4415
G01 X40.6805 Y26.3678
G01 X40.7809 Y26.2443
G01 X40.8569 Y26.1045
G01 X40.8908 Y26.0128
G01 X40.9254 Y25.8330
G01 X40.9256 Y25.6860
G01 X40.9144 Y25.6012
G01 X40.8630 Y25.4256
G01 X40.7826 Y25.2747
G01 X40.6743 Y25.1425
G01 X40.5321 Y25.0275
G01 X40.4581 Y24.9845
G01 X40.3225 Y24.9282
G01 X40.1433 Y24.8911
G01 X39.9843 Y24.8902
G01 X39.8757 Y24.9063
G01 X39.7237 Y24.9533
G01 X39.5958 Y25.0197
G01 X29.2693 Y25.0197
G01 X28.8518 Y24.6016
G01 X28.8673 Y15.8230
G01 X29.4117 Y15.2796
G01 X30.8423 Y15.2796
G01 X30.9466 Y15.4026
G01 X31.0444 Y15.4925
G01 X31.1414 Y15.5646
G01 X31.2450 Y15.6268
G01 X31.3543 Y15.6785
G01 X31.4681 Y15.7192
G01 X31.5854 Y15.7486
G01 X31.7050 Y15.7664
G01 X32.3248 Y15.7722
G01 X32.4396 Y15.7664
G01 X32.5473 Y15.7507
G01 X32.6766 Y15.7192
G01 X32.7906 Y15.6785
G01 X32.9000 Y15.6268
G01 X33.0039 Y15.5646
G01 X33.1012 Y15.4925
G01 X33.1821 Y15.4197
G01 X33.2723 Y15.3217
G01 X33.3510 Y15.2143
G01 X33.4069 Y15.1208
G01 X33.4539 Y15.0225
G01 X33.4998 Y14.8976
G01 X33.5314 Y14.7683
G01 X33.5473 Y14.6606
G01 X33.5531 Y14.5519
G01 X33.5463 Y14.4070
G01 X33.5302 Y14.2994
G01 X33.5042 Y14.1937
G01 X33.4605 Y14.0682
G01 X33.4030 Y13.9483
G01 X33.3470 Y13.8551
G01 X33.2751 Y13.7579
G01 X33.1853 Y13.6600
G01 X33.1045 Y13.5871
G01 X33.0075 Y13.5150
G01 X32.8931 Y13.4474
G01 X32.7946 Y13.4011
G01 X32.6808 Y13.3604
G01 X32.5516 Y13.3289
G01 X32.4439 Y13.3132
G01 X32.3292 Y13.3074
G01 X31.8241 Y13.3074
G01 X31.7093 Y13.3132
G01 X31.5778 Y13.3336
G01 X31.4723 Y13.3604
G01 X31.3583 Y13.4011
G01 X31.2489 Y13.4528
G01 X31.1450 Y13.5150
G01 X31.0478 Y13.5871
G01 X30.9668 Y13.6600
G01 X30.8449 Y13.8001
G01 X29.1019 Y13.8001
G01 X28.9636 Y13.8143
G01 X28.8360 Y13.8520
G01 X28.6967 Y13.9247
G01 X28.5888 Y14.0125
G01 X27.6018 Y14.9978
G01 X27.5497 Y15.0568
G01 X27.4823 Y15.1573
G01 X27.4206 Y15.3018
G01 X27.4008 Y15.3841
G01 X27.3884 Y15.5165
G01 X27.3767 Y24.9925
G01 X27.4033 Y25.1227
G01 X27.4531 Y25.2459
G01 X27.5027 Y25.3289
G01 X27.5833 Y25.4267
G01 X28.4913 Y26.3313
G01 X28.5597 Y26.3810
G01 X28.6662 Y26.4380
G01 X28.7456 Y26.4674
G01 X28.8279 Y26.4871
G00 Z2.0000
G00 X28.4024 Y26.2428
G01 F60.00
G01 Z-0.0500
G01 F120.00
G01 X28.4913 Y26.3313
G01 X28.5597 Y26.3810
G01 X28.6662 Y26.4380
G01 X28.7456 Y26.4674
G01 X28.8279 Y26.4871
G01 X28.9602 Y26.4992
G01 X28.8279 Y26.4871
G00 X28.8279 Y26.4871
G01 F60.00
G01 Z-0.1000
G01 F120.00
G01 X28.7456 Y26.4674
G01 X28.6662 Y26.4380
G01 X28.5597 Y26.3810
G01 X28.4913 Y26.3313
G01 X27.5833 Y25.4267
G01 X27.5027 Y25.3289
G01 X27.4531 Y25.2459
G01 X27.4033 Y25.1227
G01 X27.3767 Y24.9925
G01 X27.3884 Y15.5165
G01 X27.4008 Y15.3841
G01 X27.4206 Y15.3018
G01 X27.4823 Y15.1573
G01 X27.5497 Y15.0568
G01 X27.6018 Y14.9978
G01 X28.5888 Y14.0125
G01 X28.6967 Y13.9247
G01 X28.8360 Y13.8520
G01 X28.9636 Y13.8143
G01 X29.1019 Y13.8001
G01 X30.8449 Y13.8001
G01 X30.9668 Y13.6600
G01 X31.0478 Y13.5871
G01 X31.1450 Y13.5150
G01 X31.2489 Y13.4528
G01 X31.3583 Y13.4011
G01 X31.4723 Y13.3604
G01 X31.5778 Y13.3336
G01 X31.7093 Y13.3132
G01 X31.8241 Y13.3074
G01 X32.3292 Y13.3074
G01 X32.4439 Y13.3132
G01 X32.5516 Y13.3289
G01 X32.6808 Y13.3604
G01 X32.7946 Y13.4011
G01 X32.8931 Y13.4474
G01 X33.0075 Y13.5150
G01 X33.1045 Y13.5871
G01 X33.1853 Y13.6600
G01 X33.2751 Y13.7579
G01 X33.3470 Y13.8551
G01 X33.4030 Y13.9483
G01 X33.4605 Y14.0682
G01 X33.5042 Y14.1937
G01 X33.5302 Y14.2994
G01 X33.5463 Y14.4070
G01 X33.5531 Y14.5519
G01 X33.5473 Y14.6606
G01 X33.5314 Y14.7683
G01 X33.4998 Y14.8976
G01 X33.4539 Y15.0225
G01 X33.4069 Y15.1208
G01 X33.3510 Y15.2143
G01 X33.2723 Y15.3217
G01 X33.1821 Y15.4197
G01 X33.1012 Y15.4925
G01 X33.0039 Y15.5646
G01 X32.9000 Y15.6268
G01 X32.7906 Y15.6785
G01 X32.6766 Y15.7192
G01 X32.5473 Y15.7507
G01 X32.4396 Y15.7664
G01 X32.3248 Y15.7722
G01 X31.7050 Y15.7664
G01 X31.5854 Y15.7486
G01 X31.4681 Y15.7192
G01 X31.3543 Y15.6785
G01 X31.2450 Y15.6268
G01 X31.1414 Y15.5646
G01 X31.0444 Y15.4925
G01 X30.9466 Y15.4026
G01 X30.8423 Y15.2796
G01 X29.4117 Y15.2796
G01 X28.8673 Y15.8230
G01 X28.8518 Y24.6016
G01 X29.2693 Y25.0197
G01 X39.5958 Y25.0197
G01 X39.7237 Y24.9533
G01 X39.8757 Y24.9063
G01 X39.9843 Y24.8902
G01 X40.1433 Y24.8911
G01 X40.3225 Y24.9282
G01 X40.4581 Y24.9845
G01 X40.5321 Y25.0275
G01 X40.6743 Y25.1425
G01 X40.7826 Y25.2747
G01 X40.8630 Y25.4256
G01 X40.9144 Y25.6012
G01 X40.9256 Y25.6860
G01 X40.9254 Y25.8330
G01 X40.8908 Y26.0128
G01 X40.8569 Y26.1045
G01 X40.7809 Y26.2443
G01 X40.6805 Y26.3678
G01 X40.5990 Y26.4415
G01 X40.4662 Y26.5291
G01 X40.3195 Y26.5907
G01 X40.2130 Y26.6174
G01 X40.0668 Y26.6318
G01 X39.9571 Y26.6264
G01 X39.8014 Y26.5945
G01 X39.7098 Y26.5608
G01 X39.5932 Y26.4992
G01 X28.9602 Y26.4992
G01 X28.8279 Y26.4871
G00 Z2.0000
G00 X29.3273 Y26.4992
G01 F60.00
G01 Z-0.1000
G01 F120.00
G01 X28.9602 Y26.4992
G01 X28.8279 Y26.4871
G01 X28.4913 Y26.3313
G01 X28.5597 Y26.3810
G01 X28.6662 Y26.4380
G01 X28.7456 Y26.4674
G01 X28.8279 Y26.4871
G00 X28.8279 Y26.4871
G01 F60.00
G01 Z-0.1500
G01 F120.00
G01 X28.9602 Y26.4992
G01 X39.5932 Y26.4992
G01 X39.7098 Y26.5608
G01 X39.8014 Y26.5945
G01 X39.9571 Y26.6264
G01 X40.0668 Y26.6318
G01 X40.2130 Y26.6174
G01 X40.3195 Y26.5907
G01 X40.4662 Y26.5291
G01 X40.5990 Y26.4415
G01 X40.6805 Y26.3678
G01 X40.7809 Y26.2443
G01 X40.8569 Y26.1045
G01 X40.8908 Y26.0128
G01 X40.9254 Y25.8330
G01 X40.9256 Y25.6860
G01 X40.9144 Y25.6012
G01 X40.8630 Y25.4256
G01 X40.7826 Y25.2747
G01 X40.6743 Y25.1425
G01 X40.5321 Y25.0275
G01 X40.4581 Y24.9845
G01 X40.3225 Y24.9282
G01 X40.1433 Y24.8911
G01 X39.9843 Y24.8902
G01 X39.8757 Y24.9063
G01 X39.7237 Y24.9533
G01 X39.5958 Y25.0197
G01 X29.2693 Y25.0197
G01 X28.8518 Y24.6016
G01 X28.8673 Y15.8230
G01 X29.4117 Y15.2796
G01 X30.8423 Y15.2796
G01 X30.9466 Y15.4026
G01 X31.0444 Y15.4925
G01 X31.1414 Y15.5646
G01 X31.2450 Y15.6268
G01 X31.3543 Y15.6785
G01 X31.4681 Y15.7192
G01 X31.5854 Y15.7486
G01 X31.7050 Y15.7664
G01 X32.3248 Y15.7722
G01 X32.4396 Y15.7664
G01 X32.5473 Y15.7507
G01 X32.6766 Y15.7192
G01 X32.7906 Y15.6785
G01 X32.9000 Y15.6268
G01 X33.0039 Y15.5646
G01 X33.1012 Y15.4925
G01 X33.1821 Y15.4197
G01 X33.2723 Y15.3217
G01 X33.3510 Y15.2143
G01 X33.4069 Y15.1208
G01 X33.4539 Y15.0225
G01 X33.4998 Y14.8976
G01 X33.5314 Y14.7683
G01 X33.5473 Y14.6606
G01 X33.5531 Y14.5519
G01 X33.5463 Y14.4070
G01 X33.5302 Y14.2994
G01 X33.5042 Y14.1937
G01 X33.4605 Y14.0682
G01 X33.4030 Y13.9483
G01 X33.3470 Y13.8551
G01 X33.2751 Y13.7579
G01 X33.1853 Y13.6600
G01 X33.1045 Y13.5871
G01 X33.0075 Y13.5150
G01 X32.8931 Y13.4474
G01 X32.7946 Y13.4011
G01 X32.6808 Y13.3604
G01 X32.5516 Y13.3289
G01 X32.4439 Y13.3132
G01 X32.3292 Y13.3074
G01 X31.8241 Y13.3074
G01 X31.7093 Y13.3132
G01 X31.5778 Y13.3336
G01 X31.4723 Y13.3604
G01 X31.3583 Y13.4011
G01 X31.2489 Y13.4528
G01 X31.1450 Y13.5150
G01 X31.0478 Y13.5871
G01 X30.9668 Y13.6600
G01 X30.8449 Y13.8001
G01 X29.1019 Y13.8001
G01 X28.9636 Y13.8143
G01 X28.8360 Y13.8520
G01 X28.6967 Y13.9247
G01 X28.5888 Y14.0125
G01 X27.6018 Y14.9978
G01 X27.5497 Y15.0568
G01 X27.4823 Y15.1573
G01 X27.4206 Y15.3018
G01 X27.4008 Y15.3841
G01 X27.3884 Y15.5165
G01 X27.3767 Y24.9925
G01 X27.4033 Y25.1227
G01 X27.4531 Y25.2459
G01 X27.5027 Y25.3289
G01 X27.5833 Y25.4267
G01 X28.4913 Y26.3313
G01 X28.5597 Y26.3810
G01 X28.6662 Y26.4380
G01 X28.7456 Y26.4674
G01 X28.8279 Y26.4871
G00 Z2.0000
G00 X28.4024 Y26.2428
G01 F60.00
G01 Z-0.1500
G01 F120.00
G01 X28.4913 Y26.3313
G01 X28.5597 Y26.3810
G01 X28.6662 Y26.4380
G01 X28.7456 Y26.4674
G01 X28.8279 Y26.4871
G01 X28.9602 Y26.4992
G01 X28.8279 Y26.4871
G00 Z2.0000
G00 X35.4923 Y31.4905
G01 F60.00
G01 Z-0.0500
G01 F120.00
G01 X35.2850 Y31.4917
G01 X35.1410 Y31.3475
G01 X35.1453 Y28.9225
G01 X35.2898 Y28.7783
G01 X40.5659 Y28.7783
G01 X40.6935 Y28.8447
G01 X40.8572 Y28.8944
G01 X41.0274 Y28.9111
G01 X41.1976 Y28.8944
G01 X41.3725 Y28.8398
G01 X41.5022 Y28.7705
G01 X41.5813 Y28.7131
G01 X41.7099 Y28.5826
G01 X41.7918 Y28.4604
G01 X41.8345 Y28.3725
G01 X41.8667 Y28.2802
G01 X41.8957 Y28.1361
G01 X41.8975 Y27.9530
G01 X41.8606 Y27.7737
G01 X41.8046 Y27.6380
G01 X41.7618 Y27.5639
G01 X41.7044 Y27.4849
G01 X41.6383 Y27.4132
G01 X41.5249 Y27.3199
G01 X41.4416 Y27.2690
G01 X41.2720 Y27.2003
G01 X41.1280 Y27.1716
G01 X41.0304 Y27.1659
G01 X40.9329 Y27.1716
G01 X40.7771 Y27.2035
G01 X40.6853 Y27.2372
G01 X40.5685 Y27.2988
G01 X34.9800 Y27.2989
G01 X34.8536 Y27.3109
G01 X34.7713 Y27.3306
G01 X34.6918 Y27.3600
G01 X34.5851 Y27.4170
G01 X34.4669 Y27.5112
G01 X33.8351 Y28.1468
G01 X33.7853 Y28.2154
G01 X33.7281 Y28.3220
G01 X33.6986 Y28.4014
G01 X33.6787 Y28.4837
G01 X33.6664 Y28.6161
G01 X33.6611 Y31.6599
G01 X33.6729 Y31.7863
G01 X33.6925 Y31.8686
G01 X33.7217 Y31.9480
G01 X33.7785 Y32.0546
G01 X33.8725 Y32.1726
G01 X34.4576 Y32.7588
G01 X34.5554 Y32.8396
G01 X34.6275 Y32.8839
G01 X34.7613 Y32.9394
G01 X34.9035 Y32.9677
G01 X35.4337 Y32.9712
G01 X35.4331 Y33.3686
G01 X35.4435 Y33.4341
G01 X35.4679 Y33.4892
G01 X35.5049 Y33.5368
G01 X35.5524 Y33.5740
G01 X35.6076 Y33.5984
G01 X35.6791 Y33.6090
G01 X38.1501 Y33.6089
G01 X38.2040 Y33.6016
G01 X38.2603 Y33.5799
G01 X38.3097 Y33.5452
G01 X38.3492 Y33.4995
G01 X38.3803 Y33.4341
G01 X38.3909 Y33.3686
G01 X38.3940 Y31.6408
G01 X38.3868 Y31.5870
G01 X38.3652 Y31.5307
G01 X38.3305 Y31.4813
G01 X38.2849 Y31.4419
G01 X38.2195 Y31.4110
G01 X38.1540 Y31.4005
G01 X35.6769 Y31.4005
G01 X35.6231 Y31.4078
G01 X35.5776 Y31.4241
G01 X35.5265 Y31.4563
G01 X35.4923 Y31.4905
G00 Z2.0000
G00 X35.9655 Y31.4005
G01 F60.00
G01 Z-0.0500
G01 F120.00
G01 X35.6769 Y31.4005
G01 X35.6231 Y31.4078
G01 X35.5776 Y31.4241
G01 X35.5265 Y31.4563
G01 X35.4923 Y31.4905
G01 X35.1410 Y31.3475
G01 X35.2850 Y31.4917
G01 X35.4923 Y31.4905
G00 X35.4923 Y31.4905
G01 F60.00
G01 Z-0.1000
G01 F120.00
G01 X35.5265 Y31.4563
G01 X35.5776 Y31.4241
G01 X35.6231 Y31.4078
G01 X35.6769 Y31.4005
G01 X38.1540 Y31.4005
G01 X38.2195 Y31.4110
G01 X38.2849 Y31.4419
G01 X38.3305 Y31.4813
G01 X38.3652 Y31.5307
G01 X38.3868 Y31.5870
G01 X38.3940 Y31.6408
G01 X38.3909 Y33.3686
G01 X38.3803 Y33.4341
G01 X38.3492 Y33.4995
G01 X38.3097 Y33.5452
G01 X38.2603 Y33.5799
G01 X38.2040 Y33.6016
G01 X38.1501 Y33.6089
G01 X35.6791 Y33.6090
G01 X35.6076 Y33.5984
G01 X35.5524 Y33.5740
G01 X35.5049 Y33.5368
G01 X35.4679 Y33.4892
G01 X35.4435 Y33.4341
G01 X35.4331 Y33.3686
G01 X35.4337 Y32.9712
G01 X34.9035 Y32.9677
G01 X34.7613 Y32.9394
G01 X34.6275 Y32.8839
G01 X34.5554 Y32.8396
G01 X34.4576 Y32.7588
G01 X33.8725 Y32.1726
G01 X33.7785 Y32.0546
G01 X33.7217 Y31.9480
G01 X33.6925 Y31.8686
G01 X33.6729 Y31.7863
G01 X33.6611 Y31.6599
G01 X33.6664 Y28.6161
G01 X33.6787 Y28.4837
G01 X33.6986 Y28.4014
G01 X33.7281 Y28.3220
G01 X33.7853 Y28.2154
G01 X33.8351 Y28.1468
G01 X34.4669 Y27.5112
G01 X34.5851 Y27.4170
G01 X34.6918 Y27.3600
G01 X34.7713 Y27.3306
G01 X34.8536 Y27.3109
G01 X34.9800 Y27.2989
G01 X40.5685 Y27.2988
G01 X40.6853 Y27.2372
G01 X40.7771 Y27.2035
G01 X40.9329 Y27.1716
G01 X41.0304 Y27.1659
G01 X41.1280 Y27.1716
G01 X41.2720 Y27.2003
G01 X41.4416 Y27.2690
G01 X41.5249 Y27.3199
G01 X41.6383 Y27.4132
G01 X41.7044 Y27.4849
G01 X41.7618 Y27.5639
G01 X41.8046 Y27.6380
G01 X41.8606 Y27.7737
G01 X41.8975 Y27.9530
G01 X41.8957 Y28.1361
G01 X41.8667 Y28.2802
G01 X41.8345 Y28.3725
G01 X41.7918 Y28.4604
G01 X41.7099 Y28.5826
G01 X41.5813 Y28.7131
G01 X41.5022 Y28.7705
G01 X41.3725 Y28.8398
G01 X41.1976 Y28.8944
G01 X41.0274 Y28.9111
G01 X40.8572 Y28.8944
G01 X40.6935 Y28.8447
G01 X40.5659 Y28.7783
G01 X35.2898 Y28.7783
G01 X35.1453 Y28.9225
G01 X35.1410 Y31.3475
G01 X35.2850 Y31.4917
G01 X35.4923 Y31.4905
G00 Z2.0000
G00 X35.1412 Y31.2586
G01 F60.00
G01 Z-0.1000
G01 F120.00
G01 X35.1410 Y31.3475
G01 X35.2850 Y31.4917
G01 X35.4923 Y31.4905
G01 X35.6769 Y31.4005
G01 X35.6231 Y31.4078
G01 X35.5776 Y31.4241
G01 X35.5265 Y31.4563
G01 X35.4923 Y31.4905
G00 X35.4923 Y31.4905
G01 F60.00
G01 Z-0.1500
G01 F120.00
G01 X35.2850 Y31.4917
G01 X35.1410 Y31.3475
G01 X35.1453 Y28.9225
G01 X35.2898 Y28.7783
G01 X40.5659 Y28.7783
G01 X40.6935 Y28.8447
G01 X40.8572 Y28.8944
G01 X41.0274 Y28.9111
G01 X41.1976 Y28.8944
G01 X41.3725 Y28.8398
G01 X41.5022 Y28.7705
G01 X41.5813 Y28.7131
G01 X41.7099 Y28.5826
G01 X41.7918 Y28.4604
G01 X41.8345 Y28.3725
G01 X41.8667 Y28.2802
G01 X41.8957 Y28.1361
G01 X41.8975 Y27.9530
G01 X41.8606 Y27.7737
G01 X41.8046 Y27.6380
G01 X41.7618 Y27.5639
G01 X41.7044 Y27.4849
G01 X41.6383 Y27.4132
G01 X41.5249 Y27.3199
G01 X41.4416 Y27.2690
G01 X41.2720 Y27.2003
G01 X41.1280 Y27.1716
G01 X41.0304 Y27.1659
G01 X40.9329 Y27.1716
G01 X40.7771 Y27.2035
G01 X40.6853 Y27.2372
G01 X40.5685 Y27.2988
G01 X34.9800 Y27.2989
G01 X34.8536 Y27.3109
G01 X34.7713 Y27.3306
G01 X34.6918 Y27.3600
G01 X34.5851 Y27.4170
G01 X34.4669 Y27.5112
G01 X33.8351 Y28.1468
G01 X33.7853 Y28.2154
G01 X33.7281 Y28.3220
G01 X33.6986 Y28.4014
G01 X33.6787 Y28.4837
G01 X33.6664 Y28.6161
G01 X33.6611 Y31.6599
G01 X33.6729 Y31.7863
G01 X33.6925 Y31.8686
G01 X33.7217 Y31.9480
G01 X33.7785 Y32.0546
G01 X33.8725 Y32.1726
G01 X34.4576 Y32.7588
G01 X34.5554 Y32.8396
G01 X34.6275 Y32.8839
G01 X34.7613 Y32.9394
G01 X34.9035 Y32.9677
G01 X35.4337 Y32.9712
G01 X35.4331 Y33.3686
G01 X35.4435 Y33.4341
G01 X35.4679 Y33.4892
G01 X35.5049 Y33.5368
G01 X35.5524 Y33.5740
G01 X35.6076 Y33.5984
G01 X35.6791 Y33.6090
G01 X38.1501 Y33.6089
G01 X38.2040 Y33.6016
G01 X38.2603 Y33.5799
G01 X38.3097 Y33.5452
G01 X38.3492 Y33.4995
G01 X38.3803 Y33.4341
G01 X38.3909 Y33.3686
G01 X38.3940 Y31.6408
G01 X38.3868 Y31.5870
G01 X38.3652 Y31.5307
G01 X38.3305 Y31.4813
G01 X38.2849 Y31.4419
G01 X38.2195 Y31.4110
G01 X38.1540 Y31.4005
G01 X35.6769 Y31.4005
G01 X35.6231 Y31.4078
G01 X35.5776 Y31.4241
G01 X35.5265 Y31.4563
G01 X35.4923 Y31.4905
G00 Z2.0000
G00 X35.9655 Y31.4005
G01 F60.00
G01 Z-0.1500
G01 F120.00
G01 X35.6769 Y31.4005
G01 X35.6231 Y31.4078
G01 X35.5776 Y31.4241
G01 X35.5265 Y31.4563
G01 X35.4923 Y31.4905
G01 X35.1410 Y31.3475
G01 X35.2850 Y31.4917
G01 X35.4923 Y31.4905
G00 Z2.0000
G00 X36.5866 Y36.7384
G01 F60.00
G01 Z-0.0500
G01 F120.00
G01 X36.6045 Y36.6188
G01 X36.6106 Y36.5041
G01 X36.6115 Y35.9989
G01 X36.6058 Y35.8842
G01 X36.5903 Y35.7765
G01 X36.5591 Y35.6472
G01 X36.5186 Y35.5333
G01 X36.4670 Y35.4240
G01 X36.4051 Y35.3203
G01 X36.3406 Y35.2326
G01 X36.2434 Y35.1251
G01 X36.1626 Y35.0523
G01 X36.0554 Y34.9737
G01 X35.9620 Y34.9180
G01 X35.8527 Y34.8663
G01 X35.7389 Y34.8256
G01 X35.6216 Y34.7962
G01 X35.5020 Y34.7784
G01 X35.3812 Y34.7725
G01 X35.2604 Y34.7784
G01 X35.1407 Y34.7962
G01 X35.0234 Y34.8256
G01 X34.9094 Y34.8663
G01 X34.8000 Y34.9180
G01 X34.6961 Y34.9802
G01 X34.5989 Y35.0523
G01 X34.5091 Y35.1335
G01 X34.4277 Y35.2231
G01 X34.3490 Y35.3305
G01 X34.2931 Y35.4240
G01 X34.2461 Y35.5223
G01 X34.2041 Y35.6357
G01 X34.1707 Y35.7645
G01 X34.1542 Y35.8722
G01 X34.1466 Y36.0050
G01 X34.1457 Y36.5040
G01 X34.1514 Y36.6188
G01 X34.1669 Y36.7265
G01 X34.1981 Y36.8558
G01 X34.2387 Y36.9697
G01 X34.2902 Y37.0790
G01 X34.3522 Y37.1827
G01 X34.4241 Y37.2799
G01 X34.5051 Y37.3695
G01 X34.5946 Y37.4507
G01 X34.7018 Y37.5293
G01 X34.8061 Y37.5904
G01 X34.9045 Y37.6367
G01 X35.0068 Y37.6736
G01 X35.1356 Y37.7068
G01 X35.2552 Y37.7246
G01 X35.3760 Y37.7305
G01 X35.5088 Y37.7231
G01 X35.6165 Y37.7068
G01 X35.7222 Y37.6806
G01 X35.8478 Y37.6367
G01 X35.9573 Y37.5850
G01 X36.0710 Y37.5158
G01 X36.1584 Y37.4507
G01 X36.2394 Y37.3778
G01 X36.3295 Y37.2799
G01 X36.4018 Y37.1827
G01 X36.4696 Y37.0682
G01 X36.5160 Y36.9697
G01 X36.5532 Y36.8673
G01 X36.5866 Y36.7384
G00 Z2.0000
G00 X36.3922 Y37.1955
G01 F60.00
G01 Z-0.0500
G01 F120.00
G01 X36.4018 Y37.1827
G01 X36.4696 Y37.0682
G01 X36.5160 Y36.9697
G01 X36.5532 Y36.8673
G01 X36.5866 Y36.7384
G01 X36.6106 Y36.5041
G01 X36.6045 Y36.6188
G01 X36.5866 Y36.7384
G00 X36.5866 Y36.7384
G01 F60.00
G01 Z-0.1000
G01 F120.00
G01 X36.5532 Y36.8673
G01 X36.5160 Y36.9697
G01 X36.4696 Y37.0682
G01 X36.4018 Y37.1827
G01 X36.3295 Y37.2799
G01 X36.2394 Y37.3778
G01 X36.1584 Y37.4507
G01 X36.0710 Y37.5158
G01 X35.9573 Y37.5850
G01 X35.8478 Y37.6367
G01 X35.7222 Y37.6806
G01 X35.6165 Y37.7068
G01 X35.5088 Y37.7231
G01 X35.3760 Y37.7305
G01 X35.2552 Y37.7246
G01 X35.1356 Y37.7068
G01 X35.0068 Y37.6736
G01 X34.9045 Y37.6367
G01 X34.8061 Y37.5904
G01 X34.7018 Y37.5293
G01 X34.5946 Y37.4507
G01 X34.5051 Y37.3695
G01 X34.4241 Y37.2799
G01 X34.3522 Y37.1827
G01 X34.2902 Y37.0790
G01 X34.2387 Y36.9697
G01 X34.1981 Y36.8558
G01 X34.1669 Y36.7265
G01 X34.1514 Y36.6188
G01 X34.1457 Y36.5040
G01 X34.1466 Y36.0050
G01 X34.1542 Y35.8722
G01 X34.1707 Y35.7645
G01 X34.2041 Y35.6357
G01 X34.2461 Y35.5223
G01 X34.2931 Y35.4240
G01 X34.3490 Y35.3305
G01 X34.4277 Y35.2231
G01 X34.5091 Y35.1335
G01 X34.5989 Y35.0523
G01 X34.6961 Y34.9802
G01 X34.8000 Y34.9180
G01 X34.9094 Y34.8663
G01 X35.0234 Y34.8256
G01 X35.1407 Y34.7962
G01 X35.2604 Y34.7784
G01 X35.3812 Y34.7725
G01 X35.5020 Y34.7784
G01 X35.6216 Y34.7962
G01 X35.7389 Y34.8256
G01 X35.8527 Y34.8663
G01 X35.9620 Y34.9180
G01 X36.0554 Y34.9737
G01 X36.1626 Y35.0523
G01 X36.2434 Y35.1251
G01 X36.3406 Y35.2326
G01 X36.4051 Y35.3203
G01 X36.4670 Y35.4240
G01 X36.5186 Y35.5333
G01 X36.5591 Y35.6472
G01 X36.5903 Y35.7765
G01 X36.6058 Y35.8842
G01 X36.6115 Y35.9989
G01 X36.6106 Y36.5041
G01 X36.6045 Y36.6188
G01 X36.5866 Y36.7384
G00 Z2.0000
G00 X36.6111 Y36.2399
G01 F60.00
G01 Z-0.1000
G01 F120.00
G01 X36.6106 Y36.5041
G01 X36.6045 Y36.6188
G01 X36.5866 Y36.7384
G01 X36.4018 Y37.1827
G01 X36.4696 Y37.0682
G01 X36.5160 Y36.9697
G01 X36.5532 Y36.8673
G01 X36.5866 Y36.7384
G00 X36.5866 Y36.7384
G01 F60.00
G01 Z-0.1500
G01 F120.00
G01 X36.6045 Y36.6188
G01 X36.6106 Y36.5041
G01 X36.6115 Y35.9989
G01 X36.6058 Y35.8842
G01 X36.5903 Y35.7765
G01 X36.5591 Y35.6472
G01 X36.5186 Y35.5333
G01 X36.4670 Y35.4240
G01 X36.4051 Y35.3203
G01 X36.3406 Y35.2326
G01 X36.2434 Y35.1251
G01 X36.1626 Y35.0523
G01 X36.0554 Y34.9737
G01 X35.9620 Y34.9180
G01 X35.8527 Y34.8663
G01 X35.7389 Y34.8256
G01 X35.6216 Y34.7962
G01 X35.5020 Y34.7784
G01 X35.3812 Y34.7725
G01 X35.2604 Y34.7784
G01 X35.1407 Y34.7962
G01 X35.0234 Y34.8256
G01 X34.9094 Y34.8663
G01 X34.8000 Y34.9180
G01 X34.6961 Y34.9802
G01 X34.5989 Y35.0523
G01 X34.5091 Y35.1335
G01 X34.4277 Y35.2231
G01 X34.3490 Y35.3305
G01 X34.2931 Y35.4240
G01 X34.2461 Y35.5223
G01 X34.2041 Y35.6357
G01 X34.1707 Y35.7645
G01 X34.1542 Y35.8722
G01 X34.1466 Y36.0050
G01 X34.1457 Y36.5040
G01 X34.1514 Y36.6188
G01 X34.1669 Y36.7265
G01 X34.1981 Y36.8558
G01 X34.2387 Y36.9697
G01 X34.2902 Y37.0790
G01 X34.3522 Y37.1827
G01 X34.4241 Y37.2799
G01 X34.5051 Y37.3695
G01 X34.5946 Y37.4507
G01 X34.7018 Y37.5293
G01 X34.8061 Y37.5904
G01 X34.9045 Y37.6367
G01 X35.0068 Y37.6736
G01 X35.1356 Y37.7068
G01 X35.2552 Y37.7246
G01 X35.3760 Y37.7305
G01 X35.5088 Y37.7231
G01 X35.6165 Y37.7068
G01 X35.7222 Y37.6806
G01 X35.8478 Y37.6367
G01 X35.9573 Y37.5850
G01 X36.0710 Y37.5158
G01 X36.1584 Y37.4507
G01 X36.2394 Y37.3778
G01 X36.3295 Y37.2799
G01 X36.4018 Y37.1827
G01 X36.4696 Y37.0682
G01 X36.5160 Y36.9697
G01 X36.5532 Y36.8673
G01 X36.5866 Y36.7384
G00 Z2.0000
G00 X36.3922 Y37.1955
G01 F60.00
G01 Z-0.1500
G01 F120.00
G01 X36.4018 Y37.1827
G01 X36.4696 Y37.0682
G01 X36.5160 Y36.9697
G01 X36.5532 Y36.8673
G01 X36.5866 Y36.7384
G01 X36.6106 Y36.5041
G01 X36.6045 Y36.6188
G01 X36.5866 Y36.7384
G00 Z2.0000
G00 X39.1403 Y36.7384
G01 F60.00
G01 Z-0.0500
G01 F120.00
G01 X39.1583 Y36.6188
G01 X39.1643 Y36.5040
G01 X39.1652 Y35.9989
G01 X39.1596 Y35.8842
G01 X39.1441 Y35.7765
G01 X39.1129 Y35.6472
G01 X39.0723 Y35.5333
G01 X39.0208 Y35.4240
G01 X38.9588 Y35.3203
G01 X38.8943 Y35.2326
G01 X38.8058 Y35.1335
G01 X38.7255 Y35.0602
G01 X38.6091 Y34.9737
G01 X38.5157 Y34.9180
G01 X38.4065 Y34.8663
G01 X38.2926 Y34.8256
G01 X38.1754 Y34.7962
G01 X38.0558 Y34.7784
G01 X37.9350 Y34.7725
G01 X37.8142 Y34.7784
G01 X37.6945 Y34.7962
G01 X37.5771 Y34.8256
G01 X37.4631 Y34.8663
G01 X37.3537 Y34.9180
G01 X37.2499 Y34.9802
G01 X37.1526 Y35.0523
G01 X37.0628 Y35.1335
G01 X36.9814 Y35.2231
G01 X36.9027 Y35.3305
G01 X36.8414 Y35.4348
G01 X36.7949 Y35.5333
G01 X36.7578 Y35.6357
G01 X36.7244 Y35.7645
G01 X36.7079 Y35.8722
G01 X36.7003 Y36.0050
G01 X36.6995 Y36.5040
G01 X36.7051 Y36.6188
G01 X36.7206 Y36.7265
G01 X36.7519 Y36.8558
G01 X36.7924 Y36.9697
G01 X36.8439 Y37.0790
G01 X36.9059 Y37.1827
G01 X36.9778 Y37.2799
G01 X37.0589 Y37.3695
G01 X37.1483 Y37.4507
G01 X37.2556 Y37.5293
G01 X37.3598 Y37.5904
G01 X37.4583 Y37.6367
G01 X37.5606 Y37.6736
G01 X37.6893 Y37.7068
G01 X37.8089 Y37.7246
G01 X37.9297 Y37.7305
G01 X38.0626 Y37.7231
G01 X38.1702 Y37.7068
G01 X38.2759 Y37.6806
G01 X38.4016 Y37.6367
G01 X38.5215 Y37.5790
G01 X38.6148 Y37.5228
G01 X38.7026 Y37.4582
G01 X38.8019 Y37.3695
G01 X38.8833 Y37.2799
G01 X38.9620 Y37.1725
G01 X39.0179 Y37.0790
G01 X39.0648 Y36.9807
G01 X39.1107 Y36.8558
G01 X39.1403 Y36.7384
G00 Z2.0000
G00 X38.9454 Y37.1951
G01 F60.00
G01 Z-0.0500
G01 F120.00
G01 X38.9620 Y37.1725
G01 X39.0179 Y37.0790
G01 X39.0648 Y36.9807
G01 X39.1107 Y36.8558
G01 X39.1403 Y36.7384
G01 X39.1643 Y36.5040
G01 X39.1583 Y36.6188
G01 X39.1403 Y36.7384
G00 X39.1403 Y36.7384
G01 F60.00
G01 Z-0.1000
G01 F120.00
G01 X39.1107 Y36.8558
G01 X39.0648 Y36.9807
G01 X39.0179 Y37.0790
G01 X38.9620 Y37.1725
G01 X38.8833 Y37.2799
G01 X38.8019 Y37.3695
G01 X38.7026 Y37.4582
G01 X38.6148 Y37.5228
G01 X38.5215 Y37.5790
G01 X38.4016 Y37.6367
G01 X38.2759 Y37.6806
G01 X38.1702 Y37.7068
G01 X38.0626 Y37.7231
G01 X37.9297 Y37.7305
G01 X37.8089 Y37.7246
G01 X37.6893 Y37.7068
G01 X37.5606 Y37.6736
G01 X37.4583 Y37.6367
G01 X37.3598 Y37.5904
G01 X37.2556 Y37.5293
G01 X37.1483 Y37.4507
G01 X37.0589 Y37.3695
G01 X36.9778 Y37.2799
G01 X36.9059 Y37.1827
G01 X36.8439 Y37.0790
G01 X36.7924 Y36.9697
G01 X36.7519 Y36.8558
G01 X36.7206 Y36.7265
G01 X36.7051 Y36.6188
G01 X36.6995 Y36.5040
G01 X36.7003 Y36.0050
G01 X36.7079 Y35.8722
G01 X36.7244 Y35.7645
G01 X36.7578 Y35.6357
G01 X36.7949 Y35.5333
G01 X36.8414 Y35.4348
G01 X36.9027 Y35.3305
G01 X36.9814 Y35.2231
G01 X37.0628 Y35.1335
G01 X37.1526 Y35.0523
G01 X37.2499 Y34.9802
G01 X37.3537 Y34.9180
G01 X37.4631 Y34.8663
G01 X37.5771 Y34.8256
G01 X37.6945 Y34.7962
G01 X37.8142 Y34.7784
G01 X37.9350 Y34.7725
G01 X38.0558 Y34.7784
G01 X38.1754 Y34.7962
G01 X38.2926 Y34.8256
G01 X38.4065 Y34.8663
G01 X38.5157 Y34.9180
G01 X38.6091 Y34.9737
G01 X38.7255 Y35.0602
G01 X38.8058 Y35.1335
G01 X38.8943 Y35.2326
G01 X38.9588 Y35.3203
G01 X39.0208 Y35.4240
G01 X39.0723 Y35.5333
G01 X39.1129 Y35.6472
G01 X39.1441 Y35.7765
G01 X39.1596 Y35.8842
G01 X39.1652 Y35.9989
G01 X39.1643 Y36.5040
G01 X39.1583 Y36.6188
G01 X39.1403 Y36.7384
G00 Z2.0000
G00 X39.1648 Y36.2399
G01 F60.00
G01 Z-0.1000
G01 F120.00
G01 X39.1643 Y36.5040
G01 X39.1583 Y36.6188
G01 X39.1403 Y36.7384
G01 X38.9620 Y37.1725
G01 X39.0179 Y37.0790
G01 X39.0648 Y36.9807
G01 X39.1107 Y36.8558
G01 X39.1403 Y36.7384
G00 X39.1403 Y36.7384
G01 F60.00
G01 Z-0.1500
G01 F120.00
G01 X39.1583 Y36.6188
G01 X39.1643 Y36.5040
G01 X39.1652 Y35.9989
G01 X39.1596 Y35.8842
G01 X39.1441 Y35.7765
G01 X39.1129 Y35.6472
G01 X39.0723 Y35.5333
G01 X39.0208 Y35.4240
G01 X38.9588 Y35.3203
G01 X38.8943 Y35.2326
G01 X38.8058 Y35.1335
G01 X38.7255 Y35.0602
G01 X38.6091 Y34.9737
G01 X38.5157 Y34.9180
G01 X38.4065 Y34.8663
G01 X38.2926 Y34.8256
G01 X38.1754 Y34.7962
G01 X38.0558 Y34.7784
G01 X37.9350 Y34.7725
G01 X37.8142 Y34.7784
G01 X37.6945 Y34.7962
G01 X37.5771 Y34.8256
G01 X37.4631 Y34.8663
G01 X37.3537 Y34.9180
G01 X37.2499 Y34.9802
G01 X37.1526 Y35.0523
G01 X37.0628 Y35.1335
G01 X36.9814 Y35.2231
G01 X36.9027 Y35.3305
G01 X36.8414 Y35.4348
G01 X36.7949 Y35.5333
G01 X36.7578 Y35.6357
G01 X36.7244 Y35.7645
G01 X36.7079 Y35.8722
G01 X36.7003 Y36.0050
G01 X36.6995 Y36.5040
G01 X36.7051 Y36.6188
G01 X36.7206 Y36.7265
G01 X36.7519 Y36.8558
G01 X36.7924 Y36.9697
G01 X36.8439 Y37.0790
G01 X36.9059 Y37.1827
G01 X36.9778 Y37.2799
G01 X37.0589 Y37.3695
G01 X37.1483 Y37.4507
G01 X37.2556 Y37.5293
G01 X37.3598 Y37.5904
G01 X37.4583 Y37.6367
G01 X37.5606 Y37.6736
G01 X37.6893 Y37.7068
G01 X37.8089 Y37.7246
G01 X37.9297 Y37.7305
G01 X38.0626 Y37.7231
G01 X38.1702 Y37.7068
G01 X38.2759 Y37.6806
G01 X38.4016 Y37.6367
G01 X38.5215 Y37.5790
G01 X38.6148 Y37.5228
G01 X38.7026 Y37.4582
G01 X38.8019 Y37.3695
G01 X38.8833 Y37.2799
G01 X38.9620 Y37.1725
G01 X39.0179 Y37.0790
G01 X39.0648 Y36.9807
G01 X39.1107 Y36.8558
G01 X39.1403 Y36.7384
G00 Z2.0000
G00 X38.9454 Y37.1951
G01 F60.00
G01 Z-0.1500
G01 F120.00
G01 X38.9620 Y37.1725
G01 X39.0179 Y37.0790
G01 X39.0648 Y36.9807
G01 X39.1107 Y36.8558
G01 X39.1403 Y36.7384
G01 X39.1643 Y36.5040
G01 X39.1583 Y36.6188
G01 X39.1403 Y36.7384
G00 Z2.0000
G00 X41.6940 Y36.7384
G01 F60.00
G01 Z-0.0500
G01 F120.00
G01 X41.7120 Y36.6188
G01 X41.7181 Y36.5040
G01 X41.7190 Y35.9989
G01 X41.7133 Y35.8842
G01 X41.6978 Y35.7765
G01 X41.6666 Y35.6472
G01 X41.6260 Y35.5333
G01 X41.5745 Y35.4240
G01 X41.5125 Y35.3203
G01 X41.4481 Y35.2326
G01 X41.3596 Y35.1335
G01 X41.2792 Y35.0602
G01 X41.1629 Y34.9737
G01 X41.0694 Y34.9180
G01 X40.9602 Y34.8663
G01 X40.8464 Y34.8256
G01 X40.7291 Y34.7962
G01 X40.6095 Y34.7784
G01 X40.4887 Y34.7725
G01 X40.3679 Y34.7784
G01 X40.2482 Y34.7962
G01 X40.1308 Y34.8256
G01 X40.0169 Y34.8663
G01 X39.9075 Y34.9180
G01 X39.8036 Y34.9802
G01 X39.7063 Y35.0523
G01 X39.6166 Y35.1335
G01 X39.5352 Y35.2231
G01 X39.4565 Y35.3305
G01 X39.3951 Y35.4348
G01 X39.3487 Y35.5333
G01 X39.3115 Y35.6357
G01 X39.2781 Y35.7645
G01 X39.2617 Y35.8722
G01 X39.2540 Y36.0050
G01 X39.2532 Y36.5040
G01 X39.2589 Y36.6188
G01 X39.2744 Y36.7265
G01 X39.3056 Y36.8558
G01 X39.3461 Y36.9697
G01 X39.3977 Y37.0790
G01 X39.4597 Y37.1827
G01 X39.5315 Y37.2799
G01 X39.6126 Y37.3695
G01 X39.7021 Y37.4507
G01 X39.8093 Y37.5293
G01 X39.9135 Y37.5904
G01 X40.0120 Y37.6367
G01 X40.1143 Y37.6736
G01 X40.2431 Y37.7068
G01 X40.3627 Y37.7246
G01 X40.4835 Y37.7305
G01 X40.6163 Y37.7231
G01 X40.7240 Y37.7068
G01 X40.8297 Y37.6806
G01 X40.9553 Y37.6367
G01 X41.0753 Y37.5790
G01 X41.1686 Y37.5228
G01 X41.2563 Y37.4582
G01 X41.3556 Y37.3695
G01 X41.4370 Y37.2799
G01 X41.5157 Y37.1725
G01 X41.5716 Y37.0790
G01 X41.6186 Y36.9807
G01 X41.6645 Y36.8558
G01 X41.6940 Y36.7384
G00 Z2.0000
G00 X41.4992 Y37.1951
G01 F60.00
G01 Z-0.0500
G01 F120.00
G01 X41.5157 Y37.1725
G01 X41.5716 Y37.0790
G01 X41.6186 Y36.9807
G01 X41.6645 Y36.8558
G01 X41.6940 Y36.7384
G01 X41.7181 Y36.5040
G01 X41.7120 Y36.6188
G01 X41.6940 Y36.7384
G00 X41.6940 Y36.7384
G01 F60.00
G01 Z-0.1000
G01 F120.00
G01 X41.6645 Y36.8558
G01 X41.6186 Y36.9807
G01 X41.5716 Y37.0790
G01 X41.5157 Y37.1725
G01 X41.4370 Y37.2799
G01 X41.3556 Y37.3695
G01 X41.2563 Y37.4582
G01 X41.1686 Y37.5228
G01 X41.0753 Y37.5790
G01 X40.9553 Y37.6367
G01 X40.8297 Y37.6806
G01 X40.7240 Y37.7068
G01 X40.6163 Y37.7231
G01 X40.4835 Y37.7305
G01 X40.3627 Y37.7246
G01 X40.2431 Y37.7068
G01 X40.1143 Y37.6736
G01 X40.0120 Y37.6367
G01 X39.9135 Y37.5904
G01 X39.8093 Y37.5293
G01 X39.7021 Y37.4507
G01 X39.6126 Y37.3695
G01 X39.5315 Y37.2799
G01 X39.4597 Y37.1827
G01 X39.3977 Y37.0790
G01 X39.3461 Y36.9697
G01 X39.3056 Y36.8558
G01 X39.2744 Y36.7265
G01 X39.2589 Y36.6188
G01 X39.2532 Y36.5040
G01 X39.2540 Y36.0050
G01 X39.2617 Y35.8722
G01 X39.2781 Y35.7645
G01 X39.3115 Y35.6357
G01 X39.3487 Y35.5333
G01 X39.3951 Y35.4348
G01 X39.4565 Y35.3305
G01 X39.5352 Y35.2231
G01 X39.6166 Y35.1335
G01 X39.7063 Y35.0523
G01 X39.8036 Y34.9802
G01 X39.9075 Y34.9180
G01 X40.0169 Y34.8663
G01 X40.1308 Y34.8256
G01 X40.2482 Y34.7962
G01 X40.3679 Y34.7784
G01 X40.4887 Y34.7725
G01 X40.6095 Y34.7784
G01 X40.7291 Y34.7962
G01 X40.8464 Y34.8256
G01 X40.9602 Y34.8663
G01 X41.0694 Y34.9180
G01 X41.1629 Y34.9737
G01 X41.2792 Y35.0602
G01 X41.3596 Y35.1335
G01 X41.4481 Y35.2326
G01 X41.5125 Y35.3203
G01 X41.5745 Y35.4240
G01 X41.6260 Y35.5333
G01 X41.6666 Y35.6472
G01 X41.6978 Y35.7765
G01 X41.7133 Y35.8842
G01 X41.7190 Y35.9989
G01 X41.7181 Y36.5040
G01 X41.7120 Y36.6188
G01 X41.6940 Y36.7384
G00 Z2.0000
G00 X41.7185 Y36.2399
G01 F60.00
G01 Z-0.1000
G01 F120.00
G01 X41.7181 Y36.5040
G01 X41.7120 Y36.6188
G01 X41.6940 Y36.7384
G01 X41.5157 Y37.1725
G01 X41.5716 Y37.0790
G01 X41.6186 Y36.9807
G01 X41.6645 Y36.8558
G01 X41.6940 Y36.7384
G00 X41.6940 Y36.7384
G01 F60.00
G01 Z-0.1500
G01 F120.00
G01 X41.7120 Y36.6188
G01 X41.7181 Y36.5040
G01 X41.7190 Y35.9989
G01 X41.7133 Y35.8842
G01 X41.6978 Y35.7765
G01 X41.6666 Y35.6472
G01 X41.6260 Y35.5333
G01 X41.5745 Y35.4240
G01 X41.5125 Y35.3203
G01 X41.4481 Y35.2326
G01 X41.3596 Y35.1335
G01 X41.2792 Y35.0602
G01 X41.1629 Y34.9737
G01 X41.0694 Y34.9180
G01 X40.9602 Y34.8663
G01 X40.8464 Y34.8256
G01 X40.7291 Y34.7962
G01 X40.6095 Y34.7784
G01 X40.4887 Y34.7725
G01 X40.3679 Y34.7784
G01 X40.2482 Y34.7962
G01 X40.1308 Y34.8256
G01 X40.0169 Y34.8663
G01 X39.9075 Y34.9180
G01 X39.8036 Y34.9802
G01 X39.7063 Y35.0523
G01 X39.6166 Y35.1335
G01 X39.5352 Y35.2231
G01 X39.4565 Y35.3305
G01 X39.3951 Y35.4348
G01 X39.3487 Y35.5333
G01 X39.3115 Y35.6357
G01 X39.2781 Y35.7645
G01 X39.2617 Y35.8722
G01 X39.2540 Y36.0050
G01 X39.2532 Y36.5040
G01 X39.2589 Y36.6188
G01 X39.2744 Y36.7265
G01 X39.3056 Y36.8558
G01 X39.3461 Y36.9697
G01 X39.3977 Y37.0790
G01 X39.4597 Y37.1827
G01 X39.5315 Y37.2799
G01 X39.6126 Y37.3695
G01 X39.7021 Y37.4507
G01 X39.8093 Y37.5293
G01 X39.9135 Y37.5904
G01 X40.0120 Y37.6367
G01 X40.1143 Y37.6736
G01 X40.2431 Y37.7068
G01 X40.3627 Y37.7246
G01 X40.4835 Y37.7305
G01 X40.6163 Y37.7231
G01 X40.7240 Y37.7068
G01 X40.8297 Y37.6806
G01 X40.9553 Y37.6367
G01 X41.0753 Y37.5790
G01 X41.1686 Y37.5228
G01 X41.2563 Y37.4582
G01 X41.3556 Y37.3695
G01 X41.4370 Y37.2799
G01 X41.5157 Y37.1725
G01 X41.5716 Y37.0790
G01 X41.6186 Y36.9807
G01 X41.6645 Y36.8558
G01 X41.6940 Y36.7384
G00 Z2.0000
G00 X41.4992 Y37.1951
G01 F60.00
G01 Z-0.1500
G01 F120.00
G01 X41.5157 Y37.1725
G01 X41.5716 Y37.0790
G01 X41.6186 Y36.9807
G01 X41.6645 Y36.8558
G01 X41.6940 Y36.7384
G01 X41.7181 Y36.5040
G01 X41.7120 Y36.6188
G01 X41.6940 Y36.7384
G00 Z2.0000
G00 X44.2478 Y36.7384
G01 F60.00
G01 Z-0.0500
G01 F120.00
G01 X44.2657 Y36.6188
G01 X44.2718 Y36.5040
G01 X44.2727 Y35.9989
G01 X44.2670 Y35.8842
G01 X44.2516 Y35.7765
G01 X44.2203 Y35.6472
G01 X44.1798 Y35.5333
G01 X44.1283 Y35.4240
G01 X44.0663 Y35.3203
G01 X44.0018 Y35.2326
G01 X43.9133 Y35.1335
G01 X43.8330 Y35.0602
G01 X43.7166 Y34.9737
G01 X43.6232 Y34.9180
G01 X43.5139 Y34.8663
G01 X43.4001 Y34.8256
G01 X43.2828 Y34.7962
G01 X43.1632 Y34.7784
G01 X43.0424 Y34.7725
G01 X42.9216 Y34.7784
G01 X42.8020 Y34.7962
G01 X42.6846 Y34.8256
G01 X42.5706 Y34.8663
G01 X42.4612 Y34.9180
G01 X42.3573 Y34.9802
G01 X42.2601 Y35.0523
G01 X42.1703 Y35.1335
G01 X42.0889 Y35.2231
G01 X42.0102 Y35.3305
G01 X41.9489 Y35.4348
G01 X41.9024 Y35.5333
G01 X41.8653 Y35.6357
G01 X41.8319 Y35.7645
G01 X41.8154 Y35.8722
G01 X41.8078 Y36.0050
G01 X41.8070 Y36.5040
G01 X41.8126 Y36.6188
G01 X41.8281 Y36.7265
G01 X41.8593 Y36.8558
G01 X41.8999 Y36.9697
G01 X41.9514 Y37.0790
G01 X42.0134 Y37.1827
G01 X42.0853 Y37.2799
G01 X42.1663 Y37.3695
G01 X42.2558 Y37.4507
G01 X42.3631 Y37.5293
G01 X42.4673 Y37.5904
G01 X42.5657 Y37.6367
G01 X42.6681 Y37.6736
G01 X42.7968 Y37.7068
G01 X42.9164 Y37.7246
G01 X43.0372 Y37.7305
G01 X43.1700 Y37.7231
G01 X43.2777 Y37.7068
G01 X43.3834 Y37.6806
G01 X43.5090 Y37.6367
G01 X43.6290 Y37.5790
G01 X43.7223 Y37.5228
G01 X43.8100 Y37.4582
G01 X43.9094 Y37.3695
G01 X43.9907 Y37.2799
G01 X44.0695 Y37.1725
G01 X44.1253 Y37.0790
G01 X44.1723 Y36.9807
G01 X44.2182 Y36.8558
G01 X44.2478 Y36.7384
G00 Z2.0000
G00 X44.0529 Y37.1951
G01 F60.00
G01 Z-0.0500
G01 F120.00
G01 X44.0695 Y37.1725
G01 X44.1253 Y37.0790
G01 X44.1723 Y36.9807
G01 X44.2182 Y36.8558
G01 X44.2478 Y36.7384
G01 X44.2718 Y36.5040
G01 X44.2657 Y36.6188
G01 X44.2478 Y36.7384
G00 X44.2478 Y36.7384
G01 F60.00
G01 Z-0.1000
G01 F120.00
G01 X44.2182 Y36.8558
G01 X44.1723 Y36.9807
G01 X44.1253 Y37.0790
G01 X44.0695 Y37.1725
G01 X43.9907 Y37.2799
G01 X43.9094 Y37.3695
G01 X43.8100 Y37.4582
G01 X43.7223 Y37.5228
G01 X43.6290 Y37.5790
G01 X43.5090 Y37.6367
G01 X43.3834 Y37.6806
G01 X43.2777 Y37.7068
G01 X43.1700 Y37.7231
G01 X43.0372 Y37.7305
G01 X42.9164 Y37.7246
G01 X42.7968 Y37.7068
G01 X42.6681 Y37.6736
G01 X42.5657 Y37.6367
G01 X42.4673 Y37.5904
G01 X42.3631 Y37.5293
G01 X42.2558 Y37.4507
G01 X42.1663 Y37.3695
G01 X42.0853 Y37.2799
G01 X42.0134 Y37.1827
G01 X41.9514 Y37.0790
G01 X41.8999 Y36.9697
G01 X41.8593 Y36.8558
G01 X41.8281 Y36.7265
G01 X41.8126 Y36.6188
G01 X41.8070 Y36.5040
G01 X41.8078 Y36.0050
G01 X41.8154 Y35.8722
G01 X41.8319 Y35.7645
G01 X41.8653 Y35.6357
G01 X41.9024 Y35.5333
G01 X41.9489 Y35.4348
G01 X42.0102 Y35.3305
G01 X42.0889 Y35.2231
G01 X42.1703 Y35.1335
G01 X42.2601 Y35.0523
G01 X42.3573 Y34.9802
G01 X42.4612 Y34.9180
G01 X42.5706 Y34.8663
G01 X42.6846 Y34.8256
G01 X42.8020 Y34.7962
G01 X42.9216 Y34.7784
G01 X43.0424 Y34.7725
G01 X43.1632 Y34.7784
G01 X43.2828 Y34.7962
G01 X43.4001 Y34.8256
G01 X43.5139 Y34.8663
G01 X43.6232 Y34.9180
G01 X43.7166 Y34.9737
G01 X43.8330 Y35.0602
G01 X43.9133 Y35.1335
G01 X44.0018 Y35.2326
G01 X44.0663 Y35.3203
G01 X44.1283 Y35.4240
G01 X44.1798 Y35.5333
G01 X44.2203 Y35.6472
G01 X44.2516 Y35.7765
G01 X44.2670 Y35.8842
G01 X44.2727 Y35.9989
G01 X44.2718 Y36.5040
G01 X44.2657 Y36.6188
G01 X44.2478 Y36.7384
G00 Z2.0000
G00 X44.2723 Y36.2399
G01 F60.00
G01 Z-0.1000
G01 F120.00
G01 X44.2718 Y36.5040
G01 X44.2657 Y36.6188
G01 X44.2478 Y36.7384
G01 X44.0695 Y37.1725
G01 X44.1253 Y37.0790
G01 X44.1723 Y36.9807
G01 X44.2182 Y36.8558
G01 X44.2478 Y36.7384
G00 X44.2478 Y36.7384
G01 F60.00
G01 Z-0.1500
G01 F120.00
G01 X44.2657 Y36.6188
G01 X44.2718 Y36.5040
G01 X44.2727 Y35.9989
G01 X44.2670 Y35.8842
G01 X44.2516 Y35.7765
G01 X44.2203 Y35.6472
G01 X44.1798 Y35.5333
G01 X44.1283 Y35.4240
G01 X44.0663 Y35.3203
G01 X44.0018 Y35.2326
G01 X43.9133 Y35.1335
G01 X43.8330 Y35.0602
G01 X43.7166 Y34.9737
G01 X43.6232 Y34.9180
G01 X43.5139 Y34.8663
G01 X43.4001 Y34.8256
G01 X43.2828 Y34.7962
G01 X43.1632 Y34.7784
G01 X43.0424 Y34.7725
G01 X42.9216 Y34.7784
G01 X42.8020 Y34.7962
G01 X42.6846 Y34.8256
G01 X42.5706 Y34.8663
G01 X42.4612 Y34.9180
G01 X42.3573 Y34.9802
G01 X42.2601 Y35.0523
G01 X42.1703 Y35.1335
G01 X42.0889 Y35.2231
G01 X42.0102 Y35.3305
G01 X41.9489 Y35.4348
G01 X41.9024 Y35.5333
G01 X41.8653 Y35.6357
G01 X41.8319 Y35.7645
G01 X41.8154 Y35.8722
G01 X41.8078 Y36.0050
G01 X41.8070 Y36.5040
G01 X41.8126 Y36.6188
G01 X41.8281 Y36.7265
G01 X41.8593 Y36.8558
G01 X41.8999 Y36.9697
G01 X41.9514 Y37.0790
G01 X42.0134 Y37.1827
G01 X42.0853 Y37.2799
G01 X42.1663 Y37.3695
G01 X42.2558 Y37.4507
G01 X42.3631 Y37.5293
G01 X42.4673 Y37.5904
G01 X42.5657 Y37.6367
G01 X42.6681 Y37.6736
G01 X42.7968 Y37.7068
G01 X42.9164 Y37.7246
G01 X43.0372 Y37.7305
G01 X43.1700 Y37.7231
G01 X43.2777 Y37.7068
G01 X43.3834 Y37.6806
G01 X43.5090 Y37.6367
G01 X43.6290 Y37.5790
G01 X43.7223 Y37.5228
G01 X43.8100 Y37.4582
G01 X43.9094 Y37.3695
G01 X43.9907 Y37.2799
G01 X44.0695 Y37.1725
G01 X44.1253 Y37.0790
G01 X44.1723 Y36.9807
G01 X44.2182 Y36.8558
G01 X44.2478 Y36.7384
G00 Z2.0000
G00 X44.0529 Y37.1951
G01 F60.00
G01 Z-0.1500
G01 F120.00
G01 X44.0695 Y37.1725
G01 X44.1253 Y37.0790
G01 X44.1723 Y36.9807
G01 X44.2182 Y36.8558
G01 X44.2478 Y36.7384
G01 X44.2718 Y36.5040
G01 X44.2657 Y36.6188
G01 X44.2478 Y36.7384
G00 Z2.0000
G00 X46.8015 Y36.7384
G01 F60.00
G01 Z-0.0500
G01 F120.00
G01 X46.8195 Y36.6188
G01 X46.8255 Y36.5040
G01 X46.8265 Y36.0050
G01 X46.8208 Y35.8842
G01 X46.8032 Y35.7645
G01 X46.7741 Y35.6472
G01 X46.7335 Y35.5333
G01 X46.6820 Y35.4240
G01 X46.6264 Y35.3305
G01 X46.5481 Y35.2231
G01 X46.4754 Y35.1423
G01 X46.3355 Y35.0206
G01 X46.3363 Y34.5810
G01 X49.2640 Y31.6584
G01 X51.7688 Y31.6583
G01 X51.9071 Y31.6442
G01 X52.0460 Y31.6021
G01 X52.1740 Y31.5337
G01 X52.2819 Y31.4459
G01 X53.3596 Y30.3665
G01 X53.4173 Y30.2888
G01 X53.4794 Y30.1711
G01 X53.5072 Y30.0911
G01 X53.5325 Y29.9606
G01 X53.5461 Y24.2508
G01 X53.5413 Y24.1723
G01 X53.5179 Y24.0537
G01 X53.4595 Y23.9081
G01 X53.4153 Y23.8360
G01 X53.3347 Y23.7381
G01 X52.0011 Y22.4022
G01 X51.8935 Y22.3144
G01 X51.7544 Y22.2417
G01 X51.6270 Y22.2039
G01 X51.4888 Y22.1898
G01 X48.6652 Y22.1897
G01 X48.6645 Y21.0310
G01 X48.6437 Y20.9617
G01 X48.5952 Y20.8928
G01 X48.5264 Y20.8443
G01 X48.4452 Y20.8218
G01 X45.9500 Y20.8207
G01 X45.8730 Y20.8350
G01 X45.7996 Y20.8766
G01 X45.7654 Y20.9107
G01 X45.7330 Y20.9617
G01 X45.7166 Y21.0072
G01 X45.7092 Y21.0611
G01 X45.7057 Y23.0391
G01 X45.7243 Y23.1334
G01 X45.7539 Y23.1860
G01 X45.7954 Y23.2297
G01 X45.8464 Y23.2620
G01 X45.9036 Y23.2809
G01 X46.5360 Y23.2856
G01 X46.5760 Y23.3503
G01 X46.6525 Y23.4438
G01 X46.7728 Y23.5446
G01 X46.9118 Y23.6173
G01 X47.0274 Y23.6524
G01 X47.1110 Y23.6657
G01 X51.1737 Y23.6692
G01 X52.0662 Y24.5632
G01 X52.0573 Y29.5816
G01 X51.4590 Y30.1789
G01 X48.9481 Y30.1792
G01 X48.8278 Y30.1910
G01 X48.7454 Y30.2107
G01 X48.6660 Y30.2401
G01 X48.5593 Y30.2971
G01 X48.4368 Y30.3955
G01 X45.0749 Y33.7515
G01 X44.9897 Y33.8537
G01 X44.9453 Y33.9259
G01 X44.9097 Y34.0028
G01 X44.8745 Y34.1184
G01 X44.8610 Y34.2021
G01 X44.8560 Y35.0206
G01 X44.7328 Y35.1251
G01 X44.6506 Y35.2139
G01 X44.5704 Y35.3203
G01 X44.5140 Y35.4135
G01 X44.4562 Y35.5333
G01 X44.4152 Y35.6472
G01 X44.3856 Y35.7645
G01 X44.3692 Y35.8722
G01 X44.3615 Y36.0050
G01 X44.3607 Y36.5040
G01 X44.3664 Y36.6188
G01 X44.3818 Y36.7265
G01 X44.4131 Y36.8558
G01 X44.4536 Y36.9697
G01 X44.5051 Y37.0790
G01 X44.5607 Y37.1725
G01 X44.6469 Y37.2890
G01 X44.7201 Y37.3695
G01 X44.8096 Y37.4507
G01 X44.9066 Y37.5228
G01 X44.9997 Y37.5790
G01 X45.1195 Y37.6367
G01 X45.2449 Y37.6806
G01 X45.3505 Y37.7068
G01 X45.4702 Y37.7246
G01 X45.6030 Y37.7302
G01 X45.7118 Y37.7246
G01 X45.8314 Y37.7068
G01 X45.9488 Y37.6774
G01 X46.0515 Y37.6410
G01 X46.1722 Y37.5850
G01 X46.2761 Y37.5228
G01 X46.3638 Y37.4582
G01 X46.4631 Y37.3695
G01 X46.5519 Y37.2703
G01 X46.6167 Y37.1827
G01 X46.6791 Y37.0790
G01 X46.7353 Y36.9584
G01 X46.7719 Y36.8558
G01 X46.8015 Y36.7384
G00 Z2.0000
G00 X46.6072 Y37.1955
G01 F60.00
G01 Z-0.0500
G01 F120.00
G01 X46.6167 Y37.1827
G01 X46.6791 Y37.0790
G01 X46.7353 Y36.9584
G01 X46.7719 Y36.8558
G01 X46.8015 Y36.7384
G01 X46.8255 Y36.5040
G01 X46.8195 Y36.6188
G01 X46.8015 Y36.7384
G00 X46.8015 Y36.7384
G01 F60.00
G01 Z-0.1000
G01 F120.00
G01 X46.7719 Y36.8558
G01 X46.7353 Y36.9584
G01 X46.6791 Y37.0790
G01 X46.6167 Y37.1827
G01 X46.5519 Y37.2703
G01 X46.4631 Y37.3695
G01 X46.3638 Y37.4582
G01 X46.2761 Y37.5228
G01 X46.1722 Y37.5850
G01 X46.0515 Y37.6410
G01 X45.9488 Y37.6774
G01 X45.8314 Y37.7068
G01 X45.7118 Y37.7246
G01 X45.6030 Y37.7302
G01 X45.4702 Y37.7246
G01 X45.3505 Y37.7068
G01 X45.2449 Y37.6806
G01 X45.1195 Y37.6367
G01 X44.9997 Y37.5790
G01 X44.9066 Y37.5228
G01 X44.8096 Y37.4507
G01 X44.7201 Y37.3695
G01 X44.6469 Y37.2890
G01 X44.5607 Y37.1725
G01 X44.5051 Y37.0790
G01 X44.4536 Y36.9697
G01 X44.4131 Y36.8558
G01 X44.3818 Y36.7265
G01 X44.3664 Y36.6188
G01 X44.3607 Y36.5040
G01 X44.3615 Y36.0050
G01 X44.3692 Y35.8722
G01 X44.3856 Y35.7645
G01 X44.4152 Y35.6472
G01 X44.4562 Y35.5333
G01 X44.5140 Y35.4135
G01 X44.5704 Y35.3203
G01 X44.6506 Y35.2139
G01 X44.7328 Y35.1251
G01 X44.8560 Y35.0206
G01 X44.8610 Y34.2021
G01 X44.8745 Y34.1184
G01 X44.9097 Y34.0028
G01 X44.9453 Y33.9259
G01 X44.9897 Y33.8537
G01 X45.0749 Y33.7515
G01 X48.4368 Y30.3955
G01 X48.5593 Y30.2971
G01 X48.6660 Y30.2401
G01 X48.7454 Y30.2107
G01 X48.8278 Y30.1910
G01 X48.9481 Y30.1792
G01 X51.4590 Y30.1789
G01 X52.0573 Y29.5816
G01 X52.0662 Y24.5632
G01 X51.1737 Y23.6692
G01 X47.1110 Y23.6657
G01 X47.0274 Y23.6524
G01 X46.9118 Y23.6173
G01 X46.7728 Y23.5446
G01 X46.6525 Y23.4438
G01 X46.5760 Y23.3503
G01 X46.5360 Y23.2856
G01 X45.9036 Y23.2809
G01 X45.8464 Y23.2620
G01 X45.7954 Y23.2297
G01 X45.7539 Y23.1860
G01 X45.7243 Y23.1334
G01 X45.7057 Y23.0391
G01 X45.7092 Y21.0611
G01 X45.7166 Y21.0072
G01 X45.7330 Y20.9617
G01 X45.7654 Y20.9107
G01 X45.7996 Y20.8766
G01 X45.8730 Y20.8350
G01 X45.9500 Y20.8207
G01 X48.4452 Y20.8218
G01 X48.5264 Y20.8443
G01 X48.5952 Y20.8928
G01 X48.6437 Y20.9617
G01 X48.6645 Y21.0310
G01 X48.6652 Y22.1897
G01 X51.4888 Y22.1898
G01 X51.6270 Y22.2039
G01 X51.7544 Y22.2417
G01 X51.8935 Y22.3144
G01 X52.0011 Y22.4022
G01 X53.3347 Y23.7381
G01 X53.4153 Y23.8360
G01 X53.4595 Y23.9081
G01 X53.5179 Y24.0537
G01 X53.5413 Y24.1723
G01 X53.5461 Y24.2508
G01 X53.5325 Y29.9606
G01 X53.5072 Y30.0911
G01 X53.4794 Y30.1711
G01 X53.4173 Y30.2888
G01 X53.3596 Y30.3665
G01 X52.2819 Y31.4459
G01 X52.1740 Y31.5337
G01 X52.0460 Y31.6021
G01 X51.9071 Y31.6442
G01 X51.7688 Y31.6583
G01 X49.2640 Y31.6584
G01 X46.3363 Y34.5810
G01 X46.3355 Y35.0206
G01 X46.4754 Y35.1423
G01 X46.5481 Y35.2231
G01 X46.6264 Y35.3305
G01 X46.6820 Y35.4240
G01 X46.7335 Y35.5333
G01 X46.7741 Y35.6472
G01 X46.8032 Y35.7645
G01 X46.8208 Y35.8842
G01 X46.8265 Y36.0050
G01 X46.8255 Y36.5040
G01 X46.8195 Y36.6188
G01 X46.8015 Y36.7384
G00 Z2.0000
G00 X46.8260 Y36.2399
G01 F60.00
G01 Z-0.1000
G01 F120.00
G01 X46.8255 Y36.5040
G01 X46.8195 Y36.6188
G01 X46.8015 Y36.7384
G01 X46.6167 Y37.1827
G01 X46.6791 Y37.0790
G01 X46.7353 Y36.9584
G01 X46.7719 Y36.8558
G01 X46.8015 Y36.7384
G00 X46.8015 Y36.7384
G01 F60.00
G01 Z-0.1500
G01 F120.00
G01 X46.8195 Y36.6188
G01 X46.8255 Y36.5040
G01 X46.8265 Y36.0050
G01 X46.8208 Y35.8842
G01 X46.8032 Y35.7645
G01 X46.7741 Y35.6472
G01 X46.7335 Y35.5333
G01 X46.6820 Y35.4240
G01 X46.6264 Y35.3305
G01 X46.5481 Y35.2231
G01 X46.4754 Y35.1423
G01 X46.3355 Y35.0206
G01 X46.3363 Y34.5810
G01 X49.2640 Y31.6584
G01 X51.7688 Y31.6583
G01 X51.9071 Y31.6442
G01 X52.0460 Y31.6021
G01 X52.1740 Y31.5337
G01 X52.2819 Y31.4459
G01 X53.3596 Y30.3665
G01 X53.4173 Y30.2888
G01 X53.4794 Y30.1711
G01 X53.5072 Y30.0911
G01 X53.5325 Y29.9606
G01 X53.5461 Y24.2508
G01 X53.5413 Y24.1723
G01 X53.5179 Y24.0537
G01 X53.4595 Y23.9081
G01 X53.4153 Y23.8360
G01 X53.3347 Y23.7381
G01 X52.0011 Y22.4022
G01 X51.8935 Y22.3144
G01 X51.7544 Y22.2417
G01 X51.6270 Y22.2039
G01 X51.4888 Y22.1898
G01 X48.6652 Y22.1897
G01 X48.6645 Y21.0310
G01 X48.6437 Y20.9617
G01 X48.5952 Y20.8928
G01 X48.5264 Y20.8443
G01 X48.4452 Y20.8218
G01 X45.9500 Y20.8207
G01 X45.8730 Y20.8350
G01 X45.7996 Y20.8766
G01 X45.7654 Y20.9107
G01 X45.7330 Y20.9617
G01 X45.7166 Y21.0072
G01 X45.7092 Y21.0611
G01 X45.7057 Y23.0391
G01 X45.7243 Y23.1334
G01 X45.7539 Y23.1860
G01 X45.7954 Y23.2297
G01 X45.8464 Y23.2620
G01 X45.9036 Y23.2809
G01 X46.5360 Y23.2856
G01 X46.5760 Y23.3503
G01 X46.6525 Y23.4438
G01 X46.7728 Y23.5446
G01 X46.9118 Y23.6173
G01 X47.0274 Y23.6524
G01 X47.1110 Y23.6657
G01 X51.1737 Y23.6692
G01 X52.0662 Y24.5632
G01 X52.0573 Y29.5816
G01 X51.4590 Y30.1789
G01 X48.9481 Y30.1792
G01 X48.8278 Y30.1910
G01 X48.7454 Y30.2107
G01 X48.6660 Y30.2401
G01 X48.5593 Y30.2971
G01 X48.4368 Y30.3955
G01 X45.0749 Y33.7515
G01 X44.9897 Y33.8537
G01 X44.9453 Y33.9259
G01 X44.9097 Y34.0028
G01 X44.8745 Y34.1184
G01 X44.8610 Y34.2021
G01 X44.8560 Y35.0206
G01 X44.7328 Y35.1251
G01 X44.6506 Y35.2139
G01 X44.5704 Y35.3203
G01 X44.5140 Y35.4135
G01 X44.4562 Y35.5333
G01 X44.4152 Y35.6472
G01 X44.3856 Y35.7645
G01 X44.3692 Y35.8722
G01 X44.3615 Y36.0050
G01 X44.3607 Y36.5040
G01 X44.3664 Y36.6188
G01 X44.3818 Y36.7265
G01 X44.4131 Y36.8558
G01 X44.4536 Y36.9697
G01 X44.5051 Y37.0790
G01 X44.5607 Y37.1725
G01 X44.6469 Y37.2890
G01 X44.7201 Y37.3695
G01 X44.8096 Y37.4507
G01 X44.9066 Y37.5228
G01 X44.9997 Y37.5790
G01 X45.1195 Y37.6367
G01 X45.2449 Y37.6806
G01 X45.3505 Y37.7068
G01 X45.4702 Y37.7246
G01 X45.6030 Y37.7302
G01 X45.7118 Y37.7246
G01 X45.8314 Y37.7068
G01 X45.9488 Y37.6774
G01 X46.0515 Y37.6410
G01 X46.1722 Y37.5850
G01 X46.2761 Y37.5228
G01 X46.3638 Y37.4582
G01 X46.4631 Y37.3695
G01 X46.5519 Y37.2703
G01 X46.6167 Y37.1827
G01 X46.6791 Y37.0790
G01 X46.7353 Y36.9584
G01 X46.7719 Y36.8558
G01 X46.8015 Y36.7384
G00 Z2.0000
G00 X46.6072 Y37.1955
G01 F60.00
G01 Z-0.1500
G01 F120.00
G01 X46.6167 Y37.1827
G01 X46.6791 Y37.0790
G01 X46.7353 Y36.9584
G01 X46.7719 Y36.8558
G01 X46.8015 Y36.7384
G01 X46.8255 Y36.5040
G01 X46.8195 Y36.6188
G01 X46.8015 Y36.7384
G00 Z2.0000
G00 X49.3553 Y36.7384
G01 F60.00
G01 Z-0.0500
G01 F120.00
G01 X49.3732 Y36.6188
G01 X49.3793 Y36.5040
G01 X49.3802 Y35.9989
G01 X49.3745 Y35.8842
G01 X49.3590 Y35.7765
G01 X49.3278 Y35.6472
G01 X49.2872 Y35.5333
G01 X49.2357 Y35.4240
G01 X49.1737 Y35.3203
G01 X49.1093 Y35.2326
G01 X49.0208 Y35.1335
G01 X48.9405 Y35.0602
G01 X48.8241 Y34.9737
G01 X48.7307 Y34.9180
G01 X48.6214 Y34.8663
G01 X48.5076 Y34.8256
G01 X48.3903 Y34.7962
G01 X48.2707 Y34.7784
G01 X48.1499 Y34.7725
G01 X48.0291 Y34.7784
G01 X47.9094 Y34.7962
G01 X47.7920 Y34.8256
G01 X47.6781 Y34.8663
G01 X47.5687 Y34.9180
G01 X47.4648 Y34.9802
G01 X47.3675 Y35.0523
G01 X47.2778 Y35.1335
G01 X47.1964 Y35.2231
G01 X47.1177 Y35.3305
G01 X47.0618 Y35.4240
G01 X47.0148 Y35.5223
G01 X46.9728 Y35.6357
G01 X46.9393 Y35.7645
G01 X46.9229 Y35.8722
G01 X46.9152 Y36.0050
G01 X46.9144 Y36.5040
G01 X46.9201 Y36.6188
G01 X46.9356 Y36.7265
G01 X46.9668 Y36.8558
G01 X47.0074 Y36.9697
G01 X47.0589 Y37.0790
G01 X47.1209 Y37.1827
G01 X47.1927 Y37.2799
G01 X47.2738 Y37.3695
G01 X47.3633 Y37.4507
G01 X47.4705 Y37.5293
G01 X47.5747 Y37.5904
G01 X47.6732 Y37.6367
G01 X47.7755 Y37.6736
G01 X47.9043 Y37.7068
G01 X48.0239 Y37.7246
G01 X48.1447 Y37.7305
G01 X48.2775 Y37.7231
G01 X48.3852 Y37.7068
G01 X48.4909 Y37.6806
G01 X48.6165 Y37.6367
G01 X48.7365 Y37.5790
G01 X48.8298 Y37.5228
G01 X48.9175 Y37.4582
G01 X49.0168 Y37.3695
G01 X49.0982 Y37.2799
G01 X49.1769 Y37.1725
G01 X49.2328 Y37.0790
G01 X49.2798 Y36.9807
G01 X49.3257 Y36.8558
G01 X49.3553 Y36.7384
G00 Z2.0000
G00 X49.1604 Y37.1951
G01 F60.00
G01 Z-0.0500
G01 F120.00
G01 X49.1769 Y37.1725
G01 X49.2328 Y37.0790
G01 X49.2798 Y36.9807
G01 X49.3257 Y36.8558
G01 X49.3553 Y36.7384
G01 X49.3793 Y36.5040
G01 X49.3732 Y36.6188
G01 X49.3553 Y36.7384
G00 X49.3553 Y36.7384
G01 F60.00
G01 Z-0.1000
G01 F120.00
G01 X49.3257 Y36.8558
G01 X49.2798 Y36.9807
G01 X49.2328 Y37.0790
G01 X49.1769 Y37.1725
G01 X49.0982 Y37.2799
G01 X49.0168 Y37.3695
G01 X48.9175 Y37.4582
G01 X48.8298 Y37.5228
G01 X48.7365 Y37.5790
G01 X48.6165 Y37.6367
G01 X48.4909 Y37.6806
G01 X48.3852 Y37.7068
G01 X48.2775 Y37.7231
G01 X48.1447 Y37.7305
G01 X48.0239 Y37.7246
G01 X47.9043 Y37.7068
G01 X47.7755 Y37.6736
G01 X47.6732 Y37.6367
G01 X47.5747 Y37.5904
G01 X47.4705 Y37.5293
G01 X47.3633 Y37.4507
G01 X47.2738 Y37.3695
G01 X47.1927 Y37.2799
G01 X47.1209 Y37.1827
G01 X47.0589 Y37.0790
G01 X47.0074 Y36.9697
G01 X46.9668 Y36.8558
G01 X46.9356 Y36.7265
G01 X46.9201 Y36.6188
G01 X46.9144 Y36.5040
G01 X46.9152 Y36.0050
G01 X46.9229 Y35.8722
G01 X46.9393 Y35.7645
G01 X46.9728 Y35.6357
G01 X47.0148 Y35.5223
G01 X47.0618 Y35.4240
G01 X47.1177 Y35.3305
G01 X47.1964 Y35.2231
G01 X47.2778 Y35.1335
G01 X47.3675 Y35.0523
G01 X47.4648 Y34.9802
G01 X47.5687 Y34.9180
G01 X47.6781 Y34.8663
G01 X47.7920 Y34.8256
G01 X47.9094 Y34.7962
G01 X48.0291 Y34.7784
G01 X48.1499 Y34.7725
G01 X48.2707 Y34.7784
G01 X48.3903 Y34.7962
G01 X48.5076 Y34.8256
G01 X48.6214 Y34.8663
G01 X48.7307 Y34.9180
G01 X48.8241 Y34.9737
G01 X48.9405 Y35.0602
G01 X49.0208 Y35.1335
G01 X49.1093 Y35.2326
G01 X49.1737 Y35.3203
G01 X49.2357 Y35.4240
G01 X49.2872 Y35.5333
G01 X49.3278 Y35.6472
G01 X49.3590 Y35.7765
G01 X49.3745 Y35.8842
G01 X49.3802 Y35.9989
G01 X49.3793 Y36.5040
G01 X49.3732 Y36.6188
G01 X49.3553 Y36.7384
G00 Z2.0000
G00 X49.3797 Y36.2399
G01 F60.00
G01 Z-0.1000
G01 F120.00
G01 X49.3793 Y36.5040
G01 X49.3732 Y36.6188
G01 X49.3553 Y36.7384
G01 X49.1769 Y37.1725
G01 X49.2328 Y37.0790
G01 X49.2798 Y36.9807
G01 X49.3257 Y36.8558
G01 X49.3553 Y36.7384
G00 X49.3553 Y36.7384
G01 F60.00
G01 Z-0.1500
G01 F120.00
G01 X49.3732 Y36.6188
G01 X49.3793 Y36.5040
G01 X49.3802 Y35.9989
G01 X49.3745 Y35.8842
G01 X49.3590 Y35.7765
G01 X49.3278 Y35.6472
G01 X49.2872 Y35.5333
G01 X49.2357 Y35.4240
G01 X49.1737 Y35.3203
G01 X49.1093 Y35.2326
G01 X49.0208 Y35.1335
G01 X48.9405 Y35.0602
G01 X48.8241 Y34.9737
G01 X48.7307 Y34.9180
G01 X48.6214 Y34.8663
G01 X48.5076 Y34.8256
G01 X48.3903 Y34.7962
G01 X48.2707 Y34.7784
G01 X48.1499 Y34.7725
G01 X48.0291 Y34.7784
G01 X47.9094 Y34.7962
G01 X47.7920 Y34.8256
G01 X47.6781 Y34.8663
G01 X47.5687 Y34.9180
G01 X47.4648 Y34.9802
G01 X47.3675 Y35.0523
G01 X47.2778 Y35.1335
G01 X47.1964 Y35.2231
G01 X47.1177 Y35.3305
G01 X47.0618 Y35.4240
G01 X47.0148 Y35.5223
G01 X46.9728 Y35.6357
G01 X46.9393 Y35.7645
G01 X46.9229 Y35.8722
G01 X46.9152 Y36.0050
G01 X46.9144 Y36.5040
G01 X46.9201 Y36.6188
G01 X46.9356 Y36.7265
G01 X46.9668 Y36.8558
G01 X47.0074 Y36.9697
G01 X47.0589 Y37.0790
G01 X47.1209 Y37.1827
G01 X47.1927 Y37.2799
G01 X47.2738 Y37.3695
G01 X47.3633 Y37.4507
G01 X47.4705 Y37.5293
G01 X47.5747 Y37.5904
G01 X47.6732 Y37.6367
G01 X47.7755 Y37.6736
G01 X47.9043 Y37.7068
G01 X48.0239 Y37.7246
G01 X48.1447 Y37.7305
G01 X48.2775 Y37.7231
G01 X48.3852 Y37.7068
G01 X48.4909 Y37.6806
G01 X48.6165 Y37.6367
G01 X48.7365 Y37.5790
G01 X48.8298 Y37.5228
G01 X48.9175 Y37.4582
G01 X49.0168 Y37.3695
G01 X49.0982 Y37.2799
G01 X49.1769 Y37.1725
G01 X49.2328 Y37.0790
G01 X49.2798 Y36.9807
G01 X49.3257 Y36.8558
G01 X49.3553 Y36.7384
G00 Z2.0000
G00 X49.1604 Y37.1951
G01 F60.00
G01 Z-0.1500
G01 F120.00
G01 X49.1769 Y37.1725
G01 X49.2328 Y37.0790
G01 X49.2798 Y36.9807
G01 X49.3257 Y36.8558
G01 X49.3553 Y36.7384
G01 X49.3793 Y36.5040
G01 X49.3732 Y36.6188
G01 X49.3553 Y36.7384
G00 Z2.0000
G00 X51.9090 Y36.7384
G01 F60.00
G01 Z-0.0500
G01 F120.00
G01 X51.9269 Y36.6188
G01 X51.9330 Y36.5040
G01 X51.9339 Y35.9989
G01 X51.9282 Y35.8842
G01 X51.9128 Y35.7765
G01 X51.8815 Y35.6472
G01 X51.8410 Y35.5333
G01 X51.7895 Y35.4240
G01 X51.7275 Y35.3203
G01 X51.6630 Y35.2326
G01 X51.5745 Y35.1335
G01 X51.4942 Y35.0602
G01 X51.3778 Y34.9737
G01 X51.2844 Y34.9180
G01 X51.1751 Y34.8663
G01 X51.0613 Y34.8256
G01 X50.9441 Y34.7962
G01 X50.8244 Y34.7784
G01 X50.7036 Y34.7725
G01 X50.5828 Y34.7784
G01 X50.4632 Y34.7962
G01 X50.3458 Y34.8256
G01 X50.2318 Y34.8663
G01 X50.1224 Y34.9180
G01 X50.0185 Y34.9802
G01 X49.9213 Y35.0523
G01 X49.8315 Y35.1335
G01 X49.7501 Y35.2231
G01 X49.6714 Y35.3305
G01 X49.6101 Y35.4348
G01 X49.5636 Y35.5333
G01 X49.5265 Y35.6357
G01 X49.4931 Y35.7645
G01 X49.4766 Y35.8722
G01 X49.4690 Y36.0050
G01 X49.4682 Y36.5040
G01 X49.4738 Y36.6188
G01 X49.4893 Y36.7265
G01 X49.5205 Y36.8558
G01 X49.5611 Y36.9697
G01 X49.6126 Y37.0790
G01 X49.6746 Y37.1827
G01 X49.7465 Y37.2799
G01 X49.8276 Y37.3695
G01 X49.9170 Y37.4507
G01 X50.0243 Y37.5293
G01 X50.1285 Y37.5904
G01 X50.2269 Y37.6367
G01 X50.3293 Y37.6736
G01 X50.4580 Y37.7068
G01 X50.5776 Y37.7246
G01 X50.6984 Y37.7305
G01 X50.8312 Y37.7231
G01 X50.9389 Y37.7068
G01 X51.0446 Y37.6806
G01 X51.1702 Y37.6367
G01 X51.2902 Y37.5790
G01 X51.3835 Y37.5228
G01 X51.4713 Y37.4582
G01 X51.5706 Y37.3695
G01 X51.6520 Y37.2799
G01 X51.7307 Y37.1725
G01 X51.7865 Y37.0790
G01 X51.8335 Y36.9807
G01 X51.8794 Y36.8558
G01 X51.9090 Y36.7384
G00 Z2.0000
G00 X51.7141 Y37.1951
G01 F60.00
G01 Z-0.0500
G01 F120.00
G01 X51.7307 Y37.1725
G01 X51.7865 Y37.0790
G01 X51.8335 Y36.9807
G01 X51.8794 Y36.8558
G01 X51.9090 Y36.7384
G01 X51.9330 Y36.5040
G01 X51.9269 Y36.6188
G01 X51.9090 Y36.7384
G00 X51.9090 Y36.7384
G01 F60.00
G01 Z-0.1000
G01 F120.00
G01 X51.8794 Y36.8558
G01 X51.8335 Y36.9807
G01 X51.7865 Y37.0790
G01 X51.7307 Y37.1725
G01 X51.6520 Y37.2799
G01 X51.5706 Y37.3695
G01 X51.4713 Y37.4582
G01 X51.3835 Y37.5228
G01 X51.2902 Y37.5790
G01 X51.1702 Y37.6367
G01 X51.0446 Y37.6806
G01 X50.9389 Y37.7068
G01 X50.8312 Y37.7231
G01 X50.6984 Y37.7305
G01 X50.5776 Y37.7246
G01 X50.4580 Y37.7068
G01 X50.3293 Y37.6736
G01 X50.2269 Y37.6367
G01 X50.1285 Y37.5904
G01 X50.0243 Y37.5293
G01 X49.9170 Y37.4507
G01 X49.8276 Y37.3695
G01 X49.7465 Y37.2799
G01 X49.6746 Y37.1827
G01 X49.6126 Y37.0790
G01 X49.5611 Y36.9697
G01 X49.5205 Y36.8558
G01 X49.4893 Y36.7265
G01 X49.4738 Y36.6188
G01 X49.4682 Y36.5040
G01 X49.4690 Y36.0050
G01 X49.4766 Y35.8722
G01 X49.4931 Y35.7645
G01 X49.5265 Y35.6357
G01 X49.5636 Y35.5333
G01 X49.6101 Y35.4348
G01 X49.6714 Y35.3305
G01 X49.7501 Y35.2231
G01 X49.8315 Y35.1335
G01 X49.9213 Y35.0523
G01 X50.0185 Y34.9802
G01 X50.1224 Y34.9180
G01 X50.2318 Y34.8663
G01 X50.3458 Y34.8256
G01 X50.4632 Y34.7962
G01 X50.5828 Y34.7784
G01 X50.7036 Y34.7725
G01 X50.8244 Y34.7784
G01 X50.9441 Y34.7962
G01 X51.0613 Y34.8256
G01 X51.1751 Y34.8663
G01 X51.2844 Y34.9180
G01 X51.3778 Y34.9737
G01 X51.4942 Y35.0602
G01 X51.5745 Y35.1335
G01 X51.6630 Y35.2326
G01 X51.7275 Y35.3203
G01 X51.7895 Y35.4240
G01 X51.8410 Y35.5333
G01 X51.8815 Y35.6472
G01 X51.9128 Y35.7765
G01 X51.9282 Y35.8842
G01 X51.9339 Y35.9989
G01 X51.9330 Y36.5040
G01 X51.9269 Y36.6188
G01 X51.9090 Y36.7384
G00 Z2.0000
G00 X51.9335 Y36.2399
G01 F60.00
G01 Z-0.1000
G01 F120.00
G01 X51.9330 Y36.5040
G01 X51.9269 Y36.6188
G01 X51.9090 Y36.7384
G01 X51.7307 Y37.1725
G01 X51.7865 Y37.0790
G01 X51.8335 Y36.9807
G01 X51.8794 Y36.8558
G01 X51.9090 Y36.7384
G00 X51.9090 Y36.7384
G01 F60.00
G01 Z-0.1500
G01 F120.00
G01 X51.9269 Y36.6188
G01 X51.9330 Y36.5040
G01 X51.9339 Y35.9989
G01 X51.9282 Y35.8842
G01 X51.9128 Y35.7765
G01 X51.8815 Y35.6472
G01 X51.8410 Y35.5333
G01 X51.7895 Y35.4240
G01 X51.7275 Y35.3203
G01 X51.6630 Y35.2326
G01 X51.5745 Y35.1335
G01 X51.4942 Y35.0602
G01 X51.3778 Y34.9737
G01 X51.2844 Y34.9180
G01 X51.1751 Y34.8663
G01 X51.0613 Y34.8256
