(G-code generated by FlatCAM Evo vUnstable - Version Date: 2023/6/31)

(Name: drill bot_cnc)
(Type: G-code from Excellon)
(Units: MM)

(Created on Friday, 30 August 2024 at 19:51)

(This preprocessor is the default preprocessor.)
(It is made to work with MACH3 compatible motion controllers.)

(Z Toolchange: 15.0 mm)
(X,Y Toolchange: 0.0000, 0.0000 mm)
(Z Start: 2 mm)
(Z End: 15.0 mm)
(X,Y End: 0.0000, 0.0000 mm)
(Steps per circle: 16)
(Preprocessor Excellon: default)

(X range:   22.1054 ...   73.5073  mm)
(Y range:    3.0092 ...   43.8091  mm)

(Spindle Speed: 3000.0 RPM)
G21
G90
G94
G01 F60.00


M5
G00 Z2.0000
T1
G00 X0.0000 Y0.0000                
M6
(MSG, Change to Tool Dia = 0.8000 ||| Total drills for tool T1 = 80)
M0
G00 Z2.0000

G01 F60.00
M03 S3000.0
G00 X22.5054 Y4.8092
G01 Z-2.4000
G00 Z2.0000
G00 X25.0554 Y4.8092
G01 Z-2.4000
G00 Z2.0000
G00 X27.5554 Y4.8092
G01 Z-2.4000
G00 Z2.0000
G00 X30.1054 Y4.8092
G01 Z-2.4000
G00 Z2.0000
G00 X32.6554 Y4.8092
G01 Z-2.4000
G00 Z2.0000
G00 X35.2054 Y4.8092
G01 Z-2.4000
G00 Z2.0000
G00 X37.7553 Y4.8092
G01 Z-2.4000
G00 Z2.0000
G00 X40.2553 Y4.8092
G01 Z-2.4000
G00 Z2.0000
G00 X41.0919 Y10.2092
G01 Z-2.4000
G00 Z2.0000
G00 X38.5419 Y10.2092
G01 Z-2.4000
G00 Z2.0000
G00 X35.9419 Y10.2092
G01 Z-2.4000
G00 Z2.0000
G00 X33.3419 Y10.2092
G01 Z-2.4000
G00 Z2.0000
G00 X30.7418 Y10.2592
G01 Z-2.4000
G00 Z2.0000
G00 X28.1418 Y10.2592
G01 Z-2.4000
G00 Z2.0000
G00 X25.5919 Y10.2092
G01 Z-2.4000
G00 Z2.0000
G00 X22.9918 Y10.2592
G01 Z-2.4000
G00 Z2.0000
G00 X32.5307 Y14.7092
G01 Z-2.4000
G00 Z2.0000
G00 X32.5244 Y17.2591
G01 Z-2.4000
G00 Z2.0000
G00 X32.5180 Y19.8091
G01 Z-2.4000
G00 Z2.0000
G00 X32.5118 Y22.3091
G01 Z-2.4000
G00 Z2.0000
G00 X40.6023 Y26.1091
G01 Z-2.4000
G00 Z2.0000
G00 X41.5966 Y28.4091
G01 Z-2.4000
G00 Z2.0000
G00 X47.8435 Y29.6591
G01 Z-2.4000
G00 Z2.0000
G00 X48.8258 Y36.7591
G01 Z-2.4000
G00 Z2.0000
G00 X51.4258 Y36.7591
G01 Z-2.4000
G00 Z2.0000
G00 X54.0258 Y36.7591
G01 Z-2.4000
G00 Z2.0000
G00 X56.5758 Y36.7591
G01 Z-2.4000
G00 Z2.0000
G00 X59.1758 Y36.7591
G01 Z-2.4000
G00 Z2.0000
G00 X51.3592 Y43.4091
G01 Z-2.4000
G00 Z2.0000
G00 X46.1593 Y43.4091
G01 Z-2.4000
G00 Z2.0000
G00 X43.6593 Y43.4091
G01 Z-2.4000
G00 Z2.0000
G00 X43.6259 Y36.7091
G01 Z-2.4000
G00 Z2.0000
G00 X41.0260 Y36.7091
G01 Z-2.4000
G00 Z2.0000
G00 X38.4760 Y36.7091
G01 Z-2.4000
G00 Z2.0000
G00 X35.8760 Y36.7091
G01 Z-2.4000
G00 Z2.0000
G00 X33.2760 Y36.7091
G01 Z-2.4000
G00 Z2.0000
G00 X30.6760 Y36.7091
G01 Z-2.4000
G00 Z2.0000
G00 X28.1260 Y36.7091
G01 Z-2.4000
G00 Z2.0000
G00 X25.5260 Y36.7091
G01 Z-2.4000
G00 Z2.0000
G00 X22.9260 Y36.7091
G01 Z-2.4000
G00 Z2.0000
G00 X23.2673 Y40.2091
G01 Z-2.4000
G00 Z2.0000
G00 X23.2609 Y42.7591
G01 Z-2.4000
G00 Z2.0000
G00 X27.0602 Y43.0591
G01 Z-2.4000
G00 Z2.0000
G00 X36.1100 Y43.1091
G01 Z-2.4000
G00 Z2.0000
G00 X46.2258 Y36.7591
G01 Z-2.4000
G00 Z2.0000
G00 X47.8618 Y22.3091
G01 Z-2.4000
G00 Z2.0000
G00 X47.8680 Y19.8091
G01 Z-2.4000
G00 Z2.0000
G00 X47.8743 Y17.2591
G01 Z-2.4000
G00 Z2.0000
G00 X47.8807 Y14.7092
G01 Z-2.4000
G00 Z2.0000
G00 X51.6744 Y17.2091
G01 Z-2.4000
G00 Z2.0000
G00 X58.1186 Y19.5591
G01 Z-2.4000
G00 Z2.0000
G00 X62.8757 Y16.7091
G01 Z-2.4000
G00 Z2.0000
G00 X62.8820 Y14.1592
G01 Z-2.4000
G00 Z2.0000
G00 X62.8883 Y11.6092
G01 Z-2.4000
G00 Z2.0000
G00 X62.8947 Y9.0592
G01 Z-2.4000
G00 Z2.0000
G00 X62.9009 Y6.5592
G01 Z-2.4000
G00 Z2.0000
G00 X62.9573 Y4.0092
G01 Z-2.4000
G00 Z2.0000
G00 X59.2418 Y10.2092
G01 Z-2.4000
G00 Z2.0000
G00 X56.6418 Y10.2092
G01 Z-2.4000
G00 Z2.0000
G00 X54.0419 Y10.2092
G01 Z-2.4000
G00 Z2.0000
G00 X51.4919 Y10.2092
G01 Z-2.4000
G00 Z2.0000
G00 X48.8919 Y10.2092
G01 Z-2.4000
G00 Z2.0000
G00 X46.2919 Y10.2092
G01 Z-2.4000
G00 Z2.0000
G00 X43.6919 Y10.2092
G01 Z-2.4000
G00 Z2.0000
G00 X40.2851 Y12.9592
G01 Z-2.4000
G00 Z2.0000
G00 X46.4588 Y3.4092
G01 Z-2.4000
G00 Z2.0000
G00 X65.5893 Y11.2092
G01 Z-2.4000
G00 Z2.0000
G00 X67.2863 Y12.4092
G01 Z-2.4000
G00 Z2.0000
G00 X67.2776 Y15.9092
G01 Z-2.4000
G00 Z2.0000
G00 X67.8730 Y17.7591
G01 Z-2.4000
G00 Z2.0000
G00 X73.0757 Y16.6591
G01 Z-2.4000
G00 Z2.0000
G00 X73.0821 Y14.1092
G01 Z-2.4000
G00 Z2.0000
G00 X73.0884 Y11.5592
G01 Z-2.4000
G00 Z2.0000
G00 X73.0948 Y9.0092
G01 Z-2.4000
G00 Z2.0000
G00 X73.1010 Y6.5092
G01 Z-2.4000
G00 Z2.0000
G00 X73.1073 Y3.9592
G01 Z-2.4000
G00 Z2.0000
G00 X72.0052 Y24.9091
G01 Z-2.4000
G00 Z2.0000
G00 X68.9052 Y24.9091
G01 Z-2.4000
G00 Z2.0000
G00 X66.8049 Y25.0591
G01 Z-2.4000
G00 Z2.0000
G00 X63.7049 Y25.0591
G01 Z-2.4000
G00 Z2.0000
M05
G00 Z15.00
G00 X0.0 Y0.0


